<?xml version="1.0" encoding="UTF-8"?>
<map version="1.10" tiledversion="1.11.2" orientation="orthogonal" renderorder="right-down" width="120" height="90" tilewidth="16" tileheight="16" infinite="0" nextlayerid="11" nextobjectid="5">
 <tileset firstgid="1" source="tileset_cueva_fuego_con_fondo.tsx"/>
 <layer id="9" name="suelo" width="120" height="90">
  <data>
   <tile/>
   <tile/>
   <tile/>
   <tile/>
   <tile/>
   <tile/>
   <tile/>
   <tile/>
   <tile/>
   <tile/>
   <tile/>
   <tile/>
   <tile/>
   <tile/>
   <tile/>
   <tile/>
   <tile/>
   <tile/>
   <tile/>
   <tile/>
   <tile/>
   <tile/>
   <tile/>
   <tile/>
   <tile/>
   <tile/>
   <tile/>
   <tile/>
   <tile/>
   <tile/>
   <tile/>
   <tile/>
   <tile/>
   <tile/>
   <tile/>
   <tile/>
   <tile/>
   <tile/>
   <tile/>
   <tile/>
   <tile/>
   <tile/>
   <tile/>
   <tile/>
   <tile/>
   <tile/>
   <tile/>
   <tile/>
   <tile/>
   <tile/>
   <tile/>
   <tile/>
   <tile/>
   <tile/>
   <tile/>
   <tile/>
   <tile/>
   <tile/>
   <tile/>
   <tile/>
   <tile/>
   <tile/>
   <tile/>
   <tile/>
   <tile/>
   <tile/>
   <tile/>
   <tile/>
   <tile/>
   <tile/>
   <tile/>
   <tile/>
   <tile/>
   <tile/>
   <tile/>
   <tile/>
   <tile/>
   <tile/>
   <tile/>
   <tile/>
   <tile/>
   <tile/>
   <tile/>
   <tile/>
   <tile/>
   <tile/>
   <tile/>
   <tile/>
   <tile/>
   <tile/>
   <tile/>
   <tile/>
   <tile/>
   <tile/>
   <tile/>
   <tile/>
   <tile/>
   <tile/>
   <tile/>
   <tile/>
   <tile/>
   <tile/>
   <tile/>
   <tile/>
   <tile/>
   <tile/>
   <tile/>
   <tile/>
   <tile/>
   <tile/>
   <tile/>
   <tile/>
   <tile/>
   <tile/>
   <tile/>
   <tile/>
   <tile/>
   <tile/>
   <tile/>
   <tile/>
   <tile/>
   <tile/>
   <tile/>
   <tile/>
   <tile/>
   <tile/>
   <tile/>
   <tile/>
   <tile/>
   <tile/>
   <tile/>
   <tile/>
   <tile/>
   <tile/>
   <tile/>
   <tile/>
   <tile/>
   <tile/>
   <tile/>
   <tile/>
   <tile/>
   <tile/>
   <tile/>
   <tile/>
   <tile/>
   <tile/>
   <tile/>
   <tile/>
   <tile/>
   <tile/>
   <tile/>
   <tile/>
   <tile/>
   <tile/>
   <tile/>
   <tile/>
   <tile/>
   <tile/>
   <tile/>
   <tile/>
   <tile/>
   <tile/>
   <tile/>
   <tile/>
   <tile/>
   <tile/>
   <tile/>
   <tile/>
   <tile/>
   <tile/>
   <tile/>
   <tile/>
   <tile/>
   <tile/>
   <tile/>
   <tile/>
   <tile/>
   <tile/>
   <tile/>
   <tile/>
   <tile/>
   <tile/>
   <tile/>
   <tile/>
   <tile/>
   <tile/>
   <tile/>
   <tile/>
   <tile/>
   <tile/>
   <tile/>
   <tile/>
   <tile/>
   <tile/>
   <tile/>
   <tile/>
   <tile/>
   <tile/>
   <tile/>
   <tile/>
   <tile/>
   <tile/>
   <tile/>
   <tile/>
   <tile/>
   <tile/>
   <tile/>
   <tile/>
   <tile/>
   <tile/>
   <tile/>
   <tile/>
   <tile/>
   <tile/>
   <tile/>
   <tile/>
   <tile/>
   <tile/>
   <tile/>
   <tile/>
   <tile/>
   <tile/>
   <tile/>
   <tile/>
   <tile/>
   <tile/>
   <tile/>
   <tile/>
   <tile/>
   <tile/>
   <tile/>
   <tile/>
   <tile/>
   <tile/>
   <tile/>
   <tile/>
   <tile/>
   <tile/>
   <tile/>
   <tile/>
   <tile/>
   <tile/>
   <tile/>
   <tile/>
   <tile/>
   <tile/>
   <tile/>
   <tile/>
   <tile/>
   <tile/>
   <tile/>
   <tile/>
   <tile/>
   <tile/>
   <tile/>
   <tile/>
   <tile/>
   <tile/>
   <tile/>
   <tile/>
   <tile/>
   <tile/>
   <tile/>
   <tile/>
   <tile/>
   <tile/>
   <tile/>
   <tile/>
   <tile/>
   <tile/>
   <tile/>
   <tile/>
   <tile/>
   <tile/>
   <tile/>
   <tile/>
   <tile/>
   <tile/>
   <tile/>
   <tile/>
   <tile/>
   <tile/>
   <tile/>
   <tile/>
   <tile/>
   <tile/>
   <tile/>
   <tile/>
   <tile/>
   <tile/>
   <tile/>
   <tile/>
   <tile/>
   <tile/>
   <tile/>
   <tile/>
   <tile/>
   <tile/>
   <tile/>
   <tile/>
   <tile/>
   <tile/>
   <tile/>
   <tile/>
   <tile/>
   <tile/>
   <tile/>
   <tile/>
   <tile/>
   <tile/>
   <tile/>
   <tile/>
   <tile/>
   <tile/>
   <tile/>
   <tile/>
   <tile/>
   <tile/>
   <tile/>
   <tile/>
   <tile/>
   <tile/>
   <tile/>
   <tile/>
   <tile/>
   <tile/>
   <tile/>
   <tile/>
   <tile/>
   <tile/>
   <tile/>
   <tile/>
   <tile/>
   <tile/>
   <tile/>
   <tile/>
   <tile/>
   <tile/>
   <tile/>
   <tile/>
   <tile/>
   <tile/>
   <tile/>
   <tile/>
   <tile/>
   <tile/>
   <tile/>
   <tile/>
   <tile/>
   <tile/>
   <tile/>
   <tile/>
   <tile/>
   <tile/>
   <tile/>
   <tile/>
   <tile/>
   <tile/>
   <tile/>
   <tile/>
   <tile/>
   <tile/>
   <tile/>
   <tile/>
   <tile/>
   <tile/>
   <tile/>
   <tile/>
   <tile/>
   <tile/>
   <tile/>
   <tile/>
   <tile/>
   <tile/>
   <tile/>
   <tile/>
   <tile/>
   <tile/>
   <tile/>
   <tile/>
   <tile/>
   <tile/>
   <tile/>
   <tile/>
   <tile/>
   <tile/>
   <tile/>
   <tile/>
   <tile/>
   <tile/>
   <tile/>
   <tile/>
   <tile/>
   <tile/>
   <tile/>
   <tile/>
   <tile/>
   <tile/>
   <tile/>
   <tile/>
   <tile/>
   <tile/>
   <tile/>
   <tile/>
   <tile/>
   <tile/>
   <tile/>
   <tile/>
   <tile/>
   <tile/>
   <tile/>
   <tile/>
   <tile/>
   <tile/>
   <tile/>
   <tile/>
   <tile/>
   <tile/>
   <tile/>
   <tile/>
   <tile/>
   <tile/>
   <tile/>
   <tile/>
   <tile/>
   <tile/>
   <tile/>
   <tile/>
   <tile/>
   <tile/>
   <tile/>
   <tile/>
   <tile/>
   <tile/>
   <tile/>
   <tile/>
   <tile/>
   <tile/>
   <tile/>
   <tile/>
   <tile/>
   <tile/>
   <tile/>
   <tile/>
   <tile/>
   <tile/>
   <tile/>
   <tile/>
   <tile/>
   <tile/>
   <tile/>
   <tile/>
   <tile/>
   <tile/>
   <tile/>
   <tile/>
   <tile/>
   <tile/>
   <tile/>
   <tile/>
   <tile/>
   <tile/>
   <tile/>
   <tile/>
   <tile/>
   <tile/>
   <tile/>
   <tile/>
   <tile/>
   <tile/>
   <tile/>
   <tile/>
   <tile/>
   <tile/>
   <tile/>
   <tile/>
   <tile/>
   <tile/>
   <tile/>
   <tile/>
   <tile/>
   <tile/>
   <tile/>
   <tile/>
   <tile/>
   <tile/>
   <tile/>
   <tile/>
   <tile/>
   <tile/>
   <tile/>
   <tile/>
   <tile/>
   <tile/>
   <tile/>
   <tile/>
   <tile/>
   <tile/>
   <tile/>
   <tile/>
   <tile/>
   <tile/>
   <tile/>
   <tile/>
   <tile/>
   <tile/>
   <tile/>
   <tile/>
   <tile/>
   <tile/>
   <tile/>
   <tile/>
   <tile/>
   <tile/>
   <tile/>
   <tile/>
   <tile/>
   <tile/>
   <tile/>
   <tile/>
   <tile/>
   <tile/>
   <tile/>
   <tile/>
   <tile/>
   <tile/>
   <tile/>
   <tile/>
   <tile/>
   <tile/>
   <tile/>
   <tile/>
   <tile/>
   <tile/>
   <tile/>
   <tile/>
   <tile/>
   <tile/>
   <tile/>
   <tile/>
   <tile/>
   <tile/>
   <tile/>
   <tile/>
   <tile/>
   <tile/>
   <tile/>
   <tile/>
   <tile/>
   <tile/>
   <tile/>
   <tile/>
   <tile/>
   <tile/>
   <tile/>
   <tile/>
   <tile/>
   <tile/>
   <tile/>
   <tile/>
   <tile/>
   <tile/>
   <tile/>
   <tile/>
   <tile/>
   <tile/>
   <tile/>
   <tile/>
   <tile/>
   <tile/>
   <tile/>
   <tile/>
   <tile/>
   <tile/>
   <tile/>
   <tile/>
   <tile/>
   <tile/>
   <tile/>
   <tile/>
   <tile/>
   <tile/>
   <tile/>
   <tile/>
   <tile/>
   <tile/>
   <tile/>
   <tile/>
   <tile/>
   <tile/>
   <tile/>
   <tile/>
   <tile/>
   <tile/>
   <tile/>
   <tile/>
   <tile/>
   <tile/>
   <tile/>
   <tile/>
   <tile/>
   <tile/>
   <tile/>
   <tile/>
   <tile/>
   <tile/>
   <tile/>
   <tile/>
   <tile/>
   <tile/>
   <tile/>
   <tile/>
   <tile/>
   <tile/>
   <tile/>
   <tile/>
   <tile/>
   <tile/>
   <tile/>
   <tile/>
   <tile/>
   <tile/>
   <tile/>
   <tile/>
   <tile/>
   <tile/>
   <tile/>
   <tile/>
   <tile/>
   <tile/>
   <tile/>
   <tile/>
   <tile/>
   <tile/>
   <tile/>
   <tile/>
   <tile/>
   <tile/>
   <tile/>
   <tile/>
   <tile/>
   <tile/>
   <tile/>
   <tile/>
   <tile/>
   <tile/>
   <tile/>
   <tile/>
   <tile/>
   <tile/>
   <tile/>
   <tile/>
   <tile/>
   <tile/>
   <tile/>
   <tile/>
   <tile/>
   <tile/>
   <tile/>
   <tile/>
   <tile/>
   <tile/>
   <tile/>
   <tile/>
   <tile/>
   <tile/>
   <tile/>
   <tile/>
   <tile/>
   <tile/>
   <tile/>
   <tile/>
   <tile/>
   <tile/>
   <tile/>
   <tile/>
   <tile/>
   <tile/>
   <tile/>
   <tile/>
   <tile/>
   <tile/>
   <tile/>
   <tile/>
   <tile/>
   <tile/>
   <tile/>
   <tile/>
   <tile/>
   <tile/>
   <tile/>
   <tile/>
   <tile/>
   <tile/>
   <tile/>
   <tile/>
   <tile/>
   <tile/>
   <tile/>
   <tile/>
   <tile/>
   <tile/>
   <tile/>
   <tile/>
   <tile/>
   <tile/>
   <tile/>
   <tile/>
   <tile/>
   <tile/>
   <tile/>
   <tile/>
   <tile/>
   <tile/>
   <tile/>
   <tile/>
   <tile/>
   <tile/>
   <tile/>
   <tile/>
   <tile/>
   <tile/>
   <tile/>
   <tile/>
   <tile/>
   <tile/>
   <tile/>
   <tile/>
   <tile/>
   <tile/>
   <tile/>
   <tile/>
   <tile/>
   <tile/>
   <tile/>
   <tile/>
   <tile/>
   <tile/>
   <tile/>
   <tile/>
   <tile/>
   <tile/>
   <tile/>
   <tile/>
   <tile/>
   <tile/>
   <tile/>
   <tile/>
   <tile/>
   <tile/>
   <tile/>
   <tile/>
   <tile/>
   <tile/>
   <tile/>
   <tile/>
   <tile/>
   <tile/>
   <tile/>
   <tile/>
   <tile/>
   <tile/>
   <tile/>
   <tile/>
   <tile/>
   <tile/>
   <tile/>
   <tile/>
   <tile/>
   <tile/>
   <tile/>
   <tile/>
   <tile/>
   <tile/>
   <tile/>
   <tile/>
   <tile/>
   <tile/>
   <tile/>
   <tile/>
   <tile/>
   <tile/>
   <tile/>
   <tile/>
   <tile/>
   <tile/>
   <tile/>
   <tile/>
   <tile/>
   <tile/>
   <tile/>
   <tile/>
   <tile/>
   <tile/>
   <tile/>
   <tile/>
   <tile/>
   <tile/>
   <tile/>
   <tile/>
   <tile/>
   <tile/>
   <tile/>
   <tile/>
   <tile/>
   <tile/>
   <tile/>
   <tile/>
   <tile/>
   <tile/>
   <tile/>
   <tile/>
   <tile/>
   <tile/>
   <tile/>
   <tile/>
   <tile/>
   <tile/>
   <tile/>
   <tile/>
   <tile/>
   <tile/>
   <tile/>
   <tile/>
   <tile/>
   <tile/>
   <tile/>
   <tile/>
   <tile/>
   <tile/>
   <tile/>
   <tile/>
   <tile/>
   <tile/>
   <tile/>
   <tile/>
   <tile/>
   <tile/>
   <tile/>
   <tile/>
   <tile/>
   <tile/>
   <tile/>
   <tile/>
   <tile/>
   <tile/>
   <tile/>
   <tile/>
   <tile/>
   <tile/>
   <tile/>
   <tile/>
   <tile/>
   <tile/>
   <tile/>
   <tile/>
   <tile/>
   <tile/>
   <tile/>
   <tile/>
   <tile/>
   <tile/>
   <tile/>
   <tile/>
   <tile/>
   <tile/>
   <tile/>
   <tile/>
   <tile/>
   <tile/>
   <tile/>
   <tile/>
   <tile/>
   <tile/>
   <tile/>
   <tile/>
   <tile/>
   <tile/>
   <tile/>
   <tile/>
   <tile/>
   <tile/>
   <tile/>
   <tile/>
   <tile/>
   <tile/>
   <tile/>
   <tile/>
   <tile/>
   <tile/>
   <tile/>
   <tile/>
   <tile/>
   <tile/>
   <tile/>
   <tile/>
   <tile/>
   <tile/>
   <tile/>
   <tile/>
   <tile/>
   <tile/>
   <tile/>
   <tile/>
   <tile/>
   <tile/>
   <tile/>
   <tile/>
   <tile/>
   <tile/>
   <tile/>
   <tile/>
   <tile/>
   <tile/>
   <tile/>
   <tile/>
   <tile/>
   <tile/>
   <tile/>
   <tile/>
   <tile/>
   <tile/>
   <tile/>
   <tile/>
   <tile/>
   <tile/>
   <tile/>
   <tile/>
   <tile/>
   <tile/>
   <tile/>
   <tile/>
   <tile/>
   <tile/>
   <tile/>
   <tile/>
   <tile/>
   <tile/>
   <tile/>
   <tile/>
   <tile/>
   <tile/>
   <tile/>
   <tile/>
   <tile/>
   <tile/>
   <tile/>
   <tile/>
   <tile/>
   <tile/>
   <tile/>
   <tile/>
   <tile/>
   <tile/>
   <tile/>
   <tile/>
   <tile/>
   <tile/>
   <tile/>
   <tile/>
   <tile/>
   <tile/>
   <tile/>
   <tile/>
   <tile/>
   <tile/>
   <tile/>
   <tile/>
   <tile/>
   <tile/>
   <tile/>
   <tile/>
   <tile/>
   <tile/>
   <tile/>
   <tile/>
   <tile/>
   <tile/>
   <tile/>
   <tile/>
   <tile/>
   <tile/>
   <tile/>
   <tile/>
   <tile/>
   <tile/>
   <tile/>
   <tile/>
   <tile/>
   <tile/>
   <tile/>
   <tile/>
   <tile/>
   <tile/>
   <tile/>
   <tile/>
   <tile/>
   <tile/>
   <tile/>
   <tile/>
   <tile/>
   <tile/>
   <tile/>
   <tile/>
   <tile/>
   <tile/>
   <tile/>
   <tile/>
   <tile/>
   <tile/>
   <tile/>
   <tile/>
   <tile/>
   <tile/>
   <tile/>
   <tile/>
   <tile/>
   <tile/>
   <tile/>
   <tile/>
   <tile/>
   <tile/>
   <tile/>
   <tile/>
   <tile/>
   <tile/>
   <tile/>
   <tile/>
   <tile/>
   <tile/>
   <tile/>
   <tile/>
   <tile/>
   <tile/>
   <tile/>
   <tile/>
   <tile/>
   <tile/>
   <tile/>
   <tile/>
   <tile/>
   <tile/>
   <tile/>
   <tile/>
   <tile/>
   <tile/>
   <tile/>
   <tile/>
   <tile/>
   <tile/>
   <tile/>
   <tile/>
   <tile/>
   <tile/>
   <tile/>
   <tile/>
   <tile/>
   <tile/>
   <tile/>
   <tile/>
   <tile/>
   <tile/>
   <tile/>
   <tile/>
   <tile/>
   <tile/>
   <tile/>
   <tile/>
   <tile/>
   <tile/>
   <tile/>
   <tile/>
   <tile/>
   <tile/>
   <tile/>
   <tile/>
   <tile/>
   <tile/>
   <tile/>
   <tile/>
   <tile/>
   <tile/>
   <tile/>
   <tile/>
   <tile/>
   <tile/>
   <tile/>
   <tile/>
   <tile/>
   <tile/>
   <tile/>
   <tile/>
   <tile/>
   <tile/>
   <tile/>
   <tile/>
   <tile/>
   <tile/>
   <tile/>
   <tile/>
   <tile/>
   <tile/>
   <tile/>
   <tile/>
   <tile/>
   <tile/>
   <tile/>
   <tile/>
   <tile/>
   <tile/>
   <tile/>
   <tile/>
   <tile/>
   <tile/>
   <tile/>
   <tile/>
   <tile/>
   <tile/>
   <tile/>
   <tile/>
   <tile/>
   <tile/>
   <tile/>
   <tile/>
   <tile/>
   <tile/>
   <tile/>
   <tile/>
   <tile/>
   <tile/>
   <tile/>
   <tile/>
   <tile/>
   <tile/>
   <tile/>
   <tile/>
   <tile/>
   <tile/>
   <tile/>
   <tile/>
   <tile/>
   <tile/>
   <tile/>
   <tile/>
   <tile/>
   <tile/>
   <tile/>
   <tile/>
   <tile/>
   <tile/>
   <tile/>
   <tile/>
   <tile/>
   <tile/>
   <tile/>
   <tile/>
   <tile/>
   <tile/>
   <tile/>
   <tile/>
   <tile/>
   <tile/>
   <tile/>
   <tile/>
   <tile/>
   <tile/>
   <tile/>
   <tile/>
   <tile/>
   <tile/>
   <tile/>
   <tile/>
   <tile/>
   <tile/>
   <tile/>
   <tile/>
   <tile/>
   <tile/>
   <tile/>
   <tile/>
   <tile/>
   <tile/>
   <tile/>
   <tile/>
   <tile/>
   <tile/>
   <tile/>
   <tile/>
   <tile/>
   <tile/>
   <tile/>
   <tile/>
   <tile/>
   <tile/>
   <tile/>
   <tile/>
   <tile/>
   <tile/>
   <tile/>
   <tile/>
   <tile/>
   <tile/>
   <tile/>
   <tile/>
   <tile/>
   <tile/>
   <tile/>
   <tile/>
   <tile/>
   <tile/>
   <tile/>
   <tile/>
   <tile/>
   <tile/>
   <tile/>
   <tile/>
   <tile/>
   <tile/>
   <tile/>
   <tile/>
   <tile/>
   <tile/>
   <tile/>
   <tile/>
   <tile/>
   <tile/>
   <tile/>
   <tile/>
   <tile/>
   <tile/>
   <tile/>
   <tile/>
   <tile/>
   <tile/>
   <tile/>
   <tile/>
   <tile/>
   <tile/>
   <tile/>
   <tile/>
   <tile/>
   <tile/>
   <tile/>
   <tile/>
   <tile/>
   <tile/>
   <tile/>
   <tile/>
   <tile/>
   <tile/>
   <tile/>
   <tile/>
   <tile/>
   <tile/>
   <tile/>
   <tile/>
   <tile/>
   <tile/>
   <tile/>
   <tile/>
   <tile/>
   <tile/>
   <tile/>
   <tile/>
   <tile/>
   <tile/>
   <tile/>
   <tile/>
   <tile/>
   <tile/>
   <tile/>
   <tile/>
   <tile/>
   <tile/>
   <tile/>
   <tile/>
   <tile/>
   <tile/>
   <tile/>
   <tile/>
   <tile/>
   <tile/>
   <tile/>
   <tile/>
   <tile/>
   <tile/>
   <tile/>
   <tile/>
   <tile/>
   <tile/>
   <tile/>
   <tile/>
   <tile/>
   <tile/>
   <tile/>
   <tile/>
   <tile/>
   <tile/>
   <tile/>
   <tile/>
   <tile/>
   <tile/>
   <tile/>
   <tile/>
   <tile/>
   <tile/>
   <tile/>
   <tile/>
   <tile/>
   <tile/>
   <tile/>
   <tile/>
   <tile/>
   <tile/>
   <tile/>
   <tile/>
   <tile/>
   <tile/>
   <tile/>
   <tile/>
   <tile/>
   <tile/>
   <tile/>
   <tile/>
   <tile/>
   <tile/>
   <tile/>
   <tile/>
   <tile/>
   <tile/>
   <tile/>
   <tile/>
   <tile/>
   <tile/>
   <tile/>
   <tile/>
   <tile/>
   <tile/>
   <tile/>
   <tile/>
   <tile/>
   <tile/>
   <tile/>
   <tile/>
   <tile/>
   <tile/>
   <tile/>
   <tile/>
   <tile/>
   <tile/>
   <tile/>
   <tile/>
   <tile/>
   <tile/>
   <tile/>
   <tile/>
   <tile/>
   <tile/>
   <tile/>
   <tile/>
   <tile/>
   <tile/>
   <tile/>
   <tile/>
   <tile/>
   <tile/>
   <tile/>
   <tile/>
   <tile/>
   <tile/>
   <tile/>
   <tile/>
   <tile/>
   <tile/>
   <tile/>
   <tile/>
   <tile/>
   <tile/>
   <tile/>
   <tile/>
   <tile/>
   <tile/>
   <tile/>
   <tile/>
   <tile/>
   <tile/>
   <tile/>
   <tile/>
   <tile/>
   <tile/>
   <tile/>
   <tile/>
   <tile/>
   <tile/>
   <tile/>
   <tile/>
   <tile/>
   <tile/>
   <tile/>
   <tile/>
   <tile/>
   <tile/>
   <tile/>
   <tile/>
   <tile/>
   <tile/>
   <tile/>
   <tile/>
   <tile/>
   <tile/>
   <tile/>
   <tile/>
   <tile/>
   <tile/>
   <tile/>
   <tile/>
   <tile/>
   <tile/>
   <tile/>
   <tile/>
   <tile/>
   <tile/>
   <tile/>
   <tile/>
   <tile/>
   <tile/>
   <tile/>
   <tile/>
   <tile/>
   <tile/>
   <tile/>
   <tile/>
   <tile/>
   <tile/>
   <tile/>
   <tile/>
   <tile/>
   <tile/>
   <tile/>
   <tile/>
   <tile/>
   <tile/>
   <tile/>
   <tile/>
   <tile/>
   <tile/>
   <tile/>
   <tile/>
   <tile/>
   <tile/>
   <tile/>
   <tile/>
   <tile/>
   <tile/>
   <tile/>
   <tile/>
   <tile/>
   <tile/>
   <tile/>
   <tile/>
   <tile/>
   <tile/>
   <tile/>
   <tile/>
   <tile/>
   <tile/>
   <tile/>
   <tile/>
   <tile/>
   <tile/>
   <tile/>
   <tile/>
   <tile/>
   <tile/>
   <tile/>
   <tile/>
   <tile/>
   <tile/>
   <tile/>
   <tile/>
   <tile/>
   <tile/>
   <tile/>
   <tile/>
   <tile/>
   <tile/>
   <tile/>
   <tile/>
   <tile/>
   <tile/>
   <tile/>
   <tile/>
   <tile/>
   <tile/>
   <tile/>
   <tile/>
   <tile/>
   <tile/>
   <tile/>
   <tile/>
   <tile/>
   <tile/>
   <tile/>
   <tile/>
   <tile/>
   <tile/>
   <tile/>
   <tile/>
   <tile/>
   <tile/>
   <tile/>
   <tile/>
   <tile/>
   <tile/>
   <tile/>
   <tile/>
   <tile/>
   <tile/>
   <tile/>
   <tile/>
   <tile/>
   <tile/>
   <tile/>
   <tile/>
   <tile/>
   <tile/>
   <tile/>
   <tile/>
   <tile/>
   <tile/>
   <tile/>
   <tile/>
   <tile/>
   <tile/>
   <tile/>
   <tile/>
   <tile/>
   <tile/>
   <tile/>
   <tile/>
   <tile/>
   <tile/>
   <tile/>
   <tile/>
   <tile/>
   <tile/>
   <tile/>
   <tile/>
   <tile/>
   <tile/>
   <tile/>
   <tile/>
   <tile/>
   <tile/>
   <tile/>
   <tile/>
   <tile/>
   <tile/>
   <tile/>
   <tile/>
   <tile/>
   <tile/>
   <tile/>
   <tile/>
   <tile/>
   <tile/>
   <tile/>
   <tile/>
   <tile/>
   <tile/>
   <tile/>
   <tile/>
   <tile/>
   <tile/>
   <tile/>
   <tile/>
   <tile/>
   <tile/>
   <tile/>
   <tile/>
   <tile/>
   <tile/>
   <tile/>
   <tile/>
   <tile/>
   <tile/>
   <tile/>
   <tile/>
   <tile/>
   <tile/>
   <tile/>
   <tile/>
   <tile/>
   <tile/>
   <tile/>
   <tile/>
   <tile/>
   <tile/>
   <tile/>
   <tile/>
   <tile/>
   <tile/>
   <tile/>
   <tile/>
   <tile/>
   <tile/>
   <tile/>
   <tile/>
   <tile/>
   <tile/>
   <tile/>
   <tile/>
   <tile/>
   <tile/>
   <tile/>
   <tile/>
   <tile/>
   <tile/>
   <tile/>
   <tile/>
   <tile/>
   <tile/>
   <tile/>
   <tile/>
   <tile/>
   <tile/>
   <tile/>
   <tile/>
   <tile/>
   <tile/>
   <tile/>
   <tile/>
   <tile/>
   <tile/>
   <tile/>
   <tile/>
   <tile/>
   <tile/>
   <tile/>
   <tile/>
   <tile/>
   <tile/>
   <tile/>
   <tile/>
   <tile/>
   <tile/>
   <tile/>
   <tile/>
   <tile/>
   <tile/>
   <tile/>
   <tile/>
   <tile/>
   <tile/>
   <tile/>
   <tile/>
   <tile/>
   <tile/>
   <tile/>
   <tile/>
   <tile/>
   <tile/>
   <tile/>
   <tile/>
   <tile/>
   <tile/>
   <tile/>
   <tile/>
   <tile/>
   <tile/>
   <tile/>
   <tile/>
   <tile/>
   <tile/>
   <tile/>
   <tile/>
   <tile/>
   <tile/>
   <tile/>
   <tile/>
   <tile/>
   <tile/>
   <tile/>
   <tile/>
   <tile/>
   <tile/>
   <tile/>
   <tile/>
   <tile/>
   <tile/>
   <tile/>
   <tile/>
   <tile/>
   <tile/>
   <tile/>
   <tile/>
   <tile/>
   <tile/>
   <tile/>
   <tile/>
   <tile/>
   <tile/>
   <tile/>
   <tile/>
   <tile/>
   <tile/>
   <tile/>
   <tile/>
   <tile/>
   <tile/>
   <tile/>
   <tile/>
   <tile/>
   <tile/>
   <tile/>
   <tile/>
   <tile/>
   <tile/>
   <tile/>
   <tile/>
   <tile/>
   <tile/>
   <tile/>
   <tile/>
   <tile/>
   <tile/>
   <tile/>
   <tile/>
   <tile/>
   <tile/>
   <tile/>
   <tile/>
   <tile/>
   <tile/>
   <tile/>
   <tile/>
   <tile/>
   <tile/>
   <tile/>
   <tile/>
   <tile/>
   <tile/>
   <tile/>
   <tile/>
   <tile/>
   <tile/>
   <tile/>
   <tile/>
   <tile/>
   <tile/>
   <tile/>
   <tile/>
   <tile/>
   <tile/>
   <tile/>
   <tile/>
   <tile/>
   <tile/>
   <tile/>
   <tile/>
   <tile/>
   <tile/>
   <tile/>
   <tile/>
   <tile/>
   <tile/>
   <tile/>
   <tile/>
   <tile/>
   <tile/>
   <tile/>
   <tile/>
   <tile/>
   <tile/>
   <tile/>
   <tile/>
   <tile/>
   <tile/>
   <tile/>
   <tile/>
   <tile/>
   <tile/>
   <tile/>
   <tile/>
   <tile/>
   <tile/>
   <tile/>
   <tile/>
   <tile/>
   <tile/>
   <tile/>
   <tile/>
   <tile/>
   <tile/>
   <tile/>
   <tile/>
   <tile/>
   <tile/>
   <tile/>
   <tile/>
   <tile/>
   <tile/>
   <tile/>
   <tile/>
   <tile/>
   <tile/>
   <tile/>
   <tile/>
   <tile/>
   <tile/>
   <tile/>
   <tile/>
   <tile/>
   <tile/>
   <tile/>
   <tile/>
   <tile/>
   <tile/>
   <tile/>
   <tile/>
   <tile/>
   <tile/>
   <tile/>
   <tile/>
   <tile/>
   <tile/>
   <tile/>
   <tile/>
   <tile/>
   <tile/>
   <tile/>
   <tile/>
   <tile/>
   <tile/>
   <tile/>
   <tile/>
   <tile/>
   <tile/>
   <tile/>
   <tile/>
   <tile/>
   <tile/>
   <tile/>
   <tile/>
   <tile/>
   <tile/>
   <tile/>
   <tile/>
   <tile/>
   <tile/>
   <tile/>
   <tile/>
   <tile/>
   <tile gid="5609"/>
   <tile gid="5608"/>
   <tile gid="5609"/>
   <tile gid="5608"/>
   <tile gid="5609"/>
   <tile gid="5608"/>
   <tile gid="5609"/>
   <tile gid="5608"/>
   <tile gid="5609"/>
   <tile gid="5608"/>
   <tile gid="5609"/>
   <tile gid="5608"/>
   <tile gid="5609"/>
   <tile gid="5608"/>
   <tile/>
   <tile/>
   <tile/>
   <tile/>
   <tile/>
   <tile/>
   <tile/>
   <tile/>
   <tile/>
   <tile/>
   <tile/>
   <tile/>
   <tile/>
   <tile/>
   <tile/>
   <tile/>
   <tile/>
   <tile/>
   <tile/>
   <tile/>
   <tile/>
   <tile/>
   <tile/>
   <tile/>
   <tile/>
   <tile/>
   <tile/>
   <tile/>
   <tile/>
   <tile/>
   <tile/>
   <tile/>
   <tile/>
   <tile/>
   <tile/>
   <tile/>
   <tile/>
   <tile/>
   <tile/>
   <tile/>
   <tile/>
   <tile/>
   <tile/>
   <tile/>
   <tile/>
   <tile/>
   <tile/>
   <tile/>
   <tile/>
   <tile/>
   <tile/>
   <tile/>
   <tile/>
   <tile/>
   <tile/>
   <tile/>
   <tile/>
   <tile/>
   <tile/>
   <tile/>
   <tile/>
   <tile/>
   <tile/>
   <tile/>
   <tile/>
   <tile/>
   <tile/>
   <tile/>
   <tile/>
   <tile/>
   <tile/>
   <tile/>
   <tile/>
   <tile/>
   <tile/>
   <tile/>
   <tile/>
   <tile/>
   <tile/>
   <tile/>
   <tile/>
   <tile/>
   <tile/>
   <tile/>
   <tile/>
   <tile/>
   <tile/>
   <tile/>
   <tile/>
   <tile/>
   <tile/>
   <tile/>
   <tile/>
   <tile/>
   <tile/>
   <tile/>
   <tile/>
   <tile/>
   <tile/>
   <tile/>
   <tile/>
   <tile/>
   <tile/>
   <tile/>
   <tile/>
   <tile/>
   <tile gid="5545"/>
   <tile gid="5544"/>
   <tile gid="5545"/>
   <tile gid="5544"/>
   <tile gid="5545"/>
   <tile gid="5544"/>
   <tile gid="5545"/>
   <tile gid="5544"/>
   <tile gid="5545"/>
   <tile gid="5544"/>
   <tile gid="5545"/>
   <tile gid="5544"/>
   <tile gid="5545"/>
   <tile gid="5544"/>
   <tile/>
   <tile/>
   <tile/>
   <tile/>
   <tile/>
   <tile/>
   <tile/>
   <tile/>
   <tile/>
   <tile/>
   <tile/>
   <tile/>
   <tile/>
   <tile/>
   <tile/>
   <tile/>
   <tile/>
   <tile/>
   <tile/>
   <tile/>
   <tile/>
   <tile/>
   <tile/>
   <tile/>
   <tile/>
   <tile/>
   <tile/>
   <tile/>
   <tile/>
   <tile/>
   <tile/>
   <tile/>
   <tile/>
   <tile/>
   <tile/>
   <tile/>
   <tile/>
   <tile/>
   <tile/>
   <tile/>
   <tile/>
   <tile/>
   <tile/>
   <tile/>
   <tile/>
   <tile/>
   <tile/>
   <tile/>
   <tile/>
   <tile/>
   <tile/>
   <tile/>
   <tile/>
   <tile/>
   <tile/>
   <tile/>
   <tile/>
   <tile/>
   <tile/>
   <tile/>
   <tile/>
   <tile/>
   <tile/>
   <tile/>
   <tile/>
   <tile/>
   <tile/>
   <tile/>
   <tile/>
   <tile/>
   <tile/>
   <tile/>
   <tile/>
   <tile/>
   <tile/>
   <tile/>
   <tile/>
   <tile/>
   <tile/>
   <tile/>
   <tile/>
   <tile/>
   <tile/>
   <tile/>
   <tile/>
   <tile/>
   <tile/>
   <tile/>
   <tile/>
   <tile/>
   <tile/>
   <tile/>
   <tile/>
   <tile/>
   <tile/>
   <tile/>
   <tile/>
   <tile/>
   <tile/>
   <tile/>
   <tile/>
   <tile/>
   <tile/>
   <tile/>
   <tile/>
   <tile/>
   <tile gid="5609"/>
   <tile gid="5608"/>
   <tile gid="5609"/>
   <tile gid="5608"/>
   <tile gid="5609"/>
   <tile gid="5608"/>
   <tile gid="5609"/>
   <tile gid="5608"/>
   <tile gid="5609"/>
   <tile gid="5608"/>
   <tile gid="5609"/>
   <tile gid="5608"/>
   <tile gid="5609"/>
   <tile gid="5608"/>
   <tile/>
   <tile/>
   <tile/>
   <tile/>
   <tile/>
   <tile/>
   <tile/>
   <tile/>
   <tile/>
   <tile/>
   <tile/>
   <tile/>
   <tile/>
   <tile/>
   <tile/>
   <tile/>
   <tile/>
   <tile/>
   <tile/>
   <tile/>
   <tile/>
   <tile/>
   <tile/>
   <tile/>
   <tile/>
   <tile/>
   <tile/>
   <tile/>
   <tile/>
   <tile/>
   <tile/>
   <tile/>
   <tile/>
   <tile/>
   <tile/>
   <tile/>
   <tile/>
   <tile/>
   <tile/>
   <tile/>
   <tile/>
   <tile/>
   <tile/>
   <tile/>
   <tile/>
   <tile/>
   <tile/>
   <tile/>
   <tile/>
   <tile/>
   <tile/>
   <tile/>
   <tile/>
   <tile/>
   <tile/>
   <tile/>
   <tile/>
   <tile/>
   <tile/>
   <tile/>
   <tile/>
   <tile/>
   <tile/>
   <tile/>
   <tile/>
   <tile/>
   <tile/>
   <tile/>
   <tile/>
   <tile/>
   <tile/>
   <tile/>
   <tile/>
   <tile/>
   <tile/>
   <tile/>
   <tile/>
   <tile/>
   <tile/>
   <tile/>
   <tile/>
   <tile/>
   <tile/>
   <tile/>
   <tile/>
   <tile/>
   <tile/>
   <tile/>
   <tile/>
   <tile/>
   <tile/>
   <tile/>
   <tile/>
   <tile/>
   <tile/>
   <tile/>
   <tile/>
   <tile/>
   <tile/>
   <tile/>
   <tile/>
   <tile/>
   <tile/>
   <tile/>
   <tile/>
   <tile/>
   <tile gid="5545"/>
   <tile gid="5544"/>
   <tile gid="5545"/>
   <tile gid="5544"/>
   <tile gid="5545"/>
   <tile gid="5544"/>
   <tile gid="5545"/>
   <tile gid="5544"/>
   <tile gid="5545"/>
   <tile gid="5544"/>
   <tile gid="5545"/>
   <tile gid="5544"/>
   <tile gid="5545"/>
   <tile gid="5544"/>
   <tile/>
   <tile/>
   <tile/>
   <tile/>
   <tile/>
   <tile/>
   <tile/>
   <tile/>
   <tile/>
   <tile/>
   <tile/>
   <tile/>
   <tile/>
   <tile/>
   <tile/>
   <tile/>
   <tile/>
   <tile/>
   <tile/>
   <tile/>
   <tile/>
   <tile/>
   <tile/>
   <tile/>
   <tile/>
   <tile/>
   <tile/>
   <tile/>
   <tile/>
   <tile/>
   <tile/>
   <tile/>
   <tile/>
   <tile/>
   <tile/>
   <tile/>
   <tile/>
   <tile/>
   <tile/>
   <tile/>
   <tile/>
   <tile/>
   <tile/>
   <tile/>
   <tile/>
   <tile/>
   <tile/>
   <tile/>
   <tile/>
   <tile/>
   <tile/>
   <tile/>
   <tile/>
   <tile/>
   <tile/>
   <tile/>
   <tile/>
   <tile/>
   <tile/>
   <tile/>
   <tile/>
   <tile/>
   <tile/>
   <tile/>
   <tile/>
   <tile/>
   <tile/>
   <tile/>
   <tile/>
   <tile/>
   <tile/>
   <tile/>
   <tile/>
   <tile/>
   <tile/>
   <tile/>
   <tile/>
   <tile/>
   <tile/>
   <tile/>
   <tile/>
   <tile/>
   <tile/>
   <tile/>
   <tile/>
   <tile/>
   <tile/>
   <tile/>
   <tile/>
   <tile/>
   <tile/>
   <tile/>
   <tile/>
   <tile/>
   <tile/>
   <tile/>
   <tile/>
   <tile/>
   <tile/>
   <tile/>
   <tile/>
   <tile/>
   <tile/>
   <tile/>
   <tile/>
   <tile/>
   <tile gid="5609"/>
   <tile gid="5608"/>
   <tile gid="5609"/>
   <tile gid="5608"/>
   <tile gid="5609"/>
   <tile gid="5608"/>
   <tile gid="5609"/>
   <tile gid="5608"/>
   <tile gid="5609"/>
   <tile gid="5608"/>
   <tile gid="5609"/>
   <tile gid="5608"/>
   <tile gid="5609"/>
   <tile gid="5608"/>
   <tile/>
   <tile/>
   <tile/>
   <tile/>
   <tile/>
   <tile/>
   <tile/>
   <tile/>
   <tile/>
   <tile/>
   <tile/>
   <tile/>
   <tile/>
   <tile/>
   <tile/>
   <tile/>
   <tile/>
   <tile/>
   <tile/>
   <tile/>
   <tile/>
   <tile/>
   <tile/>
   <tile/>
   <tile/>
   <tile/>
   <tile/>
   <tile/>
   <tile/>
   <tile/>
   <tile/>
   <tile/>
   <tile/>
   <tile/>
   <tile/>
   <tile/>
   <tile/>
   <tile/>
   <tile/>
   <tile/>
   <tile/>
   <tile/>
   <tile/>
   <tile/>
   <tile/>
   <tile/>
   <tile/>
   <tile/>
   <tile/>
   <tile/>
   <tile/>
   <tile/>
   <tile/>
   <tile/>
   <tile/>
   <tile/>
   <tile/>
   <tile/>
   <tile/>
   <tile/>
   <tile/>
   <tile/>
   <tile/>
   <tile/>
   <tile/>
   <tile/>
   <tile/>
   <tile/>
   <tile/>
   <tile/>
   <tile/>
   <tile/>
   <tile/>
   <tile/>
   <tile/>
   <tile/>
   <tile/>
   <tile/>
   <tile/>
   <tile/>
   <tile/>
   <tile/>
   <tile/>
   <tile/>
   <tile/>
   <tile/>
   <tile/>
   <tile/>
   <tile/>
   <tile/>
   <tile/>
   <tile/>
   <tile/>
   <tile/>
   <tile/>
   <tile/>
   <tile/>
   <tile/>
   <tile/>
   <tile/>
   <tile/>
   <tile/>
   <tile/>
   <tile/>
   <tile/>
   <tile/>
   <tile gid="5545"/>
   <tile gid="5544"/>
   <tile gid="5545"/>
   <tile gid="5544"/>
   <tile gid="5545"/>
   <tile gid="5544"/>
   <tile gid="5545"/>
   <tile gid="5544"/>
   <tile gid="5545"/>
   <tile gid="5544"/>
   <tile gid="5545"/>
   <tile gid="5544"/>
   <tile gid="5545"/>
   <tile gid="5544"/>
   <tile/>
   <tile/>
   <tile/>
   <tile/>
   <tile/>
   <tile/>
   <tile/>
   <tile/>
   <tile/>
   <tile/>
   <tile/>
   <tile/>
   <tile/>
   <tile/>
   <tile/>
   <tile/>
   <tile/>
   <tile/>
   <tile/>
   <tile/>
   <tile/>
   <tile/>
   <tile/>
   <tile/>
   <tile/>
   <tile/>
   <tile/>
   <tile/>
   <tile/>
   <tile/>
   <tile/>
   <tile/>
   <tile/>
   <tile/>
   <tile/>
   <tile/>
   <tile/>
   <tile/>
   <tile/>
   <tile/>
   <tile/>
   <tile/>
   <tile/>
   <tile/>
   <tile/>
   <tile/>
   <tile/>
   <tile/>
   <tile/>
   <tile/>
   <tile/>
   <tile/>
   <tile/>
   <tile/>
   <tile/>
   <tile/>
   <tile/>
   <tile/>
   <tile/>
   <tile/>
   <tile/>
   <tile/>
   <tile/>
   <tile/>
   <tile/>
   <tile/>
   <tile/>
   <tile/>
   <tile/>
   <tile/>
   <tile/>
   <tile/>
   <tile/>
   <tile/>
   <tile/>
   <tile/>
   <tile/>
   <tile/>
   <tile/>
   <tile/>
   <tile/>
   <tile/>
   <tile/>
   <tile/>
   <tile/>
   <tile/>
   <tile/>
   <tile/>
   <tile/>
   <tile/>
   <tile/>
   <tile/>
   <tile/>
   <tile/>
   <tile/>
   <tile/>
   <tile/>
   <tile/>
   <tile/>
   <tile/>
   <tile/>
   <tile/>
   <tile/>
   <tile/>
   <tile/>
   <tile/>
   <tile gid="5609"/>
   <tile gid="5608"/>
   <tile gid="5609"/>
   <tile gid="5608"/>
   <tile gid="5609"/>
   <tile gid="5608"/>
   <tile gid="5609"/>
   <tile gid="5608"/>
   <tile gid="5609"/>
   <tile gid="5608"/>
   <tile gid="5609"/>
   <tile gid="5608"/>
   <tile gid="5609"/>
   <tile gid="5608"/>
   <tile/>
   <tile/>
   <tile/>
   <tile/>
   <tile/>
   <tile/>
   <tile/>
   <tile/>
   <tile/>
   <tile/>
   <tile/>
   <tile/>
   <tile/>
   <tile/>
   <tile/>
   <tile/>
   <tile/>
   <tile/>
   <tile/>
   <tile/>
   <tile/>
   <tile/>
   <tile/>
   <tile/>
   <tile/>
   <tile/>
   <tile/>
   <tile/>
   <tile/>
   <tile/>
   <tile/>
   <tile/>
   <tile/>
   <tile/>
   <tile/>
   <tile/>
   <tile/>
   <tile/>
   <tile/>
   <tile/>
   <tile/>
   <tile/>
   <tile/>
   <tile/>
   <tile/>
   <tile/>
   <tile/>
   <tile/>
   <tile/>
   <tile/>
   <tile/>
   <tile/>
   <tile/>
   <tile/>
   <tile/>
   <tile/>
   <tile/>
   <tile/>
   <tile/>
   <tile/>
   <tile/>
   <tile/>
   <tile/>
   <tile/>
   <tile/>
   <tile/>
   <tile/>
   <tile/>
   <tile/>
   <tile/>
   <tile/>
   <tile/>
   <tile/>
   <tile/>
   <tile/>
   <tile/>
   <tile/>
   <tile/>
   <tile/>
   <tile/>
   <tile/>
   <tile/>
   <tile/>
   <tile/>
   <tile/>
   <tile/>
   <tile/>
   <tile/>
   <tile/>
   <tile/>
   <tile/>
   <tile/>
   <tile/>
   <tile/>
   <tile/>
   <tile/>
   <tile/>
   <tile/>
   <tile/>
   <tile/>
   <tile/>
   <tile/>
   <tile/>
   <tile/>
   <tile/>
   <tile/>
   <tile gid="5545"/>
   <tile gid="5544"/>
   <tile gid="5545"/>
   <tile gid="5544"/>
   <tile gid="5545"/>
   <tile gid="5544"/>
   <tile gid="5545"/>
   <tile gid="5544"/>
   <tile gid="5545"/>
   <tile gid="5544"/>
   <tile gid="5545"/>
   <tile gid="5544"/>
   <tile gid="5545"/>
   <tile gid="5544"/>
   <tile/>
   <tile/>
   <tile/>
   <tile/>
   <tile/>
   <tile/>
   <tile/>
   <tile/>
   <tile/>
   <tile/>
   <tile/>
   <tile/>
   <tile/>
   <tile/>
   <tile/>
   <tile/>
   <tile/>
   <tile/>
   <tile/>
   <tile/>
   <tile/>
   <tile/>
   <tile/>
   <tile/>
   <tile/>
   <tile/>
   <tile/>
   <tile/>
   <tile/>
   <tile/>
   <tile/>
   <tile/>
   <tile/>
   <tile/>
   <tile/>
   <tile/>
   <tile/>
   <tile/>
   <tile/>
   <tile/>
   <tile/>
   <tile/>
   <tile/>
   <tile/>
   <tile/>
   <tile/>
   <tile/>
   <tile/>
   <tile/>
   <tile/>
   <tile/>
   <tile/>
   <tile/>
   <tile/>
   <tile/>
   <tile/>
   <tile/>
   <tile/>
   <tile/>
   <tile/>
   <tile/>
   <tile/>
   <tile/>
   <tile/>
   <tile/>
   <tile/>
   <tile/>
   <tile/>
   <tile/>
   <tile/>
   <tile/>
   <tile/>
   <tile/>
   <tile/>
   <tile/>
   <tile/>
   <tile/>
   <tile/>
   <tile/>
   <tile/>
   <tile/>
   <tile/>
   <tile/>
   <tile/>
   <tile/>
   <tile/>
   <tile/>
   <tile/>
   <tile/>
   <tile/>
   <tile/>
   <tile/>
   <tile/>
   <tile/>
   <tile/>
   <tile/>
   <tile/>
   <tile/>
   <tile/>
   <tile/>
   <tile/>
   <tile/>
   <tile/>
   <tile/>
   <tile/>
   <tile/>
   <tile gid="5609"/>
   <tile gid="5608"/>
   <tile gid="5609"/>
   <tile gid="5608"/>
   <tile gid="5609"/>
   <tile gid="5608"/>
   <tile gid="5609"/>
   <tile gid="5608"/>
   <tile gid="5609"/>
   <tile gid="5608"/>
   <tile gid="5609"/>
   <tile gid="5608"/>
   <tile gid="5609"/>
   <tile gid="5608"/>
   <tile/>
   <tile/>
   <tile/>
   <tile/>
   <tile/>
   <tile/>
   <tile/>
   <tile/>
   <tile/>
   <tile/>
   <tile/>
   <tile/>
   <tile/>
   <tile/>
   <tile/>
   <tile/>
   <tile/>
   <tile/>
   <tile/>
   <tile/>
   <tile/>
   <tile/>
   <tile/>
   <tile/>
   <tile/>
   <tile/>
   <tile/>
   <tile/>
   <tile/>
   <tile/>
   <tile/>
   <tile/>
   <tile/>
   <tile/>
   <tile/>
   <tile/>
   <tile/>
   <tile/>
   <tile/>
   <tile/>
   <tile/>
   <tile/>
   <tile/>
   <tile/>
   <tile/>
   <tile/>
   <tile/>
   <tile/>
   <tile/>
   <tile/>
   <tile/>
   <tile/>
   <tile/>
   <tile gid="5544"/>
   <tile gid="5545"/>
   <tile gid="5544"/>
   <tile gid="5545"/>
   <tile gid="5544"/>
   <tile gid="5545"/>
   <tile gid="5544"/>
   <tile gid="5545"/>
   <tile gid="5544"/>
   <tile gid="5545"/>
   <tile gid="5544"/>
   <tile gid="5545"/>
   <tile gid="5544"/>
   <tile gid="5545"/>
   <tile gid="5544"/>
   <tile gid="5545"/>
   <tile gid="5544"/>
   <tile gid="5545"/>
   <tile gid="5544"/>
   <tile gid="5545"/>
   <tile gid="5544"/>
   <tile gid="5545"/>
   <tile gid="5544"/>
   <tile gid="5545"/>
   <tile gid="5544"/>
   <tile gid="5545"/>
   <tile gid="5544"/>
   <tile gid="5545"/>
   <tile gid="5544"/>
   <tile gid="5545"/>
   <tile gid="5544"/>
   <tile gid="5545"/>
   <tile gid="5544"/>
   <tile gid="5545"/>
   <tile gid="5544"/>
   <tile gid="5545"/>
   <tile gid="5544"/>
   <tile gid="5545"/>
   <tile gid="5544"/>
   <tile gid="5545"/>
   <tile gid="5544"/>
   <tile gid="5545"/>
   <tile gid="5544"/>
   <tile gid="5545"/>
   <tile gid="5544"/>
   <tile gid="5545"/>
   <tile gid="5544"/>
   <tile gid="5545"/>
   <tile gid="5544"/>
   <tile gid="5545"/>
   <tile gid="5544"/>
   <tile gid="5545"/>
   <tile gid="5544"/>
   <tile gid="5545"/>
   <tile gid="5544"/>
   <tile gid="5545"/>
   <tile gid="5544"/>
   <tile gid="5545"/>
   <tile gid="5544"/>
   <tile gid="5545"/>
   <tile gid="5544"/>
   <tile gid="5545"/>
   <tile gid="5544"/>
   <tile gid="5545"/>
   <tile gid="5544"/>
   <tile gid="5545"/>
   <tile gid="5544"/>
   <tile gid="5545"/>
   <tile gid="5544"/>
   <tile gid="5545"/>
   <tile gid="5544"/>
   <tile gid="5545"/>
   <tile gid="5544"/>
   <tile gid="5545"/>
   <tile gid="5544"/>
   <tile gid="5545"/>
   <tile gid="5544"/>
   <tile gid="5545"/>
   <tile gid="5544"/>
   <tile gid="5545"/>
   <tile gid="5544"/>
   <tile gid="5545"/>
   <tile gid="5544"/>
   <tile gid="5545"/>
   <tile gid="5544"/>
   <tile gid="5545"/>
   <tile gid="5544"/>
   <tile gid="5545"/>
   <tile gid="5544"/>
   <tile gid="5545"/>
   <tile gid="5544"/>
   <tile gid="5545"/>
   <tile gid="5544"/>
   <tile gid="5545"/>
   <tile gid="5544"/>
   <tile gid="5545"/>
   <tile gid="5544"/>
   <tile gid="5545"/>
   <tile gid="5544"/>
   <tile gid="5545"/>
   <tile gid="5544"/>
   <tile gid="5545"/>
   <tile gid="5544"/>
   <tile gid="5545"/>
   <tile gid="5544"/>
   <tile gid="5545"/>
   <tile gid="5544"/>
   <tile gid="5545"/>
   <tile gid="5544"/>
   <tile gid="5545"/>
   <tile gid="5544"/>
   <tile gid="5545"/>
   <tile gid="5544"/>
   <tile gid="5545"/>
   <tile gid="5544"/>
   <tile gid="5545"/>
   <tile gid="5544"/>
   <tile gid="5545"/>
   <tile gid="5544"/>
   <tile gid="5545"/>
   <tile gid="5608"/>
   <tile gid="5609"/>
   <tile gid="5608"/>
   <tile gid="5609"/>
   <tile gid="5608"/>
   <tile gid="5609"/>
   <tile gid="5608"/>
   <tile gid="5609"/>
   <tile gid="5608"/>
   <tile gid="5609"/>
   <tile gid="5608"/>
   <tile gid="5609"/>
   <tile gid="5608"/>
   <tile gid="5609"/>
   <tile gid="5608"/>
   <tile gid="5609"/>
   <tile gid="5608"/>
   <tile gid="5609"/>
   <tile gid="5608"/>
   <tile gid="5609"/>
   <tile gid="5608"/>
   <tile gid="5609"/>
   <tile gid="5608"/>
   <tile gid="5609"/>
   <tile gid="5608"/>
   <tile gid="5609"/>
   <tile gid="5608"/>
   <tile gid="5609"/>
   <tile gid="5608"/>
   <tile gid="5609"/>
   <tile gid="5608"/>
   <tile gid="5609"/>
   <tile gid="5608"/>
   <tile gid="5609"/>
   <tile gid="5608"/>
   <tile gid="5609"/>
   <tile gid="5608"/>
   <tile gid="5609"/>
   <tile gid="5608"/>
   <tile gid="5609"/>
   <tile gid="5608"/>
   <tile gid="5609"/>
   <tile gid="5608"/>
   <tile gid="5609"/>
   <tile gid="5608"/>
   <tile gid="5609"/>
   <tile gid="5608"/>
   <tile gid="5609"/>
   <tile gid="5608"/>
   <tile gid="5609"/>
   <tile gid="5608"/>
   <tile gid="5609"/>
   <tile gid="5608"/>
   <tile gid="5609"/>
   <tile gid="5608"/>
   <tile gid="5609"/>
   <tile gid="5608"/>
   <tile gid="5609"/>
   <tile gid="5608"/>
   <tile gid="5609"/>
   <tile gid="5608"/>
   <tile gid="5609"/>
   <tile gid="5608"/>
   <tile gid="5609"/>
   <tile gid="5608"/>
   <tile gid="5609"/>
   <tile gid="5608"/>
   <tile gid="5609"/>
   <tile gid="5608"/>
   <tile gid="5609"/>
   <tile gid="5608"/>
   <tile gid="5609"/>
   <tile gid="5608"/>
   <tile gid="5609"/>
   <tile gid="5608"/>
   <tile gid="5609"/>
   <tile gid="5608"/>
   <tile gid="5609"/>
   <tile gid="5608"/>
   <tile gid="5609"/>
   <tile gid="5608"/>
   <tile gid="5609"/>
   <tile gid="5608"/>
   <tile gid="5609"/>
   <tile gid="5608"/>
   <tile gid="5609"/>
   <tile gid="5608"/>
   <tile gid="5609"/>
   <tile gid="5608"/>
   <tile gid="5609"/>
   <tile gid="5608"/>
   <tile gid="5609"/>
   <tile gid="5608"/>
   <tile gid="5609"/>
   <tile gid="5608"/>
   <tile gid="5609"/>
   <tile gid="5608"/>
   <tile gid="5609"/>
   <tile gid="5608"/>
   <tile gid="5609"/>
   <tile gid="5608"/>
   <tile gid="5609"/>
   <tile gid="5608"/>
   <tile gid="5609"/>
   <tile gid="5608"/>
   <tile gid="5609"/>
   <tile gid="5608"/>
   <tile gid="5609"/>
   <tile gid="5608"/>
   <tile gid="5609"/>
   <tile gid="5608"/>
   <tile gid="5609"/>
   <tile gid="5608"/>
   <tile gid="5609"/>
   <tile gid="5608"/>
   <tile gid="5609"/>
   <tile gid="5608"/>
   <tile gid="5609"/>
   <tile gid="5608"/>
   <tile gid="5609"/>
   <tile gid="5544"/>
   <tile gid="5545"/>
   <tile gid="5544"/>
   <tile gid="5545"/>
   <tile gid="5544"/>
   <tile gid="5545"/>
   <tile gid="5544"/>
   <tile gid="5545"/>
   <tile gid="5544"/>
   <tile gid="5545"/>
   <tile gid="5544"/>
   <tile gid="5545"/>
   <tile gid="5544"/>
   <tile gid="5545"/>
   <tile gid="5544"/>
   <tile gid="5545"/>
   <tile gid="5544"/>
   <tile gid="5545"/>
   <tile gid="5544"/>
   <tile gid="5545"/>
   <tile gid="5544"/>
   <tile gid="5545"/>
   <tile gid="5544"/>
   <tile gid="5545"/>
   <tile gid="5544"/>
   <tile gid="5545"/>
   <tile gid="5544"/>
   <tile gid="5545"/>
   <tile gid="5544"/>
   <tile gid="5545"/>
   <tile gid="5544"/>
   <tile gid="5545"/>
   <tile gid="5544"/>
   <tile gid="5545"/>
   <tile gid="5544"/>
   <tile gid="5545"/>
   <tile gid="5544"/>
   <tile gid="5545"/>
   <tile gid="5544"/>
   <tile gid="5545"/>
   <tile gid="5544"/>
   <tile gid="5545"/>
   <tile gid="5544"/>
   <tile gid="5545"/>
   <tile gid="5544"/>
   <tile gid="5545"/>
   <tile gid="5544"/>
   <tile gid="5545"/>
   <tile gid="5544"/>
   <tile gid="5545"/>
   <tile gid="5544"/>
   <tile gid="5545"/>
   <tile gid="5544"/>
   <tile gid="5545"/>
   <tile gid="5544"/>
   <tile gid="5545"/>
   <tile gid="5544"/>
   <tile gid="5545"/>
   <tile gid="5544"/>
   <tile gid="5545"/>
   <tile gid="5544"/>
   <tile gid="5545"/>
   <tile gid="5544"/>
   <tile gid="5545"/>
   <tile gid="5544"/>
   <tile gid="5545"/>
   <tile gid="5544"/>
   <tile gid="5545"/>
   <tile gid="5544"/>
   <tile gid="5545"/>
   <tile gid="5544"/>
   <tile gid="5545"/>
   <tile gid="5544"/>
   <tile gid="5545"/>
   <tile gid="5544"/>
   <tile gid="5545"/>
   <tile gid="5544"/>
   <tile gid="5545"/>
   <tile gid="5544"/>
   <tile gid="5545"/>
   <tile gid="5544"/>
   <tile gid="5545"/>
   <tile gid="5544"/>
   <tile gid="5545"/>
   <tile gid="5544"/>
   <tile gid="5545"/>
   <tile gid="5544"/>
   <tile gid="5545"/>
   <tile gid="5544"/>
   <tile gid="5545"/>
   <tile gid="5544"/>
   <tile gid="5545"/>
   <tile gid="5544"/>
   <tile gid="5545"/>
   <tile gid="5544"/>
   <tile gid="5545"/>
   <tile gid="5544"/>
   <tile gid="5545"/>
   <tile gid="5544"/>
   <tile gid="5545"/>
   <tile gid="5544"/>
   <tile gid="5545"/>
   <tile gid="5544"/>
   <tile gid="5545"/>
   <tile gid="5544"/>
   <tile gid="5545"/>
   <tile gid="5544"/>
   <tile gid="5545"/>
   <tile gid="5544"/>
   <tile gid="5545"/>
   <tile gid="5544"/>
   <tile gid="5545"/>
   <tile gid="5544"/>
   <tile gid="5545"/>
   <tile gid="5544"/>
   <tile gid="5545"/>
   <tile gid="5544"/>
   <tile gid="5545"/>
   <tile gid="5544"/>
   <tile gid="5545"/>
   <tile gid="5608"/>
   <tile gid="5609"/>
   <tile gid="5608"/>
   <tile gid="5609"/>
   <tile gid="5608"/>
   <tile gid="5609"/>
   <tile gid="5608"/>
   <tile gid="5609"/>
   <tile gid="5608"/>
   <tile gid="5609"/>
   <tile gid="5608"/>
   <tile gid="5609"/>
   <tile gid="5608"/>
   <tile gid="5609"/>
   <tile gid="5608"/>
   <tile gid="5609"/>
   <tile gid="5608"/>
   <tile gid="5609"/>
   <tile gid="5608"/>
   <tile gid="5609"/>
   <tile gid="5608"/>
   <tile gid="5609"/>
   <tile gid="5608"/>
   <tile gid="5609"/>
   <tile gid="5608"/>
   <tile gid="5609"/>
   <tile gid="5608"/>
   <tile gid="5609"/>
   <tile gid="5608"/>
   <tile gid="5609"/>
   <tile gid="5608"/>
   <tile gid="5609"/>
   <tile gid="5608"/>
   <tile gid="5609"/>
   <tile gid="5608"/>
   <tile gid="5609"/>
   <tile gid="5608"/>
   <tile gid="5609"/>
   <tile gid="5608"/>
   <tile gid="5609"/>
   <tile gid="5608"/>
   <tile gid="5609"/>
   <tile gid="5608"/>
   <tile gid="5609"/>
   <tile gid="5608"/>
   <tile gid="5609"/>
   <tile gid="5608"/>
   <tile gid="5609"/>
   <tile gid="5608"/>
   <tile gid="5609"/>
   <tile gid="5608"/>
   <tile gid="5609"/>
   <tile gid="5608"/>
   <tile gid="5609"/>
   <tile gid="5608"/>
   <tile gid="5609"/>
   <tile gid="5608"/>
   <tile gid="5609"/>
   <tile gid="5608"/>
   <tile gid="5609"/>
   <tile gid="5608"/>
   <tile gid="5609"/>
   <tile gid="5608"/>
   <tile gid="5609"/>
   <tile gid="5608"/>
   <tile gid="5609"/>
   <tile gid="5608"/>
   <tile gid="5609"/>
   <tile gid="5608"/>
   <tile gid="5609"/>
   <tile gid="5608"/>
   <tile gid="5609"/>
   <tile gid="5608"/>
   <tile gid="5609"/>
   <tile gid="5608"/>
   <tile gid="5609"/>
   <tile gid="5608"/>
   <tile gid="5609"/>
   <tile gid="5608"/>
   <tile gid="5609"/>
   <tile gid="5608"/>
   <tile gid="5609"/>
   <tile gid="5608"/>
   <tile gid="5609"/>
   <tile gid="5608"/>
   <tile gid="5609"/>
   <tile gid="5608"/>
   <tile gid="5609"/>
   <tile gid="5608"/>
   <tile gid="5609"/>
   <tile gid="5608"/>
   <tile gid="5609"/>
   <tile/>
   <tile/>
   <tile/>
   <tile gid="5609"/>
   <tile gid="5608"/>
   <tile gid="5609"/>
   <tile gid="5608"/>
   <tile gid="5609"/>
   <tile gid="5608"/>
   <tile gid="5609"/>
   <tile gid="5608"/>
   <tile gid="5609"/>
   <tile gid="5608"/>
   <tile gid="5609"/>
   <tile gid="5608"/>
   <tile gid="5609"/>
   <tile gid="5608"/>
   <tile gid="5609"/>
   <tile gid="5608"/>
   <tile gid="5609"/>
   <tile gid="5608"/>
   <tile gid="5609"/>
   <tile gid="5608"/>
   <tile gid="5609"/>
   <tile gid="5608"/>
   <tile gid="5609"/>
   <tile gid="5608"/>
   <tile gid="5609"/>
   <tile gid="5544"/>
   <tile gid="5545"/>
   <tile gid="5544"/>
   <tile gid="5545"/>
   <tile gid="5544"/>
   <tile gid="5545"/>
   <tile/>
   <tile/>
   <tile/>
   <tile/>
   <tile/>
   <tile gid="5545"/>
   <tile gid="5544"/>
   <tile gid="5545"/>
   <tile gid="5544"/>
   <tile gid="5545"/>
   <tile gid="5544"/>
   <tile gid="5545"/>
   <tile gid="5544"/>
   <tile gid="5545"/>
   <tile gid="5544"/>
   <tile gid="5545"/>
   <tile gid="5544"/>
   <tile gid="5545"/>
   <tile gid="5544"/>
   <tile gid="5545"/>
   <tile gid="5544"/>
   <tile gid="5545"/>
   <tile gid="5544"/>
   <tile gid="5545"/>
   <tile gid="5544"/>
   <tile gid="5545"/>
   <tile gid="5544"/>
   <tile gid="5545"/>
   <tile gid="5544"/>
   <tile gid="5545"/>
   <tile gid="5544"/>
   <tile gid="5545"/>
   <tile gid="5544"/>
   <tile gid="5545"/>
   <tile gid="5544"/>
   <tile gid="5545"/>
   <tile gid="5544"/>
   <tile gid="5545"/>
   <tile gid="5544"/>
   <tile gid="5545"/>
   <tile gid="5544"/>
   <tile gid="5545"/>
   <tile gid="5544"/>
   <tile gid="5545"/>
   <tile gid="5544"/>
   <tile gid="5545"/>
   <tile gid="5544"/>
   <tile gid="5545"/>
   <tile gid="5544"/>
   <tile gid="5545"/>
   <tile gid="5544"/>
   <tile gid="5545"/>
   <tile gid="5544"/>
   <tile gid="5545"/>
   <tile gid="5544"/>
   <tile gid="5545"/>
   <tile gid="5544"/>
   <tile gid="5545"/>
   <tile gid="5544"/>
   <tile gid="5545"/>
   <tile gid="5544"/>
   <tile gid="5545"/>
   <tile gid="5544"/>
   <tile gid="5545"/>
   <tile gid="5544"/>
   <tile gid="5545"/>
   <tile gid="5544"/>
   <tile gid="5545"/>
   <tile gid="5544"/>
   <tile gid="5545"/>
   <tile gid="5544"/>
   <tile gid="5545"/>
   <tile gid="5544"/>
   <tile gid="5545"/>
   <tile gid="5544"/>
   <tile gid="5545"/>
   <tile gid="5544"/>
   <tile gid="5545"/>
   <tile gid="5544"/>
   <tile gid="5545"/>
   <tile gid="5544"/>
   <tile gid="5545"/>
   <tile gid="5544"/>
   <tile gid="5545"/>
   <tile gid="5544"/>
   <tile gid="5545"/>
   <tile/>
   <tile/>
   <tile/>
   <tile gid="5545"/>
   <tile gid="5544"/>
   <tile gid="5545"/>
   <tile gid="5544"/>
   <tile gid="5545"/>
   <tile gid="5544"/>
   <tile gid="5545"/>
   <tile gid="5544"/>
   <tile gid="5545"/>
   <tile gid="5544"/>
   <tile gid="5545"/>
   <tile gid="5544"/>
   <tile gid="5545"/>
   <tile gid="5544"/>
   <tile gid="5545"/>
   <tile gid="5544"/>
   <tile gid="5545"/>
   <tile/>
   <tile/>
   <tile/>
   <tile gid="5545"/>
   <tile gid="5544"/>
   <tile gid="5545"/>
   <tile gid="5544"/>
   <tile gid="5545"/>
   <tile gid="5608"/>
   <tile gid="5609"/>
   <tile gid="5608"/>
   <tile gid="5609"/>
   <tile gid="5608"/>
   <tile/>
   <tile/>
   <tile/>
   <tile/>
   <tile/>
   <tile/>
   <tile gid="5609"/>
   <tile gid="5608"/>
   <tile gid="5609"/>
   <tile gid="5608"/>
   <tile gid="5609"/>
   <tile gid="5608"/>
   <tile gid="5609"/>
   <tile gid="5608"/>
   <tile gid="5609"/>
   <tile gid="5608"/>
   <tile gid="5609"/>
   <tile gid="5608"/>
   <tile gid="5609"/>
   <tile gid="5608"/>
   <tile gid="5609"/>
   <tile gid="5608"/>
   <tile gid="5609"/>
   <tile gid="5608"/>
   <tile gid="5609"/>
   <tile gid="5608"/>
   <tile gid="5609"/>
   <tile gid="5608"/>
   <tile gid="5609"/>
   <tile gid="5608"/>
   <tile gid="5609"/>
   <tile gid="5608"/>
   <tile gid="5609"/>
   <tile gid="5608"/>
   <tile gid="5609"/>
   <tile gid="5608"/>
   <tile gid="5609"/>
   <tile gid="5608"/>
   <tile gid="5609"/>
   <tile gid="5608"/>
   <tile gid="5609"/>
   <tile gid="5608"/>
   <tile gid="5609"/>
   <tile gid="5608"/>
   <tile gid="5609"/>
   <tile gid="5608"/>
   <tile gid="5609"/>
   <tile gid="5608"/>
   <tile gid="5609"/>
   <tile gid="5608"/>
   <tile gid="5609"/>
   <tile gid="5608"/>
   <tile gid="5609"/>
   <tile gid="5608"/>
   <tile gid="5609"/>
   <tile gid="5608"/>
   <tile gid="5609"/>
   <tile gid="5608"/>
   <tile gid="5609"/>
   <tile gid="5608"/>
   <tile gid="5609"/>
   <tile gid="5608"/>
   <tile gid="5609"/>
   <tile gid="5608"/>
   <tile gid="5609"/>
   <tile gid="5608"/>
   <tile gid="5609"/>
   <tile gid="5608"/>
   <tile gid="5609"/>
   <tile gid="5608"/>
   <tile gid="5609"/>
   <tile gid="5608"/>
   <tile gid="5609"/>
   <tile gid="5608"/>
   <tile gid="5609"/>
   <tile gid="5608"/>
   <tile gid="5609"/>
   <tile gid="5608"/>
   <tile gid="5609"/>
   <tile gid="5608"/>
   <tile gid="5609"/>
   <tile gid="5608"/>
   <tile gid="5609"/>
   <tile gid="5608"/>
   <tile gid="5609"/>
   <tile/>
   <tile/>
   <tile/>
   <tile/>
   <tile/>
   <tile gid="5609"/>
   <tile gid="5608"/>
   <tile gid="5609"/>
   <tile gid="5608"/>
   <tile gid="5609"/>
   <tile gid="5608"/>
   <tile gid="5609"/>
   <tile gid="5608"/>
   <tile gid="5609"/>
   <tile gid="5608"/>
   <tile gid="5609"/>
   <tile gid="5608"/>
   <tile gid="5609"/>
   <tile gid="5608"/>
   <tile gid="5609"/>
   <tile gid="5608"/>
   <tile/>
   <tile/>
   <tile/>
   <tile/>
   <tile/>
   <tile gid="5608"/>
   <tile gid="5609"/>
   <tile gid="5608"/>
   <tile gid="5609"/>
   <tile gid="5544"/>
   <tile gid="5545"/>
   <tile gid="5544"/>
   <tile gid="5545"/>
   <tile/>
   <tile/>
   <tile/>
   <tile/>
   <tile/>
   <tile/>
   <tile/>
   <tile gid="5545"/>
   <tile gid="5544"/>
   <tile gid="5545"/>
   <tile gid="5544"/>
   <tile gid="5545"/>
   <tile gid="5544"/>
   <tile gid="5545"/>
   <tile gid="5544"/>
   <tile gid="5545"/>
   <tile gid="5544"/>
   <tile gid="5545"/>
   <tile gid="5544"/>
   <tile gid="5545"/>
   <tile gid="5544"/>
   <tile gid="5545"/>
   <tile gid="5544"/>
   <tile gid="5545"/>
   <tile gid="5544"/>
   <tile gid="5545"/>
   <tile gid="5544"/>
   <tile gid="5545"/>
   <tile gid="5544"/>
   <tile gid="5545"/>
   <tile gid="5544"/>
   <tile gid="5545"/>
   <tile gid="5544"/>
   <tile gid="5545"/>
   <tile gid="5544"/>
   <tile gid="5545"/>
   <tile gid="5544"/>
   <tile gid="5545"/>
   <tile gid="5544"/>
   <tile gid="5545"/>
   <tile gid="5544"/>
   <tile gid="5545"/>
   <tile gid="5544"/>
   <tile gid="5545"/>
   <tile gid="5544"/>
   <tile gid="5545"/>
   <tile gid="5544"/>
   <tile gid="5545"/>
   <tile gid="5544"/>
   <tile gid="5545"/>
   <tile gid="5544"/>
   <tile gid="5545"/>
   <tile gid="5544"/>
   <tile gid="5545"/>
   <tile gid="5544"/>
   <tile gid="5545"/>
   <tile gid="5544"/>
   <tile gid="5545"/>
   <tile gid="5544"/>
   <tile gid="5545"/>
   <tile gid="5544"/>
   <tile gid="5545"/>
   <tile gid="5544"/>
   <tile gid="5545"/>
   <tile gid="5544"/>
   <tile gid="5545"/>
   <tile gid="5544"/>
   <tile gid="5545"/>
   <tile gid="5544"/>
   <tile gid="5545"/>
   <tile gid="5544"/>
   <tile gid="5545"/>
   <tile gid="5544"/>
   <tile gid="5545"/>
   <tile gid="5544"/>
   <tile gid="5545"/>
   <tile gid="5544"/>
   <tile gid="5545"/>
   <tile gid="5544"/>
   <tile gid="5545"/>
   <tile gid="5544"/>
   <tile gid="5545"/>
   <tile gid="5544"/>
   <tile gid="5545"/>
   <tile gid="5544"/>
   <tile gid="5545"/>
   <tile/>
   <tile/>
   <tile/>
   <tile/>
   <tile/>
   <tile gid="5545"/>
   <tile gid="5544"/>
   <tile gid="5545"/>
   <tile gid="5544"/>
   <tile gid="5545"/>
   <tile gid="5544"/>
   <tile gid="5545"/>
   <tile gid="5544"/>
   <tile gid="5545"/>
   <tile gid="5544"/>
   <tile gid="5545"/>
   <tile gid="5544"/>
   <tile gid="5545"/>
   <tile gid="5544"/>
   <tile gid="5545"/>
   <tile/>
   <tile/>
   <tile/>
   <tile/>
   <tile/>
   <tile/>
   <tile gid="5544"/>
   <tile gid="5545"/>
   <tile gid="5544"/>
   <tile gid="5545"/>
   <tile gid="5608"/>
   <tile gid="5609"/>
   <tile gid="5608"/>
   <tile gid="5609"/>
   <tile/>
   <tile/>
   <tile/>
   <tile/>
   <tile/>
   <tile/>
   <tile gid="5608"/>
   <tile gid="5609"/>
   <tile gid="5608"/>
   <tile gid="5609"/>
   <tile gid="5608"/>
   <tile gid="5609"/>
   <tile gid="5608"/>
   <tile gid="5609"/>
   <tile gid="5608"/>
   <tile gid="5609"/>
   <tile gid="5608"/>
   <tile gid="5609"/>
   <tile gid="5608"/>
   <tile gid="5609"/>
   <tile gid="5608"/>
   <tile gid="5609"/>
   <tile gid="5608"/>
   <tile gid="5609"/>
   <tile gid="5608"/>
   <tile gid="5609"/>
   <tile gid="5608"/>
   <tile gid="5609"/>
   <tile gid="5608"/>
   <tile gid="5609"/>
   <tile gid="5608"/>
   <tile gid="5609"/>
   <tile gid="5608"/>
   <tile gid="5609"/>
   <tile gid="5608"/>
   <tile gid="5609"/>
   <tile gid="5608"/>
   <tile gid="5609"/>
   <tile gid="5608"/>
   <tile gid="5609"/>
   <tile gid="5608"/>
   <tile gid="5609"/>
   <tile gid="5608"/>
   <tile gid="5609"/>
   <tile gid="5608"/>
   <tile gid="5609"/>
   <tile gid="5608"/>
   <tile gid="5609"/>
   <tile gid="5608"/>
   <tile gid="5609"/>
   <tile gid="5608"/>
   <tile gid="5609"/>
   <tile gid="5608"/>
   <tile gid="5609"/>
   <tile gid="5608"/>
   <tile gid="5609"/>
   <tile gid="5608"/>
   <tile gid="5609"/>
   <tile gid="5608"/>
   <tile gid="5609"/>
   <tile gid="5608"/>
   <tile gid="5609"/>
   <tile gid="5608"/>
   <tile gid="5609"/>
   <tile gid="5608"/>
   <tile gid="5609"/>
   <tile gid="5608"/>
   <tile gid="5609"/>
   <tile gid="5608"/>
   <tile gid="5609"/>
   <tile gid="5608"/>
   <tile gid="5609"/>
   <tile gid="5608"/>
   <tile gid="5609"/>
   <tile gid="5608"/>
   <tile gid="5609"/>
   <tile gid="5608"/>
   <tile gid="5609"/>
   <tile gid="5608"/>
   <tile gid="5609"/>
   <tile gid="5608"/>
   <tile gid="5609"/>
   <tile gid="5608"/>
   <tile gid="5609"/>
   <tile gid="5608"/>
   <tile gid="5609"/>
   <tile gid="5608"/>
   <tile/>
   <tile/>
   <tile/>
   <tile/>
   <tile gid="5609"/>
   <tile gid="5608"/>
   <tile gid="5609"/>
   <tile gid="5608"/>
   <tile gid="5609"/>
   <tile gid="5608"/>
   <tile gid="5609"/>
   <tile gid="5608"/>
   <tile gid="5609"/>
   <tile gid="5608"/>
   <tile gid="5609"/>
   <tile gid="5608"/>
   <tile gid="5609"/>
   <tile gid="5608"/>
   <tile gid="5609"/>
   <tile/>
   <tile/>
   <tile/>
   <tile/>
   <tile/>
   <tile/>
   <tile gid="5608"/>
   <tile gid="5609"/>
   <tile gid="5608"/>
   <tile gid="5609"/>
   <tile gid="5544"/>
   <tile gid="5545"/>
   <tile gid="5544"/>
   <tile gid="5545"/>
   <tile gid="5544"/>
   <tile/>
   <tile/>
   <tile/>
   <tile gid="5544"/>
   <tile gid="5545"/>
   <tile gid="5544"/>
   <tile gid="5545"/>
   <tile gid="5544"/>
   <tile gid="5545"/>
   <tile gid="5544"/>
   <tile gid="5545"/>
   <tile gid="5544"/>
   <tile gid="5545"/>
   <tile gid="5544"/>
   <tile gid="5545"/>
   <tile gid="5544"/>
   <tile gid="5545"/>
   <tile gid="5544"/>
   <tile gid="5545"/>
   <tile gid="5544"/>
   <tile gid="5545"/>
   <tile gid="5544"/>
   <tile gid="5545"/>
   <tile gid="5544"/>
   <tile gid="5545"/>
   <tile gid="5544"/>
   <tile gid="5545"/>
   <tile gid="5544"/>
   <tile gid="5545"/>
   <tile gid="5544"/>
   <tile gid="5545"/>
   <tile gid="5544"/>
   <tile gid="5545"/>
   <tile gid="5544"/>
   <tile gid="5545"/>
   <tile gid="5544"/>
   <tile gid="5545"/>
   <tile gid="5544"/>
   <tile gid="5545"/>
   <tile gid="5544"/>
   <tile gid="5545"/>
   <tile gid="5544"/>
   <tile gid="5545"/>
   <tile gid="5544"/>
   <tile gid="5545"/>
   <tile gid="5544"/>
   <tile gid="5545"/>
   <tile gid="5544"/>
   <tile gid="5545"/>
   <tile gid="5544"/>
   <tile gid="5545"/>
   <tile gid="5544"/>
   <tile gid="5545"/>
   <tile gid="5544"/>
   <tile gid="5545"/>
   <tile gid="5544"/>
   <tile gid="5545"/>
   <tile gid="5544"/>
   <tile gid="5545"/>
   <tile gid="5544"/>
   <tile gid="5545"/>
   <tile gid="5544"/>
   <tile gid="5545"/>
   <tile gid="5544"/>
   <tile gid="5545"/>
   <tile gid="5544"/>
   <tile gid="5545"/>
   <tile gid="5544"/>
   <tile gid="5545"/>
   <tile gid="5544"/>
   <tile gid="5545"/>
   <tile gid="5544"/>
   <tile gid="5545"/>
   <tile gid="5544"/>
   <tile gid="5545"/>
   <tile gid="5544"/>
   <tile gid="5545"/>
   <tile gid="5544"/>
   <tile gid="5545"/>
   <tile gid="5544"/>
   <tile gid="5545"/>
   <tile gid="5544"/>
   <tile gid="5545"/>
   <tile gid="5544"/>
   <tile gid="5545"/>
   <tile gid="5544"/>
   <tile gid="5545"/>
   <tile gid="5544"/>
   <tile gid="5545"/>
   <tile gid="5544"/>
   <tile gid="5545"/>
   <tile gid="5544"/>
   <tile gid="5545"/>
   <tile gid="5544"/>
   <tile gid="5545"/>
   <tile gid="5544"/>
   <tile gid="5545"/>
   <tile gid="5544"/>
   <tile gid="5545"/>
   <tile gid="5544"/>
   <tile gid="5545"/>
   <tile gid="5544"/>
   <tile gid="5545"/>
   <tile gid="5544"/>
   <tile gid="5545"/>
   <tile/>
   <tile/>
   <tile/>
   <tile/>
   <tile/>
   <tile/>
   <tile gid="5544"/>
   <tile gid="5545"/>
   <tile gid="5544"/>
   <tile gid="5545"/>
   <tile gid="5608"/>
   <tile gid="5609"/>
   <tile gid="5608"/>
   <tile gid="5609"/>
   <tile gid="5608"/>
   <tile gid="5609"/>
   <tile gid="5608"/>
   <tile gid="5609"/>
   <tile gid="5608"/>
   <tile gid="5609"/>
   <tile gid="5608"/>
   <tile gid="5609"/>
   <tile gid="5608"/>
   <tile gid="5609"/>
   <tile gid="5608"/>
   <tile gid="5609"/>
   <tile gid="5608"/>
   <tile gid="5609"/>
   <tile gid="5608"/>
   <tile gid="5609"/>
   <tile gid="5608"/>
   <tile gid="5609"/>
   <tile gid="5608"/>
   <tile gid="5609"/>
   <tile gid="5608"/>
   <tile gid="5609"/>
   <tile gid="5608"/>
   <tile gid="5609"/>
   <tile gid="5608"/>
   <tile gid="5609"/>
   <tile gid="5608"/>
   <tile gid="5609"/>
   <tile gid="5608"/>
   <tile gid="5609"/>
   <tile gid="5608"/>
   <tile gid="5609"/>
   <tile gid="5608"/>
   <tile gid="5609"/>
   <tile gid="5608"/>
   <tile gid="5609"/>
   <tile gid="5608"/>
   <tile gid="5609"/>
   <tile gid="5608"/>
   <tile gid="5609"/>
   <tile gid="5608"/>
   <tile gid="5609"/>
   <tile gid="5608"/>
   <tile gid="5609"/>
   <tile gid="5608"/>
   <tile gid="5609"/>
   <tile gid="5608"/>
   <tile gid="5609"/>
   <tile gid="5608"/>
   <tile gid="5609"/>
   <tile gid="5608"/>
   <tile gid="5609"/>
   <tile gid="5608"/>
   <tile gid="5609"/>
   <tile gid="5608"/>
   <tile gid="5609"/>
   <tile gid="5608"/>
   <tile gid="5609"/>
   <tile gid="5608"/>
   <tile gid="5609"/>
   <tile gid="5608"/>
   <tile gid="5609"/>
   <tile gid="5608"/>
   <tile gid="5609"/>
   <tile gid="5608"/>
   <tile gid="5609"/>
   <tile gid="5608"/>
   <tile gid="5609"/>
   <tile gid="5608"/>
   <tile gid="5609"/>
   <tile gid="5608"/>
   <tile gid="5609"/>
   <tile gid="5608"/>
   <tile gid="5609"/>
   <tile gid="5608"/>
   <tile gid="5609"/>
   <tile gid="5608"/>
   <tile gid="5609"/>
   <tile gid="5608"/>
   <tile gid="5609"/>
   <tile gid="5608"/>
   <tile gid="5609"/>
   <tile gid="5608"/>
   <tile gid="5609"/>
   <tile gid="5608"/>
   <tile gid="5609"/>
   <tile gid="5608"/>
   <tile gid="5609"/>
   <tile gid="5608"/>
   <tile gid="5609"/>
   <tile gid="5608"/>
   <tile gid="5609"/>
   <tile gid="5608"/>
   <tile gid="5609"/>
   <tile gid="5608"/>
   <tile gid="5609"/>
   <tile gid="5608"/>
   <tile gid="5609"/>
   <tile gid="5608"/>
   <tile gid="5609"/>
   <tile gid="5608"/>
   <tile gid="5609"/>
   <tile gid="5608"/>
   <tile gid="5609"/>
   <tile gid="5608"/>
   <tile gid="5609"/>
   <tile/>
   <tile/>
   <tile/>
   <tile/>
   <tile/>
   <tile/>
   <tile gid="5608"/>
   <tile gid="5609"/>
   <tile gid="5608"/>
   <tile gid="5609"/>
   <tile gid="5544"/>
   <tile gid="5545"/>
   <tile gid="5544"/>
   <tile gid="5545"/>
   <tile gid="5544"/>
   <tile gid="5545"/>
   <tile gid="5544"/>
   <tile gid="5545"/>
   <tile gid="5544"/>
   <tile gid="5545"/>
   <tile gid="5544"/>
   <tile gid="5545"/>
   <tile gid="5544"/>
   <tile gid="5545"/>
   <tile gid="5544"/>
   <tile gid="5545"/>
   <tile gid="5544"/>
   <tile gid="5545"/>
   <tile gid="5544"/>
   <tile gid="5545"/>
   <tile gid="5544"/>
   <tile gid="5545"/>
   <tile gid="5544"/>
   <tile gid="5545"/>
   <tile gid="5544"/>
   <tile gid="5545"/>
   <tile gid="5544"/>
   <tile gid="5545"/>
   <tile gid="5544"/>
   <tile gid="5545"/>
   <tile gid="5544"/>
   <tile gid="5545"/>
   <tile gid="5544"/>
   <tile gid="5545"/>
   <tile gid="5544"/>
   <tile gid="5545"/>
   <tile gid="5544"/>
   <tile gid="5545"/>
   <tile gid="5544"/>
   <tile gid="5545"/>
   <tile gid="5544"/>
   <tile gid="5545"/>
   <tile gid="5544"/>
   <tile gid="5545"/>
   <tile gid="5544"/>
   <tile gid="5545"/>
   <tile gid="5544"/>
   <tile gid="5545"/>
   <tile gid="5544"/>
   <tile gid="5545"/>
   <tile gid="5544"/>
   <tile gid="5545"/>
   <tile gid="5544"/>
   <tile gid="5545"/>
   <tile gid="5544"/>
   <tile gid="5545"/>
   <tile gid="5544"/>
   <tile gid="5545"/>
   <tile gid="5544"/>
   <tile gid="5545"/>
   <tile gid="5544"/>
   <tile gid="5545"/>
   <tile gid="5544"/>
   <tile gid="5545"/>
   <tile gid="5544"/>
   <tile gid="5545"/>
   <tile gid="5544"/>
   <tile gid="5545"/>
   <tile gid="5544"/>
   <tile gid="5545"/>
   <tile gid="5544"/>
   <tile gid="5545"/>
   <tile gid="5544"/>
   <tile gid="5545"/>
   <tile gid="5544"/>
   <tile gid="5545"/>
   <tile gid="5544"/>
   <tile gid="5545"/>
   <tile gid="5544"/>
   <tile gid="5545"/>
   <tile gid="5544"/>
   <tile gid="5545"/>
   <tile gid="5544"/>
   <tile gid="5545"/>
   <tile gid="5544"/>
   <tile gid="5545"/>
   <tile gid="5544"/>
   <tile gid="5545"/>
   <tile gid="5544"/>
   <tile gid="5545"/>
   <tile gid="5544"/>
   <tile gid="5545"/>
   <tile gid="5544"/>
   <tile gid="5545"/>
   <tile gid="5544"/>
   <tile gid="5545"/>
   <tile gid="5544"/>
   <tile gid="5545"/>
   <tile gid="5544"/>
   <tile gid="5545"/>
   <tile gid="5544"/>
   <tile gid="5545"/>
   <tile gid="5544"/>
   <tile gid="5545"/>
   <tile gid="5544"/>
   <tile gid="5545"/>
   <tile gid="5544"/>
   <tile gid="5545"/>
   <tile gid="5544"/>
   <tile gid="5545"/>
   <tile gid="5544"/>
   <tile/>
   <tile/>
   <tile/>
   <tile/>
   <tile/>
   <tile gid="5544"/>
   <tile gid="5545"/>
   <tile gid="5544"/>
   <tile gid="5545"/>
   <tile gid="5608"/>
   <tile gid="5609"/>
   <tile gid="5608"/>
   <tile gid="5609"/>
   <tile gid="5608"/>
   <tile gid="5609"/>
   <tile gid="5608"/>
   <tile gid="5609"/>
   <tile gid="5608"/>
   <tile gid="5609"/>
   <tile gid="5608"/>
   <tile gid="5609"/>
   <tile gid="5608"/>
   <tile gid="5609"/>
   <tile gid="5608"/>
   <tile gid="5609"/>
   <tile gid="5608"/>
   <tile gid="5609"/>
   <tile gid="5608"/>
   <tile gid="5609"/>
   <tile gid="5608"/>
   <tile gid="5609"/>
   <tile gid="5608"/>
   <tile gid="5609"/>
   <tile gid="5608"/>
   <tile gid="5609"/>
   <tile gid="5608"/>
   <tile gid="5609"/>
   <tile gid="5608"/>
   <tile gid="5609"/>
   <tile gid="5608"/>
   <tile gid="5609"/>
   <tile gid="5608"/>
   <tile gid="5609"/>
   <tile gid="5608"/>
   <tile gid="5609"/>
   <tile gid="5608"/>
   <tile gid="5609"/>
   <tile gid="5608"/>
   <tile gid="5609"/>
   <tile gid="5608"/>
   <tile gid="5609"/>
   <tile gid="5608"/>
   <tile gid="5609"/>
   <tile gid="5608"/>
   <tile gid="5609"/>
   <tile gid="5608"/>
   <tile gid="5609"/>
   <tile gid="5608"/>
   <tile gid="5609"/>
   <tile gid="5608"/>
   <tile gid="5609"/>
   <tile gid="5608"/>
   <tile gid="5609"/>
   <tile gid="5608"/>
   <tile gid="5609"/>
   <tile gid="5608"/>
   <tile gid="5609"/>
   <tile gid="5608"/>
   <tile gid="5609"/>
   <tile gid="5608"/>
   <tile gid="5609"/>
   <tile gid="5608"/>
   <tile gid="5609"/>
   <tile gid="5608"/>
   <tile gid="5609"/>
   <tile gid="5608"/>
   <tile gid="5609"/>
   <tile gid="5608"/>
   <tile gid="5609"/>
   <tile gid="5608"/>
   <tile gid="5609"/>
   <tile gid="5608"/>
   <tile gid="5609"/>
   <tile gid="5608"/>
   <tile gid="5609"/>
   <tile gid="5608"/>
   <tile gid="5609"/>
   <tile gid="5608"/>
   <tile gid="5609"/>
   <tile gid="5608"/>
   <tile gid="5609"/>
   <tile gid="5608"/>
   <tile gid="5609"/>
   <tile gid="5608"/>
   <tile gid="5609"/>
   <tile gid="5608"/>
   <tile gid="5609"/>
   <tile gid="5608"/>
   <tile gid="5609"/>
   <tile gid="5608"/>
   <tile gid="5609"/>
   <tile gid="5608"/>
   <tile gid="5609"/>
   <tile gid="5608"/>
   <tile gid="5609"/>
   <tile gid="5608"/>
   <tile gid="5609"/>
   <tile gid="5608"/>
   <tile gid="5609"/>
   <tile gid="5608"/>
   <tile gid="5609"/>
   <tile gid="5608"/>
   <tile gid="5609"/>
   <tile gid="5608"/>
   <tile gid="5609"/>
   <tile gid="5608"/>
   <tile gid="5609"/>
   <tile gid="5608"/>
   <tile gid="5609"/>
   <tile gid="5608"/>
   <tile gid="5609"/>
   <tile gid="5608"/>
   <tile gid="5609"/>
   <tile gid="5608"/>
   <tile gid="5609"/>
   <tile gid="5608"/>
   <tile gid="5609"/>
   <tile gid="5608"/>
   <tile gid="5609"/>
   <tile gid="5544"/>
   <tile gid="5545"/>
   <tile gid="5544"/>
   <tile gid="5545"/>
   <tile gid="5544"/>
   <tile gid="5545"/>
   <tile gid="5544"/>
   <tile gid="5545"/>
   <tile gid="5544"/>
   <tile gid="5545"/>
   <tile gid="5544"/>
   <tile gid="5545"/>
   <tile gid="5544"/>
   <tile gid="5545"/>
   <tile gid="5544"/>
   <tile gid="5545"/>
   <tile gid="5544"/>
   <tile gid="5545"/>
   <tile gid="5544"/>
   <tile gid="5545"/>
   <tile gid="5544"/>
   <tile gid="5545"/>
   <tile gid="5544"/>
   <tile gid="5545"/>
   <tile gid="5544"/>
   <tile gid="5545"/>
   <tile gid="5544"/>
   <tile gid="5545"/>
   <tile gid="5544"/>
   <tile gid="5545"/>
   <tile gid="5544"/>
   <tile gid="5545"/>
   <tile gid="5544"/>
   <tile gid="5545"/>
   <tile gid="5544"/>
   <tile gid="5545"/>
   <tile gid="5544"/>
   <tile gid="5545"/>
   <tile gid="5544"/>
   <tile gid="5545"/>
   <tile gid="5544"/>
   <tile gid="5545"/>
   <tile gid="5544"/>
   <tile gid="5545"/>
   <tile gid="5544"/>
   <tile gid="5545"/>
   <tile gid="5544"/>
   <tile gid="5545"/>
   <tile gid="5544"/>
   <tile gid="5545"/>
   <tile gid="5544"/>
   <tile gid="5545"/>
   <tile gid="5544"/>
   <tile gid="5545"/>
   <tile gid="5544"/>
   <tile gid="5545"/>
   <tile gid="5544"/>
   <tile gid="5545"/>
   <tile gid="5544"/>
   <tile gid="5545"/>
   <tile gid="5544"/>
   <tile gid="5545"/>
   <tile gid="5544"/>
   <tile gid="5545"/>
   <tile gid="5544"/>
   <tile gid="5545"/>
   <tile gid="5544"/>
   <tile gid="5545"/>
   <tile gid="5544"/>
   <tile gid="5545"/>
   <tile gid="5544"/>
   <tile gid="5545"/>
   <tile gid="5544"/>
   <tile gid="5545"/>
   <tile gid="5544"/>
   <tile gid="5545"/>
   <tile gid="5544"/>
   <tile gid="5545"/>
   <tile gid="5544"/>
   <tile gid="5545"/>
   <tile gid="5544"/>
   <tile gid="5545"/>
   <tile gid="5544"/>
   <tile gid="5545"/>
   <tile gid="5544"/>
   <tile gid="5545"/>
   <tile gid="5544"/>
   <tile gid="5545"/>
   <tile gid="5544"/>
   <tile gid="5545"/>
   <tile gid="5544"/>
   <tile gid="5545"/>
   <tile gid="5544"/>
   <tile gid="5545"/>
   <tile gid="5544"/>
   <tile gid="5545"/>
   <tile gid="5544"/>
   <tile gid="5545"/>
   <tile gid="5544"/>
   <tile gid="5545"/>
   <tile gid="5544"/>
   <tile gid="5545"/>
   <tile gid="5544"/>
   <tile gid="5545"/>
   <tile gid="5544"/>
   <tile gid="5545"/>
   <tile gid="5544"/>
   <tile gid="5545"/>
   <tile gid="5544"/>
   <tile gid="5545"/>
   <tile gid="5544"/>
   <tile gid="5545"/>
   <tile gid="5544"/>
   <tile gid="5545"/>
   <tile gid="5544"/>
   <tile gid="5545"/>
   <tile gid="5544"/>
   <tile gid="5545"/>
   <tile gid="5544"/>
   <tile gid="5545"/>
   <tile gid="5608"/>
   <tile gid="5609"/>
   <tile gid="5608"/>
   <tile gid="5609"/>
   <tile gid="5608"/>
   <tile gid="5609"/>
   <tile gid="5608"/>
   <tile gid="5609"/>
   <tile gid="5608"/>
   <tile gid="5609"/>
   <tile gid="5608"/>
   <tile gid="5609"/>
   <tile gid="5608"/>
   <tile gid="5609"/>
   <tile gid="5608"/>
   <tile gid="5609"/>
   <tile gid="5608"/>
   <tile gid="5609"/>
   <tile gid="5608"/>
   <tile gid="5609"/>
   <tile gid="5608"/>
   <tile gid="5609"/>
   <tile gid="5608"/>
   <tile gid="5609"/>
   <tile gid="5608"/>
   <tile gid="5609"/>
   <tile gid="5608"/>
   <tile gid="5609"/>
   <tile gid="5608"/>
   <tile gid="5609"/>
   <tile gid="5608"/>
   <tile gid="5609"/>
   <tile gid="5608"/>
   <tile gid="5609"/>
   <tile gid="5608"/>
   <tile gid="5609"/>
   <tile gid="5608"/>
   <tile gid="5609"/>
   <tile gid="5608"/>
   <tile gid="5609"/>
   <tile gid="5608"/>
   <tile gid="5609"/>
   <tile gid="5608"/>
   <tile gid="5609"/>
   <tile gid="5608"/>
   <tile gid="5609"/>
   <tile gid="5608"/>
   <tile gid="5609"/>
   <tile gid="5608"/>
   <tile gid="5609"/>
   <tile gid="5608"/>
   <tile gid="5609"/>
   <tile gid="5608"/>
   <tile gid="5609"/>
   <tile gid="5608"/>
   <tile gid="5609"/>
   <tile gid="5608"/>
   <tile gid="5674"/>
   <tile gid="5675"/>
   <tile gid="5676"/>
   <tile gid="5677"/>
   <tile gid="5678"/>
   <tile gid="5679"/>
   <tile gid="5609"/>
   <tile gid="5608"/>
   <tile gid="5609"/>
   <tile gid="5608"/>
   <tile gid="5609"/>
   <tile gid="5608"/>
   <tile gid="5609"/>
   <tile gid="5608"/>
   <tile gid="5609"/>
   <tile gid="5608"/>
   <tile gid="5609"/>
   <tile gid="5608"/>
   <tile gid="5609"/>
   <tile gid="5608"/>
   <tile gid="5609"/>
   <tile gid="5608"/>
   <tile gid="5609"/>
   <tile gid="5608"/>
   <tile gid="5609"/>
   <tile gid="5608"/>
   <tile gid="5609"/>
   <tile gid="5608"/>
   <tile gid="5609"/>
   <tile gid="5608"/>
   <tile gid="5609"/>
   <tile gid="5608"/>
   <tile gid="5609"/>
   <tile gid="5608"/>
   <tile gid="5609"/>
   <tile gid="5608"/>
   <tile gid="5609"/>
   <tile gid="5608"/>
   <tile gid="5609"/>
   <tile gid="5608"/>
   <tile gid="5609"/>
   <tile gid="5608"/>
   <tile gid="5609"/>
   <tile gid="5608"/>
   <tile gid="5609"/>
   <tile gid="5608"/>
   <tile gid="5609"/>
   <tile gid="5608"/>
   <tile gid="5609"/>
   <tile gid="5608"/>
   <tile gid="5609"/>
   <tile gid="5608"/>
   <tile gid="5609"/>
   <tile gid="5608"/>
   <tile gid="5609"/>
   <tile gid="5608"/>
   <tile gid="5609"/>
   <tile gid="5608"/>
   <tile gid="5609"/>
   <tile gid="5608"/>
   <tile gid="5609"/>
   <tile gid="5608"/>
   <tile gid="5609"/>
   <tile gid="5544"/>
   <tile gid="5545"/>
   <tile gid="5544"/>
   <tile gid="5545"/>
   <tile gid="5544"/>
   <tile gid="5545"/>
   <tile gid="5544"/>
   <tile gid="5545"/>
   <tile gid="5544"/>
   <tile gid="5545"/>
   <tile gid="5544"/>
   <tile gid="5545"/>
   <tile gid="5544"/>
   <tile gid="5545"/>
   <tile gid="5544"/>
   <tile gid="5545"/>
   <tile gid="5544"/>
   <tile gid="5545"/>
   <tile gid="5544"/>
   <tile gid="5545"/>
   <tile gid="5544"/>
   <tile gid="5545"/>
   <tile gid="5544"/>
   <tile gid="5545"/>
   <tile gid="5544"/>
   <tile gid="5545"/>
   <tile gid="5544"/>
   <tile gid="5545"/>
   <tile gid="5544"/>
   <tile gid="5545"/>
   <tile gid="5544"/>
   <tile gid="5545"/>
   <tile gid="5544"/>
   <tile gid="5545"/>
   <tile gid="5544"/>
   <tile gid="5545"/>
   <tile gid="5544"/>
   <tile gid="5545"/>
   <tile gid="5544"/>
   <tile gid="5545"/>
   <tile gid="5544"/>
   <tile gid="5545"/>
   <tile gid="5544"/>
   <tile gid="5545"/>
   <tile gid="5544"/>
   <tile gid="5545"/>
   <tile gid="5544"/>
   <tile gid="5545"/>
   <tile gid="5544"/>
   <tile gid="5545"/>
   <tile gid="5544"/>
   <tile gid="5545"/>
   <tile gid="5544"/>
   <tile gid="5545"/>
   <tile gid="5544"/>
   <tile gid="5545"/>
   <tile gid="5544"/>
   <tile gid="5738"/>
   <tile gid="5739"/>
   <tile gid="5740"/>
   <tile gid="5741"/>
   <tile gid="5742"/>
   <tile gid="5743"/>
   <tile gid="5545"/>
   <tile gid="5544"/>
   <tile gid="5545"/>
   <tile gid="5544"/>
   <tile gid="5545"/>
   <tile gid="5544"/>
   <tile gid="5545"/>
   <tile gid="5544"/>
   <tile gid="5545"/>
   <tile gid="5544"/>
   <tile gid="5545"/>
   <tile gid="5544"/>
   <tile gid="5545"/>
   <tile gid="5544"/>
   <tile gid="5545"/>
   <tile gid="5544"/>
   <tile gid="5545"/>
   <tile gid="5544"/>
   <tile gid="5545"/>
   <tile gid="5544"/>
   <tile gid="5545"/>
   <tile gid="5544"/>
   <tile gid="5545"/>
   <tile gid="5544"/>
   <tile gid="5545"/>
   <tile gid="5544"/>
   <tile gid="5545"/>
   <tile gid="5544"/>
   <tile gid="5545"/>
   <tile gid="5544"/>
   <tile gid="5545"/>
   <tile gid="5544"/>
   <tile gid="5545"/>
   <tile gid="5544"/>
   <tile gid="5545"/>
   <tile gid="5544"/>
   <tile gid="5545"/>
   <tile gid="5544"/>
   <tile gid="5545"/>
   <tile gid="5544"/>
   <tile gid="5545"/>
   <tile gid="5544"/>
   <tile gid="5545"/>
   <tile gid="5544"/>
   <tile gid="5545"/>
   <tile gid="5544"/>
   <tile gid="5545"/>
   <tile gid="5544"/>
   <tile gid="5545"/>
   <tile gid="5544"/>
   <tile gid="5545"/>
   <tile gid="5544"/>
   <tile gid="5545"/>
   <tile gid="5544"/>
   <tile gid="5545"/>
   <tile gid="5544"/>
   <tile gid="5545"/>
   <tile gid="3026"/>
   <tile/>
   <tile/>
   <tile/>
   <tile/>
   <tile gid="5609"/>
   <tile gid="5608"/>
   <tile gid="5609"/>
   <tile gid="5608"/>
   <tile gid="5609"/>
   <tile gid="5608"/>
   <tile gid="5609"/>
   <tile gid="5608"/>
   <tile gid="5609"/>
   <tile gid="5608"/>
   <tile gid="5609"/>
   <tile gid="5608"/>
   <tile gid="5609"/>
   <tile gid="5608"/>
   <tile gid="5609"/>
   <tile gid="5608"/>
   <tile gid="5609"/>
   <tile gid="5608"/>
   <tile gid="5609"/>
   <tile gid="5608"/>
   <tile gid="5609"/>
   <tile gid="5608"/>
   <tile gid="5609"/>
   <tile gid="5608"/>
   <tile gid="5609"/>
   <tile gid="5608"/>
   <tile gid="5609"/>
   <tile gid="5608"/>
   <tile gid="5609"/>
   <tile gid="5608"/>
   <tile gid="5609"/>
   <tile gid="5608"/>
   <tile gid="5609"/>
   <tile gid="5608"/>
   <tile gid="5609"/>
   <tile gid="5608"/>
   <tile gid="5609"/>
   <tile gid="5608"/>
   <tile gid="5609"/>
   <tile gid="5608"/>
   <tile gid="5609"/>
   <tile gid="5608"/>
   <tile gid="5609"/>
   <tile gid="5608"/>
   <tile gid="5609"/>
   <tile gid="5608"/>
   <tile gid="5609"/>
   <tile gid="5608"/>
   <tile gid="5609"/>
   <tile gid="5608"/>
   <tile gid="5609"/>
   <tile gid="5608"/>
   <tile gid="5802"/>
   <tile gid="5803"/>
   <tile gid="5804"/>
   <tile gid="5805"/>
   <tile gid="5806"/>
   <tile gid="5807"/>
   <tile gid="5609"/>
   <tile gid="5608"/>
   <tile gid="5609"/>
   <tile gid="5608"/>
   <tile gid="5609"/>
   <tile gid="5608"/>
   <tile gid="5609"/>
   <tile gid="5608"/>
   <tile gid="5609"/>
   <tile gid="5608"/>
   <tile gid="5609"/>
   <tile gid="5608"/>
   <tile gid="5609"/>
   <tile gid="5608"/>
   <tile gid="5609"/>
   <tile gid="5608"/>
   <tile gid="5609"/>
   <tile gid="5608"/>
   <tile gid="5609"/>
   <tile gid="5608"/>
   <tile gid="5609"/>
   <tile gid="5608"/>
   <tile gid="5609"/>
   <tile gid="5608"/>
   <tile gid="5609"/>
   <tile gid="5608"/>
   <tile gid="5609"/>
   <tile gid="5608"/>
   <tile gid="5609"/>
   <tile gid="5608"/>
   <tile gid="5609"/>
   <tile gid="5608"/>
   <tile gid="5609"/>
   <tile gid="5608"/>
   <tile gid="5609"/>
   <tile gid="5608"/>
   <tile gid="5609"/>
   <tile gid="5608"/>
   <tile gid="5609"/>
   <tile gid="5608"/>
   <tile gid="5609"/>
   <tile gid="5608"/>
   <tile gid="5609"/>
   <tile gid="5608"/>
   <tile gid="5609"/>
   <tile gid="5608"/>
   <tile gid="5609"/>
   <tile gid="5608"/>
   <tile gid="5609"/>
   <tile gid="5608"/>
   <tile gid="5609"/>
   <tile gid="5608"/>
   <tile/>
   <tile/>
   <tile/>
   <tile/>
   <tile/>
   <tile gid="3026"/>
   <tile/>
   <tile/>
   <tile/>
   <tile/>
   <tile gid="5545"/>
   <tile gid="5544"/>
   <tile gid="5545"/>
   <tile gid="5544"/>
   <tile gid="5545"/>
   <tile gid="5544"/>
   <tile gid="5545"/>
   <tile gid="5544"/>
   <tile gid="5545"/>
   <tile gid="5544"/>
   <tile gid="5545"/>
   <tile gid="5544"/>
   <tile gid="5545"/>
   <tile gid="5544"/>
   <tile gid="5545"/>
   <tile gid="5544"/>
   <tile gid="5545"/>
   <tile gid="5544"/>
   <tile gid="5545"/>
   <tile gid="5544"/>
   <tile gid="5545"/>
   <tile gid="5544"/>
   <tile gid="5545"/>
   <tile gid="5544"/>
   <tile gid="5545"/>
   <tile gid="5544"/>
   <tile gid="5545"/>
   <tile gid="5544"/>
   <tile gid="5545"/>
   <tile gid="5544"/>
   <tile gid="5545"/>
   <tile gid="5544"/>
   <tile gid="5545"/>
   <tile gid="5544"/>
   <tile gid="5545"/>
   <tile gid="5544"/>
   <tile gid="5545"/>
   <tile gid="5544"/>
   <tile gid="5545"/>
   <tile gid="5544"/>
   <tile gid="5545"/>
   <tile gid="5544"/>
   <tile gid="5545"/>
   <tile gid="5544"/>
   <tile gid="5545"/>
   <tile gid="5544"/>
   <tile gid="5545"/>
   <tile gid="5544"/>
   <tile gid="5545"/>
   <tile gid="5544"/>
   <tile gid="5545"/>
   <tile gid="5544"/>
   <tile gid="5866"/>
   <tile gid="5867"/>
   <tile gid="5868"/>
   <tile gid="5869"/>
   <tile gid="5870"/>
   <tile gid="5871"/>
   <tile gid="5545"/>
   <tile gid="5544"/>
   <tile gid="5545"/>
   <tile gid="5544"/>
   <tile gid="5545"/>
   <tile gid="5544"/>
   <tile gid="5545"/>
   <tile gid="5544"/>
   <tile gid="5545"/>
   <tile gid="5544"/>
   <tile gid="5545"/>
   <tile gid="5544"/>
   <tile gid="5545"/>
   <tile gid="5544"/>
   <tile gid="5545"/>
   <tile gid="5544"/>
   <tile gid="5545"/>
   <tile gid="5544"/>
   <tile gid="5545"/>
   <tile gid="5544"/>
   <tile gid="5545"/>
   <tile gid="5544"/>
   <tile gid="5545"/>
   <tile gid="5544"/>
   <tile gid="5545"/>
   <tile gid="5544"/>
   <tile gid="5545"/>
   <tile gid="5544"/>
   <tile gid="5545"/>
   <tile gid="5544"/>
   <tile gid="5545"/>
   <tile gid="5544"/>
   <tile gid="5545"/>
   <tile gid="5544"/>
   <tile gid="5545"/>
   <tile gid="5544"/>
   <tile gid="5545"/>
   <tile gid="5544"/>
   <tile gid="5545"/>
   <tile gid="5544"/>
   <tile gid="5545"/>
   <tile gid="5544"/>
   <tile gid="5545"/>
   <tile gid="5544"/>
   <tile gid="5545"/>
   <tile gid="5544"/>
   <tile gid="5545"/>
   <tile gid="5544"/>
   <tile gid="5545"/>
   <tile gid="5544"/>
   <tile gid="5545"/>
   <tile gid="5544"/>
   <tile/>
   <tile/>
   <tile/>
   <tile/>
   <tile/>
   <tile gid="3026"/>
   <tile/>
   <tile/>
   <tile/>
   <tile/>
   <tile gid="5609"/>
   <tile gid="5608"/>
   <tile gid="5609"/>
   <tile gid="5608"/>
   <tile gid="5609"/>
   <tile gid="5608"/>
   <tile gid="5609"/>
   <tile gid="5608"/>
   <tile gid="5609"/>
   <tile gid="5608"/>
   <tile gid="5609"/>
   <tile gid="5608"/>
   <tile gid="5609"/>
   <tile gid="5608"/>
   <tile gid="5609"/>
   <tile gid="5608"/>
   <tile gid="5609"/>
   <tile gid="5608"/>
   <tile gid="5609"/>
   <tile gid="5608"/>
   <tile gid="5609"/>
   <tile gid="5608"/>
   <tile gid="5609"/>
   <tile gid="5608"/>
   <tile gid="5609"/>
   <tile gid="5608"/>
   <tile gid="5609"/>
   <tile gid="5608"/>
   <tile gid="5609"/>
   <tile gid="5608"/>
   <tile gid="5609"/>
   <tile gid="5608"/>
   <tile gid="5609"/>
   <tile gid="5608"/>
   <tile gid="5609"/>
   <tile gid="5608"/>
   <tile gid="5609"/>
   <tile gid="5608"/>
   <tile gid="5609"/>
   <tile gid="5608"/>
   <tile gid="5609"/>
   <tile gid="5608"/>
   <tile gid="5609"/>
   <tile gid="5608"/>
   <tile gid="5609"/>
   <tile gid="5608"/>
   <tile gid="5609"/>
   <tile gid="5608"/>
   <tile gid="5609"/>
   <tile gid="5608"/>
   <tile gid="5609"/>
   <tile gid="5608"/>
   <tile gid="5930"/>
   <tile gid="5931"/>
   <tile gid="5932"/>
   <tile gid="5933"/>
   <tile gid="5934"/>
   <tile gid="5935"/>
   <tile gid="5609"/>
   <tile gid="5608"/>
   <tile gid="5609"/>
   <tile gid="5608"/>
   <tile gid="5609"/>
   <tile gid="5608"/>
   <tile gid="5609"/>
   <tile gid="5608"/>
   <tile gid="5609"/>
   <tile gid="5608"/>
   <tile gid="5609"/>
   <tile gid="5608"/>
   <tile gid="5609"/>
   <tile gid="5608"/>
   <tile gid="5609"/>
   <tile gid="5608"/>
   <tile gid="5609"/>
   <tile gid="5608"/>
   <tile gid="5609"/>
   <tile gid="5608"/>
   <tile gid="5609"/>
   <tile gid="5608"/>
   <tile gid="5609"/>
   <tile gid="5608"/>
   <tile gid="5609"/>
   <tile gid="5608"/>
   <tile gid="5609"/>
   <tile gid="5608"/>
   <tile gid="5609"/>
   <tile gid="5608"/>
   <tile gid="5609"/>
   <tile gid="5608"/>
   <tile gid="5609"/>
   <tile gid="5608"/>
   <tile gid="5609"/>
   <tile gid="5608"/>
   <tile gid="5609"/>
   <tile gid="5608"/>
   <tile gid="5609"/>
   <tile gid="5608"/>
   <tile gid="5609"/>
   <tile gid="5608"/>
   <tile gid="5609"/>
   <tile gid="5608"/>
   <tile gid="5609"/>
   <tile gid="5608"/>
   <tile gid="5609"/>
   <tile gid="5608"/>
   <tile gid="5609"/>
   <tile gid="5608"/>
   <tile gid="5609"/>
   <tile gid="5608"/>
   <tile/>
   <tile/>
   <tile/>
   <tile/>
   <tile/>
   <tile gid="3026"/>
   <tile/>
   <tile/>
   <tile/>
   <tile/>
   <tile gid="5545"/>
   <tile gid="5544"/>
   <tile gid="5545"/>
   <tile gid="5544"/>
   <tile gid="5545"/>
   <tile gid="5544"/>
   <tile gid="5545"/>
   <tile gid="5544"/>
   <tile gid="5545"/>
   <tile gid="5544"/>
   <tile gid="5545"/>
   <tile gid="5544"/>
   <tile gid="5545"/>
   <tile gid="5544"/>
   <tile gid="5545"/>
   <tile gid="5544"/>
   <tile gid="5545"/>
   <tile gid="5544"/>
   <tile gid="5545"/>
   <tile gid="5544"/>
   <tile gid="5545"/>
   <tile gid="5544"/>
   <tile gid="5545"/>
   <tile gid="5544"/>
   <tile gid="5545"/>
   <tile gid="5544"/>
   <tile gid="5545"/>
   <tile gid="5544"/>
   <tile gid="5545"/>
   <tile gid="5544"/>
   <tile gid="5545"/>
   <tile gid="5544"/>
   <tile gid="5545"/>
   <tile gid="5544"/>
   <tile gid="5545"/>
   <tile gid="5544"/>
   <tile gid="5545"/>
   <tile gid="5544"/>
   <tile gid="5545"/>
   <tile gid="5544"/>
   <tile gid="5545"/>
   <tile gid="5544"/>
   <tile gid="5545"/>
   <tile gid="5544"/>
   <tile gid="5545"/>
   <tile gid="5544"/>
   <tile gid="5545"/>
   <tile gid="5544"/>
   <tile gid="5545"/>
   <tile gid="5544"/>
   <tile gid="5545"/>
   <tile gid="5544"/>
   <tile gid="5994"/>
   <tile gid="5995"/>
   <tile gid="5996"/>
   <tile gid="5997"/>
   <tile gid="5998"/>
   <tile gid="5999"/>
   <tile gid="5545"/>
   <tile gid="5544"/>
   <tile gid="5545"/>
   <tile gid="5544"/>
   <tile gid="5545"/>
   <tile gid="5544"/>
   <tile gid="5545"/>
   <tile gid="5544"/>
   <tile gid="5545"/>
   <tile gid="5544"/>
   <tile gid="5545"/>
   <tile gid="5544"/>
   <tile gid="5545"/>
   <tile gid="5544"/>
   <tile gid="5545"/>
   <tile gid="5544"/>
   <tile gid="5545"/>
   <tile gid="5544"/>
   <tile gid="5545"/>
   <tile gid="5544"/>
   <tile gid="5545"/>
   <tile gid="5544"/>
   <tile gid="5545"/>
   <tile gid="5544"/>
   <tile gid="5545"/>
   <tile gid="5544"/>
   <tile gid="5545"/>
   <tile gid="5544"/>
   <tile gid="5545"/>
   <tile gid="5544"/>
   <tile gid="5545"/>
   <tile gid="5544"/>
   <tile gid="5545"/>
   <tile gid="5544"/>
   <tile gid="5545"/>
   <tile gid="5544"/>
   <tile gid="5545"/>
   <tile gid="5544"/>
   <tile gid="5545"/>
   <tile gid="5544"/>
   <tile gid="5545"/>
   <tile gid="5544"/>
   <tile gid="5545"/>
   <tile gid="5544"/>
   <tile gid="5545"/>
   <tile gid="5544"/>
   <tile gid="5545"/>
   <tile gid="5544"/>
   <tile gid="5545"/>
   <tile gid="5544"/>
   <tile gid="5545"/>
   <tile gid="5544"/>
   <tile/>
   <tile/>
   <tile/>
   <tile/>
   <tile/>
   <tile gid="3026"/>
   <tile/>
   <tile/>
   <tile/>
   <tile/>
   <tile gid="5609"/>
   <tile gid="5608"/>
   <tile gid="5609"/>
   <tile gid="5608"/>
   <tile gid="5609"/>
   <tile gid="5608"/>
   <tile gid="5609"/>
   <tile gid="5608"/>
   <tile gid="5609"/>
   <tile gid="5608"/>
   <tile gid="5609"/>
   <tile gid="5608"/>
   <tile gid="5609"/>
   <tile gid="5608"/>
   <tile gid="5609"/>
   <tile gid="5608"/>
   <tile gid="5609"/>
   <tile gid="5608"/>
   <tile gid="5609"/>
   <tile gid="5608"/>
   <tile gid="5609"/>
   <tile gid="5608"/>
   <tile gid="5609"/>
   <tile gid="5608"/>
   <tile gid="5609"/>
   <tile gid="5608"/>
   <tile gid="5609"/>
   <tile gid="5608"/>
   <tile gid="5609"/>
   <tile gid="5608"/>
   <tile gid="5609"/>
   <tile gid="5608"/>
   <tile gid="5609"/>
   <tile gid="5608"/>
   <tile gid="5609"/>
   <tile gid="5608"/>
   <tile gid="5609"/>
   <tile gid="5608"/>
   <tile gid="5609"/>
   <tile gid="5608"/>
   <tile gid="5609"/>
   <tile gid="5608"/>
   <tile gid="5609"/>
   <tile gid="5608"/>
   <tile gid="5609"/>
   <tile gid="5608"/>
   <tile gid="5609"/>
   <tile gid="5608"/>
   <tile gid="5609"/>
   <tile gid="5608"/>
   <tile gid="5609"/>
   <tile gid="5608"/>
   <tile gid="5609"/>
   <tile gid="5608"/>
   <tile gid="5609"/>
   <tile gid="5608"/>
   <tile gid="5609"/>
   <tile gid="5608"/>
   <tile gid="5609"/>
   <tile gid="5608"/>
   <tile gid="5609"/>
   <tile gid="5608"/>
   <tile gid="5609"/>
   <tile gid="5608"/>
   <tile gid="5609"/>
   <tile gid="5608"/>
   <tile gid="5609"/>
   <tile gid="5608"/>
   <tile gid="5609"/>
   <tile gid="5608"/>
   <tile gid="5609"/>
   <tile gid="5608"/>
   <tile gid="5609"/>
   <tile gid="5608"/>
   <tile gid="5609"/>
   <tile gid="5608"/>
   <tile gid="5609"/>
   <tile gid="5608"/>
   <tile gid="5609"/>
   <tile gid="5608"/>
   <tile gid="5609"/>
   <tile gid="5608"/>
   <tile gid="5609"/>
   <tile gid="5608"/>
   <tile gid="5609"/>
   <tile gid="5608"/>
   <tile gid="5609"/>
   <tile gid="5608"/>
   <tile gid="5609"/>
   <tile gid="5608"/>
   <tile gid="5609"/>
   <tile gid="5608"/>
   <tile gid="5609"/>
   <tile gid="5608"/>
   <tile gid="5609"/>
   <tile gid="5608"/>
   <tile gid="5609"/>
   <tile gid="5608"/>
   <tile gid="5609"/>
   <tile gid="5608"/>
   <tile gid="5609"/>
   <tile gid="5608"/>
   <tile gid="5609"/>
   <tile gid="5608"/>
   <tile gid="5609"/>
   <tile gid="5608"/>
   <tile gid="5609"/>
   <tile gid="5608"/>
   <tile gid="5609"/>
   <tile gid="5608"/>
   <tile/>
   <tile/>
   <tile/>
   <tile/>
   <tile/>
   <tile gid="3026"/>
   <tile/>
   <tile/>
   <tile/>
   <tile/>
   <tile gid="5545"/>
   <tile gid="5544"/>
   <tile gid="5545"/>
   <tile gid="5544"/>
   <tile gid="5545"/>
   <tile gid="5544"/>
   <tile gid="5545"/>
   <tile gid="5544"/>
   <tile gid="5545"/>
   <tile gid="5544"/>
   <tile gid="5545"/>
   <tile gid="5544"/>
   <tile gid="5545"/>
   <tile gid="5544"/>
   <tile gid="5545"/>
   <tile gid="5544"/>
   <tile gid="5545"/>
   <tile gid="5544"/>
   <tile gid="5545"/>
   <tile gid="5544"/>
   <tile gid="5545"/>
   <tile gid="5544"/>
   <tile gid="5545"/>
   <tile gid="5544"/>
   <tile gid="5545"/>
   <tile gid="5544"/>
   <tile gid="5545"/>
   <tile gid="5544"/>
   <tile gid="5545"/>
   <tile gid="5544"/>
   <tile gid="5545"/>
   <tile gid="5544"/>
   <tile gid="5545"/>
   <tile gid="5544"/>
   <tile gid="5545"/>
   <tile gid="5544"/>
   <tile gid="5545"/>
   <tile gid="5544"/>
   <tile gid="5545"/>
   <tile gid="5674"/>
   <tile gid="5675"/>
   <tile gid="5676"/>
   <tile gid="5677"/>
   <tile gid="5678"/>
   <tile gid="5679"/>
   <tile gid="5544"/>
   <tile gid="5545"/>
   <tile gid="5544"/>
   <tile gid="5545"/>
   <tile gid="5544"/>
   <tile gid="5545"/>
   <tile gid="5544"/>
   <tile gid="5545"/>
   <tile gid="5544"/>
   <tile gid="5545"/>
   <tile gid="5544"/>
   <tile gid="5545"/>
   <tile gid="5544"/>
   <tile gid="5545"/>
   <tile gid="5544"/>
   <tile gid="5545"/>
   <tile gid="5544"/>
   <tile gid="5545"/>
   <tile gid="5544"/>
   <tile gid="5545"/>
   <tile gid="5674"/>
   <tile gid="5675"/>
   <tile gid="5676"/>
   <tile gid="5677"/>
   <tile gid="5678"/>
   <tile gid="5679"/>
   <tile gid="5544"/>
   <tile gid="5545"/>
   <tile gid="5544"/>
   <tile gid="5545"/>
   <tile gid="5544"/>
   <tile gid="5545"/>
   <tile gid="5544"/>
   <tile gid="5545"/>
   <tile gid="5544"/>
   <tile gid="5545"/>
   <tile gid="5544"/>
   <tile gid="5545"/>
   <tile gid="5544"/>
   <tile gid="5545"/>
   <tile gid="5544"/>
   <tile gid="5545"/>
   <tile gid="5544"/>
   <tile gid="5545"/>
   <tile gid="5544"/>
   <tile gid="5545"/>
   <tile gid="5544"/>
   <tile gid="5545"/>
   <tile gid="5544"/>
   <tile gid="5545"/>
   <tile gid="5544"/>
   <tile gid="5545"/>
   <tile gid="5544"/>
   <tile gid="5545"/>
   <tile gid="5544"/>
   <tile gid="5545"/>
   <tile gid="5544"/>
   <tile gid="5545"/>
   <tile gid="5544"/>
   <tile gid="5545"/>
   <tile gid="5544"/>
   <tile gid="5545"/>
   <tile gid="5544"/>
   <tile gid="5545"/>
   <tile gid="5544"/>
   <tile/>
   <tile/>
   <tile/>
   <tile/>
   <tile/>
   <tile gid="3026"/>
   <tile/>
   <tile/>
   <tile/>
   <tile/>
   <tile gid="5609"/>
   <tile gid="5608"/>
   <tile gid="5609"/>
   <tile gid="5608"/>
   <tile gid="5609"/>
   <tile gid="5608"/>
   <tile gid="5609"/>
   <tile gid="5608"/>
   <tile gid="5609"/>
   <tile gid="5608"/>
   <tile gid="5609"/>
   <tile gid="5608"/>
   <tile gid="5609"/>
   <tile gid="5608"/>
   <tile gid="5609"/>
   <tile gid="5608"/>
   <tile gid="5609"/>
   <tile gid="5608"/>
   <tile gid="5609"/>
   <tile gid="5608"/>
   <tile gid="5609"/>
   <tile gid="5608"/>
   <tile gid="5609"/>
   <tile gid="5608"/>
   <tile gid="5609"/>
   <tile gid="5608"/>
   <tile gid="5609"/>
   <tile gid="5608"/>
   <tile gid="5609"/>
   <tile gid="5608"/>
   <tile gid="5609"/>
   <tile gid="5608"/>
   <tile gid="5609"/>
   <tile gid="5608"/>
   <tile gid="5609"/>
   <tile gid="5608"/>
   <tile gid="5609"/>
   <tile gid="5608"/>
   <tile gid="5609"/>
   <tile gid="5738"/>
   <tile gid="5739"/>
   <tile gid="5740"/>
   <tile gid="5741"/>
   <tile gid="5742"/>
   <tile gid="5743"/>
   <tile gid="5608"/>
   <tile gid="5609"/>
   <tile gid="5608"/>
   <tile gid="5609"/>
   <tile gid="5608"/>
   <tile gid="5609"/>
   <tile gid="5608"/>
   <tile gid="5609"/>
   <tile gid="5608"/>
   <tile gid="5609"/>
   <tile gid="5608"/>
   <tile gid="5609"/>
   <tile gid="5608"/>
   <tile gid="5609"/>
   <tile gid="5608"/>
   <tile gid="5609"/>
   <tile gid="5608"/>
   <tile gid="5609"/>
   <tile gid="5608"/>
   <tile gid="5609"/>
   <tile gid="5738"/>
   <tile gid="5739"/>
   <tile gid="5740"/>
   <tile gid="5741"/>
   <tile gid="5742"/>
   <tile gid="5743"/>
   <tile gid="5608"/>
   <tile gid="5609"/>
   <tile gid="5608"/>
   <tile gid="5609"/>
   <tile gid="5608"/>
   <tile gid="5609"/>
   <tile gid="5608"/>
   <tile gid="5609"/>
   <tile gid="5608"/>
   <tile gid="5609"/>
   <tile gid="5608"/>
   <tile gid="5609"/>
   <tile gid="5608"/>
   <tile gid="5609"/>
   <tile gid="5608"/>
   <tile gid="5609"/>
   <tile gid="5608"/>
   <tile gid="5609"/>
   <tile gid="5608"/>
   <tile gid="5609"/>
   <tile gid="5608"/>
   <tile gid="5609"/>
   <tile gid="5608"/>
   <tile gid="5609"/>
   <tile gid="5608"/>
   <tile gid="5609"/>
   <tile gid="5608"/>
   <tile gid="5609"/>
   <tile gid="5608"/>
   <tile gid="5609"/>
   <tile gid="5608"/>
   <tile gid="5609"/>
   <tile gid="5608"/>
   <tile gid="5609"/>
   <tile gid="5608"/>
   <tile gid="5609"/>
   <tile gid="5608"/>
   <tile gid="5609"/>
   <tile gid="5608"/>
   <tile/>
   <tile/>
   <tile/>
   <tile/>
   <tile/>
   <tile gid="3026"/>
   <tile/>
   <tile/>
   <tile/>
   <tile/>
   <tile gid="5545"/>
   <tile gid="5544"/>
   <tile gid="5545"/>
   <tile gid="5544"/>
   <tile gid="5545"/>
   <tile gid="5544"/>
   <tile gid="5545"/>
   <tile gid="5544"/>
   <tile gid="5545"/>
   <tile gid="5544"/>
   <tile gid="5545"/>
   <tile gid="5544"/>
   <tile gid="5545"/>
   <tile gid="5544"/>
   <tile gid="5545"/>
   <tile gid="5544"/>
   <tile gid="5545"/>
   <tile gid="5544"/>
   <tile gid="5545"/>
   <tile gid="5544"/>
   <tile gid="5545"/>
   <tile gid="5544"/>
   <tile gid="5545"/>
   <tile gid="5544"/>
   <tile gid="5545"/>
   <tile gid="5544"/>
   <tile gid="5545"/>
   <tile gid="5544"/>
   <tile gid="5545"/>
   <tile gid="5544"/>
   <tile gid="5545"/>
   <tile gid="5544"/>
   <tile gid="5545"/>
   <tile gid="5544"/>
   <tile gid="5545"/>
   <tile gid="5544"/>
   <tile gid="5545"/>
   <tile gid="5544"/>
   <tile gid="5545"/>
   <tile gid="5802"/>
   <tile gid="5803"/>
   <tile gid="5804"/>
   <tile gid="5805"/>
   <tile gid="5806"/>
   <tile gid="5807"/>
   <tile gid="5544"/>
   <tile gid="5545"/>
   <tile gid="5544"/>
   <tile gid="5545"/>
   <tile gid="5544"/>
   <tile gid="5545"/>
   <tile gid="5544"/>
   <tile gid="5545"/>
   <tile gid="5544"/>
   <tile gid="5545"/>
   <tile gid="5544"/>
   <tile gid="5545"/>
   <tile gid="5544"/>
   <tile gid="5545"/>
   <tile gid="5544"/>
   <tile gid="5545"/>
   <tile gid="5544"/>
   <tile gid="5545"/>
   <tile gid="5544"/>
   <tile gid="5545"/>
   <tile gid="5802"/>
   <tile gid="5803"/>
   <tile gid="5804"/>
   <tile gid="5805"/>
   <tile gid="5806"/>
   <tile gid="5807"/>
   <tile gid="5544"/>
   <tile gid="5545"/>
   <tile gid="5544"/>
   <tile gid="5545"/>
   <tile gid="5544"/>
   <tile gid="5545"/>
   <tile gid="5544"/>
   <tile gid="5545"/>
   <tile gid="5544"/>
   <tile gid="5545"/>
   <tile gid="5544"/>
   <tile gid="5545"/>
   <tile gid="5544"/>
   <tile gid="5545"/>
   <tile gid="5544"/>
   <tile gid="5545"/>
   <tile gid="5544"/>
   <tile gid="5545"/>
   <tile gid="5544"/>
   <tile gid="5545"/>
   <tile gid="5544"/>
   <tile gid="5545"/>
   <tile gid="5544"/>
   <tile gid="5545"/>
   <tile gid="5544"/>
   <tile gid="5545"/>
   <tile gid="5544"/>
   <tile gid="5545"/>
   <tile gid="5544"/>
   <tile gid="5545"/>
   <tile gid="5544"/>
   <tile gid="5545"/>
   <tile gid="5544"/>
   <tile gid="5545"/>
   <tile gid="5544"/>
   <tile gid="5545"/>
   <tile gid="5544"/>
   <tile gid="5545"/>
   <tile gid="5544"/>
   <tile/>
   <tile/>
   <tile/>
   <tile/>
   <tile/>
   <tile gid="3026"/>
   <tile/>
   <tile/>
   <tile/>
   <tile/>
   <tile gid="5609"/>
   <tile gid="5608"/>
   <tile gid="5609"/>
   <tile gid="5608"/>
   <tile gid="5609"/>
   <tile gid="5608"/>
   <tile gid="5609"/>
   <tile gid="5608"/>
   <tile gid="5609"/>
   <tile gid="5608"/>
   <tile gid="5609"/>
   <tile gid="5608"/>
   <tile gid="5609"/>
   <tile gid="5608"/>
   <tile gid="5609"/>
   <tile gid="5608"/>
   <tile gid="5609"/>
   <tile gid="5608"/>
   <tile gid="5609"/>
   <tile gid="5608"/>
   <tile gid="5609"/>
   <tile gid="5608"/>
   <tile gid="5609"/>
   <tile gid="5608"/>
   <tile gid="5609"/>
   <tile gid="5608"/>
   <tile gid="5609"/>
   <tile gid="5608"/>
   <tile gid="5609"/>
   <tile gid="5608"/>
   <tile gid="5609"/>
   <tile gid="5608"/>
   <tile gid="5609"/>
   <tile gid="5608"/>
   <tile gid="5609"/>
   <tile gid="5608"/>
   <tile gid="5609"/>
   <tile gid="5608"/>
   <tile gid="5609"/>
   <tile gid="5866"/>
   <tile gid="5867"/>
   <tile gid="5868"/>
   <tile gid="5869"/>
   <tile gid="5870"/>
   <tile gid="5871"/>
   <tile gid="5608"/>
   <tile gid="5609"/>
   <tile gid="5608"/>
   <tile gid="5609"/>
   <tile gid="5608"/>
   <tile gid="5609"/>
   <tile gid="5608"/>
   <tile gid="5609"/>
   <tile gid="5608"/>
   <tile gid="5609"/>
   <tile gid="5608"/>
   <tile gid="5609"/>
   <tile gid="5608"/>
   <tile gid="5609"/>
   <tile gid="5608"/>
   <tile gid="5609"/>
   <tile gid="5608"/>
   <tile gid="5609"/>
   <tile gid="5608"/>
   <tile gid="5609"/>
   <tile gid="5866"/>
   <tile gid="5867"/>
   <tile gid="5868"/>
   <tile gid="5869"/>
   <tile gid="5870"/>
   <tile gid="5871"/>
   <tile gid="5608"/>
   <tile gid="5609"/>
   <tile gid="5608"/>
   <tile gid="5609"/>
   <tile gid="5608"/>
   <tile gid="5609"/>
   <tile gid="5608"/>
   <tile gid="5609"/>
   <tile gid="5608"/>
   <tile gid="5609"/>
   <tile gid="5608"/>
   <tile gid="5609"/>
   <tile gid="5608"/>
   <tile gid="5609"/>
   <tile gid="5608"/>
   <tile gid="5609"/>
   <tile gid="5608"/>
   <tile gid="5609"/>
   <tile gid="5608"/>
   <tile gid="5609"/>
   <tile gid="5608"/>
   <tile gid="5609"/>
   <tile gid="5608"/>
   <tile gid="5609"/>
   <tile gid="5608"/>
   <tile gid="5609"/>
   <tile gid="5608"/>
   <tile gid="5609"/>
   <tile gid="5608"/>
   <tile gid="5609"/>
   <tile gid="5608"/>
   <tile gid="5609"/>
   <tile gid="5608"/>
   <tile gid="5609"/>
   <tile gid="5608"/>
   <tile gid="5609"/>
   <tile gid="5608"/>
   <tile gid="5609"/>
   <tile gid="5608"/>
   <tile/>
   <tile/>
   <tile/>
   <tile/>
   <tile/>
   <tile gid="3026"/>
   <tile/>
   <tile/>
   <tile/>
   <tile/>
   <tile gid="5545"/>
   <tile gid="5544"/>
   <tile gid="5545"/>
   <tile gid="5544"/>
   <tile gid="5545"/>
   <tile gid="5544"/>
   <tile gid="5545"/>
   <tile gid="5544"/>
   <tile gid="5545"/>
   <tile gid="5544"/>
   <tile gid="5545"/>
   <tile gid="5544"/>
   <tile gid="5545"/>
   <tile gid="5544"/>
   <tile gid="5545"/>
   <tile gid="5544"/>
   <tile gid="5545"/>
   <tile gid="5544"/>
   <tile gid="5545"/>
   <tile gid="5544"/>
   <tile gid="5545"/>
   <tile gid="5544"/>
   <tile gid="5545"/>
   <tile gid="5544"/>
   <tile gid="5545"/>
   <tile gid="5544"/>
   <tile gid="5545"/>
   <tile gid="5544"/>
   <tile gid="5545"/>
   <tile gid="5544"/>
   <tile gid="5545"/>
   <tile gid="5544"/>
   <tile gid="5545"/>
   <tile gid="5544"/>
   <tile gid="5545"/>
   <tile gid="5544"/>
   <tile gid="5545"/>
   <tile gid="5544"/>
   <tile gid="5545"/>
   <tile gid="5930"/>
   <tile gid="5931"/>
   <tile gid="5932"/>
   <tile gid="5933"/>
   <tile gid="5934"/>
   <tile gid="5935"/>
   <tile gid="5544"/>
   <tile gid="5545"/>
   <tile gid="5544"/>
   <tile/>
   <tile/>
   <tile/>
   <tile/>
   <tile/>
   <tile/>
   <tile/>
   <tile/>
   <tile/>
   <tile gid="5544"/>
   <tile gid="5545"/>
   <tile gid="5544"/>
   <tile gid="5545"/>
   <tile gid="5544"/>
   <tile gid="5545"/>
   <tile gid="5544"/>
   <tile gid="5545"/>
   <tile gid="5930"/>
   <tile gid="5931"/>
   <tile gid="5932"/>
   <tile gid="5933"/>
   <tile gid="5934"/>
   <tile gid="5935"/>
   <tile gid="5544"/>
   <tile gid="5545"/>
   <tile gid="5544"/>
   <tile gid="5545"/>
   <tile gid="5544"/>
   <tile gid="5545"/>
   <tile gid="5544"/>
   <tile gid="5545"/>
   <tile gid="5544"/>
   <tile gid="5545"/>
   <tile gid="5544"/>
   <tile gid="5545"/>
   <tile gid="5544"/>
   <tile gid="5545"/>
   <tile gid="5544"/>
   <tile gid="5545"/>
   <tile gid="5544"/>
   <tile gid="5545"/>
   <tile gid="5544"/>
   <tile gid="5545"/>
   <tile gid="5544"/>
   <tile gid="5545"/>
   <tile gid="5544"/>
   <tile gid="5545"/>
   <tile gid="5544"/>
   <tile gid="5545"/>
   <tile gid="5544"/>
   <tile gid="5545"/>
   <tile gid="5544"/>
   <tile gid="5545"/>
   <tile gid="5544"/>
   <tile gid="5545"/>
   <tile gid="5544"/>
   <tile gid="5545"/>
   <tile gid="5544"/>
   <tile gid="5545"/>
   <tile gid="5544"/>
   <tile gid="5545"/>
   <tile gid="5544"/>
   <tile/>
   <tile/>
   <tile/>
   <tile/>
   <tile/>
   <tile gid="3026"/>
   <tile/>
   <tile/>
   <tile/>
   <tile/>
   <tile gid="5609"/>
   <tile gid="5608"/>
   <tile gid="5609"/>
   <tile gid="5608"/>
   <tile gid="5609"/>
   <tile gid="5608"/>
   <tile gid="5609"/>
   <tile gid="5608"/>
   <tile gid="5609"/>
   <tile gid="5608"/>
   <tile gid="5609"/>
   <tile gid="5608"/>
   <tile gid="5609"/>
   <tile gid="5608"/>
   <tile gid="5609"/>
   <tile gid="5608"/>
   <tile gid="5609"/>
   <tile gid="5608"/>
   <tile gid="5609"/>
   <tile gid="5608"/>
   <tile gid="5609"/>
   <tile gid="5608"/>
   <tile gid="5609"/>
   <tile gid="5608"/>
   <tile gid="5609"/>
   <tile gid="5608"/>
   <tile gid="5609"/>
   <tile gid="5608"/>
   <tile gid="5609"/>
   <tile gid="5608"/>
   <tile gid="5609"/>
   <tile gid="5608"/>
   <tile gid="5609"/>
   <tile gid="5608"/>
   <tile gid="5609"/>
   <tile gid="5608"/>
   <tile gid="5609"/>
   <tile gid="5608"/>
   <tile gid="5609"/>
   <tile gid="5994"/>
   <tile gid="5995"/>
   <tile gid="5996"/>
   <tile gid="5997"/>
   <tile gid="5998"/>
   <tile gid="5999"/>
   <tile gid="5608"/>
   <tile gid="5609"/>
   <tile gid="5608"/>
   <tile/>
   <tile/>
   <tile/>
   <tile/>
   <tile/>
   <tile/>
   <tile/>
   <tile/>
   <tile/>
   <tile gid="5608"/>
   <tile gid="5609"/>
   <tile gid="5608"/>
   <tile gid="5609"/>
   <tile gid="5608"/>
   <tile gid="5609"/>
   <tile gid="5608"/>
   <tile gid="5609"/>
   <tile gid="5994"/>
   <tile gid="5995"/>
   <tile gid="5996"/>
   <tile gid="5997"/>
   <tile gid="5998"/>
   <tile gid="5999"/>
   <tile gid="5608"/>
   <tile gid="5609"/>
   <tile gid="5608"/>
   <tile gid="5609"/>
   <tile gid="5608"/>
   <tile gid="5609"/>
   <tile gid="5608"/>
   <tile gid="5609"/>
   <tile gid="5608"/>
   <tile gid="5609"/>
   <tile gid="5608"/>
   <tile gid="5609"/>
   <tile gid="5608"/>
   <tile gid="5609"/>
   <tile gid="5608"/>
   <tile gid="5609"/>
   <tile gid="5608"/>
   <tile gid="5609"/>
   <tile gid="5608"/>
   <tile gid="5609"/>
   <tile gid="5608"/>
   <tile gid="5609"/>
   <tile gid="5608"/>
   <tile gid="5609"/>
   <tile gid="5608"/>
   <tile gid="5609"/>
   <tile gid="5608"/>
   <tile gid="5609"/>
   <tile gid="5608"/>
   <tile gid="5609"/>
   <tile gid="5608"/>
   <tile gid="5609"/>
   <tile gid="5608"/>
   <tile gid="5609"/>
   <tile gid="5608"/>
   <tile gid="5609"/>
   <tile gid="5608"/>
   <tile gid="5609"/>
   <tile gid="5608"/>
   <tile/>
   <tile/>
   <tile/>
   <tile/>
   <tile/>
   <tile gid="5544"/>
   <tile gid="5545"/>
   <tile gid="5544"/>
   <tile gid="5545"/>
   <tile gid="5544"/>
   <tile gid="5545"/>
   <tile gid="5544"/>
   <tile gid="5545"/>
   <tile gid="5544"/>
   <tile gid="5545"/>
   <tile gid="5544"/>
   <tile gid="5545"/>
   <tile gid="5544"/>
   <tile gid="5545"/>
   <tile gid="5544"/>
   <tile gid="5545"/>
   <tile gid="5544"/>
   <tile gid="5545"/>
   <tile gid="5544"/>
   <tile gid="5545"/>
   <tile gid="5544"/>
   <tile gid="5545"/>
   <tile gid="5544"/>
   <tile gid="5545"/>
   <tile gid="5544"/>
   <tile gid="5545"/>
   <tile gid="5544"/>
   <tile gid="5545"/>
   <tile gid="5544"/>
   <tile gid="5545"/>
   <tile gid="5544"/>
   <tile gid="5545"/>
   <tile gid="5544"/>
   <tile gid="5545"/>
   <tile gid="5544"/>
   <tile gid="5545"/>
   <tile gid="5544"/>
   <tile gid="5545"/>
   <tile gid="5544"/>
   <tile gid="5545"/>
   <tile gid="5544"/>
   <tile gid="5545"/>
   <tile gid="5544"/>
   <tile gid="5545"/>
   <tile gid="5544"/>
   <tile gid="5545"/>
   <tile gid="5544"/>
   <tile gid="5545"/>
   <tile gid="5544"/>
   <tile gid="5545"/>
   <tile gid="5544"/>
   <tile gid="5545"/>
   <tile gid="5544"/>
   <tile/>
   <tile/>
   <tile/>
   <tile/>
   <tile/>
   <tile/>
   <tile/>
   <tile/>
   <tile/>
   <tile/>
   <tile gid="5545"/>
   <tile gid="5544"/>
   <tile gid="5545"/>
   <tile gid="5544"/>
   <tile gid="5545"/>
   <tile gid="5544"/>
   <tile gid="5545"/>
   <tile gid="5544"/>
   <tile gid="5545"/>
   <tile gid="5544"/>
   <tile gid="5545"/>
   <tile gid="5544"/>
   <tile gid="5545"/>
   <tile gid="5544"/>
   <tile gid="5545"/>
   <tile gid="5544"/>
   <tile gid="5545"/>
   <tile gid="5544"/>
   <tile gid="5545"/>
   <tile gid="5544"/>
   <tile gid="5545"/>
   <tile gid="5544"/>
   <tile gid="5545"/>
   <tile gid="5544"/>
   <tile gid="5545"/>
   <tile gid="5544"/>
   <tile gid="5545"/>
   <tile gid="5544"/>
   <tile gid="5545"/>
   <tile gid="5544"/>
   <tile gid="5545"/>
   <tile gid="5544"/>
   <tile gid="5545"/>
   <tile gid="5544"/>
   <tile gid="5545"/>
   <tile gid="5544"/>
   <tile gid="5545"/>
   <tile gid="5544"/>
   <tile gid="5545"/>
   <tile gid="5544"/>
   <tile gid="5545"/>
   <tile gid="5544"/>
   <tile gid="5545"/>
   <tile gid="5544"/>
   <tile gid="5545"/>
   <tile gid="5544"/>
   <tile gid="5545"/>
   <tile gid="5544"/>
   <tile gid="5545"/>
   <tile gid="5544"/>
   <tile gid="5545"/>
   <tile gid="5544"/>
   <tile gid="5545"/>
   <tile gid="5544"/>
   <tile gid="5545"/>
   <tile gid="5544"/>
   <tile gid="5545"/>
   <tile gid="5608"/>
   <tile gid="5609"/>
   <tile gid="5608"/>
   <tile gid="5609"/>
   <tile gid="5608"/>
   <tile gid="5609"/>
   <tile gid="5608"/>
   <tile gid="5609"/>
   <tile gid="5608"/>
   <tile gid="5609"/>
   <tile gid="5608"/>
   <tile gid="5609"/>
   <tile gid="5608"/>
   <tile gid="5609"/>
   <tile gid="5608"/>
   <tile gid="5609"/>
   <tile gid="5608"/>
   <tile gid="5609"/>
   <tile gid="5608"/>
   <tile gid="5609"/>
   <tile gid="5608"/>
   <tile gid="5609"/>
   <tile gid="5608"/>
   <tile gid="5609"/>
   <tile gid="5608"/>
   <tile gid="5609"/>
   <tile gid="5608"/>
   <tile gid="5609"/>
   <tile gid="5608"/>
   <tile gid="5609"/>
   <tile gid="5608"/>
   <tile gid="5609"/>
   <tile gid="5608"/>
   <tile gid="5609"/>
   <tile gid="5608"/>
   <tile gid="5609"/>
   <tile gid="5608"/>
   <tile gid="5609"/>
   <tile gid="5608"/>
   <tile gid="5609"/>
   <tile gid="5608"/>
   <tile gid="5609"/>
   <tile gid="5608"/>
   <tile gid="5609"/>
   <tile gid="5608"/>
   <tile gid="5609"/>
   <tile gid="5608"/>
   <tile gid="5609"/>
   <tile gid="5608"/>
   <tile gid="5609"/>
   <tile gid="5608"/>
   <tile gid="5609"/>
   <tile gid="5608"/>
   <tile/>
   <tile/>
   <tile/>
   <tile/>
   <tile/>
   <tile/>
   <tile/>
   <tile/>
   <tile/>
   <tile/>
   <tile/>
   <tile gid="5608"/>
   <tile gid="5609"/>
   <tile gid="5608"/>
   <tile gid="5609"/>
   <tile gid="5608"/>
   <tile gid="5609"/>
   <tile gid="5608"/>
   <tile gid="5609"/>
   <tile gid="5608"/>
   <tile gid="5609"/>
   <tile gid="5608"/>
   <tile gid="5609"/>
   <tile gid="5608"/>
   <tile gid="5609"/>
   <tile gid="5608"/>
   <tile gid="5609"/>
   <tile gid="5608"/>
   <tile gid="5609"/>
   <tile gid="5608"/>
   <tile gid="5609"/>
   <tile gid="5608"/>
   <tile gid="5609"/>
   <tile gid="5608"/>
   <tile gid="5609"/>
   <tile gid="5608"/>
   <tile gid="5609"/>
   <tile gid="5608"/>
   <tile gid="5609"/>
   <tile gid="5608"/>
   <tile gid="5609"/>
   <tile gid="5608"/>
   <tile gid="5609"/>
   <tile gid="5608"/>
   <tile gid="5609"/>
   <tile gid="5608"/>
   <tile gid="5609"/>
   <tile gid="5608"/>
   <tile gid="5609"/>
   <tile gid="5608"/>
   <tile gid="5609"/>
   <tile gid="5608"/>
   <tile gid="5609"/>
   <tile gid="5608"/>
   <tile gid="5609"/>
   <tile gid="5608"/>
   <tile gid="5609"/>
   <tile gid="5608"/>
   <tile gid="5609"/>
   <tile gid="5608"/>
   <tile gid="5609"/>
   <tile gid="5608"/>
   <tile gid="5609"/>
   <tile gid="5608"/>
   <tile gid="5609"/>
   <tile gid="5608"/>
   <tile gid="5609"/>
   <tile gid="5544"/>
   <tile gid="5545"/>
   <tile gid="5544"/>
   <tile gid="5545"/>
   <tile gid="5544"/>
   <tile gid="5545"/>
   <tile gid="5544"/>
   <tile gid="5545"/>
   <tile gid="5544"/>
   <tile gid="5545"/>
   <tile gid="5544"/>
   <tile gid="5545"/>
   <tile gid="5544"/>
   <tile gid="5545"/>
   <tile gid="5544"/>
   <tile gid="5545"/>
   <tile gid="5544"/>
   <tile gid="5545"/>
   <tile gid="5544"/>
   <tile gid="5545"/>
   <tile gid="5544"/>
   <tile gid="5545"/>
   <tile gid="5544"/>
   <tile gid="5545"/>
   <tile gid="5544"/>
   <tile gid="5545"/>
   <tile gid="5544"/>
   <tile gid="5545"/>
   <tile gid="5544"/>
   <tile gid="5545"/>
   <tile gid="5544"/>
   <tile gid="5545"/>
   <tile gid="5544"/>
   <tile gid="5545"/>
   <tile gid="5544"/>
   <tile gid="5545"/>
   <tile gid="5544"/>
   <tile gid="5545"/>
   <tile gid="5544"/>
   <tile gid="5545"/>
   <tile gid="5544"/>
   <tile gid="5545"/>
   <tile gid="5544"/>
   <tile gid="5545"/>
   <tile gid="5544"/>
   <tile gid="5545"/>
   <tile gid="5544"/>
   <tile gid="5545"/>
   <tile gid="5544"/>
   <tile gid="5545"/>
   <tile gid="5544"/>
   <tile gid="5545"/>
   <tile gid="5544"/>
   <tile/>
   <tile/>
   <tile/>
   <tile/>
   <tile/>
   <tile/>
   <tile/>
   <tile/>
   <tile/>
   <tile/>
   <tile/>
   <tile gid="5544"/>
   <tile gid="5545"/>
   <tile gid="5544"/>
   <tile gid="5545"/>
   <tile gid="5544"/>
   <tile gid="5545"/>
   <tile gid="5544"/>
   <tile gid="5545"/>
   <tile gid="5544"/>
   <tile gid="5545"/>
   <tile gid="5544"/>
   <tile gid="5545"/>
   <tile gid="5544"/>
   <tile gid="5545"/>
   <tile gid="5544"/>
   <tile gid="5545"/>
   <tile gid="5544"/>
   <tile gid="5545"/>
   <tile gid="5544"/>
   <tile gid="5545"/>
   <tile gid="5544"/>
   <tile gid="5545"/>
   <tile gid="5544"/>
   <tile gid="5545"/>
   <tile gid="5544"/>
   <tile gid="5545"/>
   <tile gid="5544"/>
   <tile gid="5545"/>
   <tile gid="5544"/>
   <tile gid="5545"/>
   <tile gid="5544"/>
   <tile gid="5545"/>
   <tile gid="5544"/>
   <tile gid="5545"/>
   <tile gid="5544"/>
   <tile gid="5545"/>
   <tile gid="5544"/>
   <tile gid="5545"/>
   <tile gid="5544"/>
   <tile gid="5545"/>
   <tile gid="5544"/>
   <tile gid="5545"/>
   <tile gid="5544"/>
   <tile gid="5545"/>
   <tile gid="5544"/>
   <tile gid="5545"/>
   <tile gid="5544"/>
   <tile gid="5545"/>
   <tile gid="5544"/>
   <tile gid="5545"/>
   <tile gid="5544"/>
   <tile gid="5545"/>
   <tile gid="5544"/>
   <tile gid="5545"/>
   <tile gid="5544"/>
   <tile gid="5545"/>
   <tile gid="5608"/>
   <tile gid="5609"/>
   <tile gid="5608"/>
   <tile gid="5609"/>
   <tile gid="5608"/>
   <tile gid="5609"/>
   <tile gid="5608"/>
   <tile gid="5609"/>
   <tile gid="5608"/>
   <tile gid="5609"/>
   <tile gid="5608"/>
   <tile gid="5609"/>
   <tile gid="5608"/>
   <tile gid="5609"/>
   <tile gid="5608"/>
   <tile gid="5609"/>
   <tile gid="5608"/>
   <tile gid="5609"/>
   <tile gid="5608"/>
   <tile gid="5609"/>
   <tile gid="5608"/>
   <tile gid="5609"/>
   <tile gid="5608"/>
   <tile gid="5609"/>
   <tile gid="5608"/>
   <tile gid="5609"/>
   <tile gid="5608"/>
   <tile gid="5609"/>
   <tile gid="5608"/>
   <tile gid="5609"/>
   <tile gid="5608"/>
   <tile gid="5609"/>
   <tile gid="5608"/>
   <tile gid="5609"/>
   <tile gid="5608"/>
   <tile gid="5609"/>
   <tile gid="5608"/>
   <tile gid="5609"/>
   <tile gid="5608"/>
   <tile gid="5609"/>
   <tile gid="5608"/>
   <tile gid="5609"/>
   <tile gid="5608"/>
   <tile gid="5609"/>
   <tile gid="5608"/>
   <tile gid="5609"/>
   <tile gid="5608"/>
   <tile gid="5609"/>
   <tile gid="5608"/>
   <tile gid="5609"/>
   <tile gid="5608"/>
   <tile gid="5609"/>
   <tile gid="5608"/>
   <tile gid="5609"/>
   <tile gid="5608"/>
   <tile gid="5609"/>
   <tile/>
   <tile/>
   <tile/>
   <tile/>
   <tile/>
   <tile/>
   <tile/>
   <tile/>
   <tile gid="3026"/>
   <tile/>
   <tile/>
   <tile/>
   <tile gid="3026"/>
   <tile gid="5609"/>
   <tile gid="5608"/>
   <tile gid="5609"/>
   <tile gid="5608"/>
   <tile gid="5609"/>
   <tile gid="5608"/>
   <tile gid="5609"/>
   <tile gid="5608"/>
   <tile gid="5609"/>
   <tile gid="5608"/>
   <tile gid="5609"/>
   <tile gid="5608"/>
   <tile gid="5609"/>
   <tile gid="5608"/>
   <tile gid="5609"/>
   <tile gid="5608"/>
   <tile gid="5609"/>
   <tile gid="5608"/>
   <tile gid="5609"/>
   <tile gid="5608"/>
   <tile gid="5609"/>
   <tile gid="5608"/>
   <tile gid="5609"/>
   <tile gid="5608"/>
   <tile gid="5609"/>
   <tile gid="5608"/>
   <tile gid="5609"/>
   <tile gid="5608"/>
   <tile gid="5609"/>
   <tile gid="5608"/>
   <tile gid="5609"/>
   <tile gid="5608"/>
   <tile gid="5609"/>
   <tile gid="5608"/>
   <tile gid="5609"/>
   <tile gid="5608"/>
   <tile gid="5609"/>
   <tile gid="5608"/>
   <tile gid="5609"/>
   <tile gid="5608"/>
   <tile gid="5609"/>
   <tile gid="5608"/>
   <tile gid="5609"/>
   <tile gid="5608"/>
   <tile gid="5609"/>
   <tile gid="5608"/>
   <tile gid="5609"/>
   <tile gid="5608"/>
   <tile gid="5609"/>
   <tile gid="5608"/>
   <tile gid="5609"/>
   <tile gid="5544"/>
   <tile gid="5545"/>
   <tile gid="5544"/>
   <tile gid="5545"/>
   <tile gid="5544"/>
   <tile gid="5545"/>
   <tile gid="5544"/>
   <tile gid="5545"/>
   <tile gid="5544"/>
   <tile gid="5545"/>
   <tile gid="5544"/>
   <tile gid="5545"/>
   <tile gid="5544"/>
   <tile gid="5545"/>
   <tile gid="5544"/>
   <tile gid="5545"/>
   <tile gid="5544"/>
   <tile gid="5545"/>
   <tile gid="5544"/>
   <tile gid="5545"/>
   <tile gid="5544"/>
   <tile gid="5545"/>
   <tile gid="5544"/>
   <tile gid="5545"/>
   <tile gid="5544"/>
   <tile gid="5545"/>
   <tile gid="5544"/>
   <tile gid="5545"/>
   <tile gid="5544"/>
   <tile gid="5545"/>
   <tile gid="5544"/>
   <tile gid="5545"/>
   <tile gid="5544"/>
   <tile gid="5545"/>
   <tile gid="5544"/>
   <tile gid="5545"/>
   <tile gid="5544"/>
   <tile gid="5545"/>
   <tile gid="5674"/>
   <tile gid="5675"/>
   <tile gid="5676"/>
   <tile gid="5677"/>
   <tile gid="5678"/>
   <tile gid="5679"/>
   <tile gid="5544"/>
   <tile gid="5545"/>
   <tile gid="5544"/>
   <tile gid="5545"/>
   <tile gid="5544"/>
   <tile gid="5545"/>
   <tile gid="5544"/>
   <tile gid="5545"/>
   <tile gid="5544"/>
   <tile gid="5545"/>
   <tile gid="5544"/>
   <tile gid="5545"/>
   <tile/>
   <tile/>
   <tile/>
   <tile/>
   <tile/>
   <tile/>
   <tile/>
   <tile/>
   <tile/>
   <tile/>
   <tile/>
   <tile/>
   <tile gid="3026"/>
   <tile gid="5545"/>
   <tile gid="5544"/>
   <tile gid="5545"/>
   <tile gid="5544"/>
   <tile gid="5545"/>
   <tile gid="5544"/>
   <tile gid="5545"/>
   <tile gid="5544"/>
   <tile gid="5674"/>
   <tile gid="5675"/>
   <tile gid="5676"/>
   <tile gid="5677"/>
   <tile gid="5678"/>
   <tile gid="5679"/>
   <tile gid="5545"/>
   <tile gid="5544"/>
   <tile gid="5545"/>
   <tile gid="5544"/>
   <tile gid="5545"/>
   <tile gid="5544"/>
   <tile gid="5545"/>
   <tile gid="5544"/>
   <tile gid="5545"/>
   <tile gid="5544"/>
   <tile gid="5545"/>
   <tile gid="5544"/>
   <tile gid="5545"/>
   <tile gid="5544"/>
   <tile gid="5545"/>
   <tile gid="5544"/>
   <tile gid="5545"/>
   <tile gid="5544"/>
   <tile gid="5545"/>
   <tile gid="5544"/>
   <tile gid="5545"/>
   <tile gid="5544"/>
   <tile gid="5545"/>
   <tile gid="5544"/>
   <tile gid="5545"/>
   <tile gid="5544"/>
   <tile gid="5545"/>
   <tile gid="5544"/>
   <tile gid="5545"/>
   <tile gid="5544"/>
   <tile gid="5545"/>
   <tile gid="5544"/>
   <tile gid="5545"/>
   <tile gid="5544"/>
   <tile gid="5545"/>
   <tile gid="5544"/>
   <tile gid="5545"/>
   <tile gid="5608"/>
   <tile gid="5609"/>
   <tile gid="5608"/>
   <tile gid="5609"/>
   <tile gid="5608"/>
   <tile gid="5609"/>
   <tile gid="5608"/>
   <tile gid="5609"/>
   <tile gid="5608"/>
   <tile gid="5609"/>
   <tile gid="5608"/>
   <tile gid="5609"/>
   <tile gid="5608"/>
   <tile gid="5609"/>
   <tile gid="5608"/>
   <tile gid="5609"/>
   <tile gid="5608"/>
   <tile gid="5609"/>
   <tile gid="5608"/>
   <tile gid="5609"/>
   <tile gid="5608"/>
   <tile gid="5609"/>
   <tile gid="5608"/>
   <tile gid="5609"/>
   <tile gid="5608"/>
   <tile gid="5609"/>
   <tile gid="5608"/>
   <tile gid="5609"/>
   <tile gid="5608"/>
   <tile gid="5609"/>
   <tile gid="5608"/>
   <tile gid="5609"/>
   <tile gid="5608"/>
   <tile gid="5609"/>
   <tile gid="5608"/>
   <tile gid="5609"/>
   <tile gid="5608"/>
   <tile gid="5609"/>
   <tile gid="5738"/>
   <tile gid="5739"/>
   <tile gid="5740"/>
   <tile gid="5741"/>
   <tile gid="5742"/>
   <tile gid="5743"/>
   <tile gid="5608"/>
   <tile gid="5609"/>
   <tile gid="5608"/>
   <tile gid="5609"/>
   <tile gid="5608"/>
   <tile gid="5609"/>
   <tile gid="5608"/>
   <tile gid="5609"/>
   <tile gid="5608"/>
   <tile gid="5609"/>
   <tile gid="5608"/>
   <tile gid="5609"/>
   <tile/>
   <tile/>
   <tile/>
   <tile/>
   <tile/>
   <tile/>
   <tile/>
   <tile/>
   <tile/>
   <tile/>
   <tile/>
   <tile/>
   <tile gid="3026"/>
   <tile gid="5609"/>
   <tile gid="5608"/>
   <tile gid="5609"/>
   <tile gid="5608"/>
   <tile gid="5609"/>
   <tile gid="5608"/>
   <tile gid="5609"/>
   <tile gid="5608"/>
   <tile gid="5738"/>
   <tile gid="5739"/>
   <tile gid="5740"/>
   <tile gid="5741"/>
   <tile gid="5742"/>
   <tile gid="5743"/>
   <tile gid="5609"/>
   <tile gid="5608"/>
   <tile gid="5609"/>
   <tile gid="5608"/>
   <tile gid="5609"/>
   <tile gid="5608"/>
   <tile gid="5609"/>
   <tile gid="5608"/>
   <tile gid="5609"/>
   <tile gid="5608"/>
   <tile gid="5609"/>
   <tile gid="5608"/>
   <tile gid="5609"/>
   <tile gid="5608"/>
   <tile gid="5609"/>
   <tile gid="5608"/>
   <tile gid="5609"/>
   <tile gid="5608"/>
   <tile gid="5609"/>
   <tile gid="5608"/>
   <tile gid="5609"/>
   <tile gid="5608"/>
   <tile gid="5609"/>
   <tile gid="5608"/>
   <tile gid="5609"/>
   <tile gid="5608"/>
   <tile gid="5609"/>
   <tile gid="5608"/>
   <tile gid="5609"/>
   <tile gid="5608"/>
   <tile gid="5609"/>
   <tile gid="5608"/>
   <tile gid="5609"/>
   <tile gid="5608"/>
   <tile gid="5609"/>
   <tile gid="5608"/>
   <tile gid="5609"/>
   <tile gid="5544"/>
   <tile gid="5545"/>
   <tile gid="5544"/>
   <tile gid="5545"/>
   <tile gid="5544"/>
   <tile gid="5545"/>
   <tile gid="5544"/>
   <tile gid="5545"/>
   <tile gid="5544"/>
   <tile gid="5545"/>
   <tile gid="5544"/>
   <tile gid="5545"/>
   <tile gid="5544"/>
   <tile gid="5545"/>
   <tile gid="5544"/>
   <tile gid="5545"/>
   <tile gid="5544"/>
   <tile gid="5545"/>
   <tile gid="5544"/>
   <tile gid="5545"/>
   <tile gid="5544"/>
   <tile gid="5545"/>
   <tile gid="5544"/>
   <tile gid="5545"/>
   <tile gid="5544"/>
   <tile gid="5545"/>
   <tile gid="5544"/>
   <tile gid="5545"/>
   <tile gid="5544"/>
   <tile gid="5545"/>
   <tile gid="5544"/>
   <tile gid="5545"/>
   <tile gid="5544"/>
   <tile gid="5545"/>
   <tile gid="5544"/>
   <tile gid="5545"/>
   <tile gid="5544"/>
   <tile gid="5545"/>
   <tile gid="5802"/>
   <tile gid="5803"/>
   <tile gid="5804"/>
   <tile gid="5805"/>
   <tile gid="5806"/>
   <tile gid="5807"/>
   <tile gid="5544"/>
   <tile gid="5545"/>
   <tile gid="5544"/>
   <tile gid="5545"/>
   <tile gid="5544"/>
   <tile gid="5545"/>
   <tile gid="5544"/>
   <tile gid="5545"/>
   <tile gid="5544"/>
   <tile gid="5545"/>
   <tile gid="5544"/>
   <tile gid="5545"/>
   <tile/>
   <tile/>
   <tile/>
   <tile/>
   <tile/>
   <tile/>
   <tile/>
   <tile/>
   <tile/>
   <tile/>
   <tile/>
   <tile/>
   <tile gid="3026"/>
   <tile gid="5545"/>
   <tile gid="5544"/>
   <tile gid="5545"/>
   <tile gid="5544"/>
   <tile gid="5545"/>
   <tile gid="5544"/>
   <tile gid="5545"/>
   <tile gid="5544"/>
   <tile gid="5802"/>
   <tile gid="5803"/>
   <tile gid="5804"/>
   <tile gid="5805"/>
   <tile gid="5806"/>
   <tile gid="5807"/>
   <tile gid="5545"/>
   <tile gid="5544"/>
   <tile gid="5545"/>
   <tile gid="5544"/>
   <tile gid="5545"/>
   <tile gid="5544"/>
   <tile gid="5545"/>
   <tile gid="5544"/>
   <tile gid="5545"/>
   <tile gid="5544"/>
   <tile gid="5545"/>
   <tile gid="5544"/>
   <tile gid="5545"/>
   <tile gid="5544"/>
   <tile gid="5545"/>
   <tile gid="5544"/>
   <tile gid="5545"/>
   <tile gid="5544"/>
   <tile gid="5545"/>
   <tile gid="5544"/>
   <tile gid="5545"/>
   <tile gid="5544"/>
   <tile gid="5545"/>
   <tile gid="5544"/>
   <tile gid="5545"/>
   <tile gid="5544"/>
   <tile gid="5545"/>
   <tile gid="5544"/>
   <tile gid="5545"/>
   <tile gid="5544"/>
   <tile gid="5545"/>
   <tile gid="5544"/>
   <tile gid="5545"/>
   <tile gid="5544"/>
   <tile gid="5545"/>
   <tile gid="5544"/>
   <tile gid="5545"/>
   <tile gid="5608"/>
   <tile gid="5609"/>
   <tile gid="5608"/>
   <tile gid="5609"/>
   <tile gid="5608"/>
   <tile gid="5609"/>
   <tile gid="5608"/>
   <tile gid="5609"/>
   <tile gid="5608"/>
   <tile gid="5609"/>
   <tile gid="5608"/>
   <tile gid="5609"/>
   <tile gid="5608"/>
   <tile gid="5609"/>
   <tile gid="5608"/>
   <tile gid="5609"/>
   <tile gid="5608"/>
   <tile gid="5609"/>
   <tile gid="5608"/>
   <tile gid="5609"/>
   <tile gid="5608"/>
   <tile gid="5609"/>
   <tile gid="5608"/>
   <tile gid="5609"/>
   <tile gid="5608"/>
   <tile gid="5609"/>
   <tile gid="5608"/>
   <tile gid="5609"/>
   <tile gid="5608"/>
   <tile gid="5609"/>
   <tile gid="5608"/>
   <tile gid="5609"/>
   <tile gid="5608"/>
   <tile gid="5609"/>
   <tile gid="5608"/>
   <tile gid="5609"/>
   <tile gid="5608"/>
   <tile gid="5609"/>
   <tile gid="5866"/>
   <tile gid="5867"/>
   <tile gid="5868"/>
   <tile gid="5869"/>
   <tile gid="5870"/>
   <tile gid="5871"/>
   <tile gid="5608"/>
   <tile gid="5609"/>
   <tile gid="5608"/>
   <tile gid="5609"/>
   <tile gid="5608"/>
   <tile gid="5609"/>
   <tile gid="5608"/>
   <tile gid="5609"/>
   <tile gid="5608"/>
   <tile gid="5609"/>
   <tile gid="5608"/>
   <tile gid="5609"/>
   <tile gid="5608"/>
   <tile gid="5609"/>
   <tile gid="5608"/>
   <tile gid="3026"/>
   <tile gid="3026"/>
   <tile gid="3026"/>
   <tile gid="3026"/>
   <tile gid="3026"/>
   <tile/>
   <tile/>
   <tile/>
   <tile/>
   <tile/>
   <tile gid="5609"/>
   <tile gid="5608"/>
   <tile gid="5609"/>
   <tile gid="5608"/>
   <tile gid="5609"/>
   <tile gid="5608"/>
   <tile gid="5609"/>
   <tile gid="5608"/>
   <tile gid="5866"/>
   <tile gid="5867"/>
   <tile gid="5868"/>
   <tile gid="5869"/>
   <tile gid="5870"/>
   <tile gid="5871"/>
   <tile gid="5609"/>
   <tile gid="5608"/>
   <tile gid="5609"/>
   <tile gid="5608"/>
   <tile gid="5609"/>
   <tile gid="5608"/>
   <tile gid="5609"/>
   <tile gid="5608"/>
   <tile gid="5609"/>
   <tile gid="5608"/>
   <tile gid="5609"/>
   <tile gid="5608"/>
   <tile gid="5609"/>
   <tile gid="5608"/>
   <tile gid="5609"/>
   <tile gid="5608"/>
   <tile gid="5609"/>
   <tile gid="5608"/>
   <tile gid="5609"/>
   <tile gid="5608"/>
   <tile gid="5609"/>
   <tile gid="5608"/>
   <tile gid="5609"/>
   <tile gid="5608"/>
   <tile gid="5609"/>
   <tile gid="5608"/>
   <tile gid="5609"/>
   <tile gid="5608"/>
   <tile gid="5609"/>
   <tile gid="5608"/>
   <tile gid="5609"/>
   <tile gid="5608"/>
   <tile gid="5609"/>
   <tile gid="5608"/>
   <tile gid="5609"/>
   <tile gid="5608"/>
   <tile gid="5609"/>
   <tile gid="5544"/>
   <tile gid="5545"/>
   <tile gid="5544"/>
   <tile gid="5545"/>
   <tile gid="5544"/>
   <tile gid="5545"/>
   <tile gid="5544"/>
   <tile gid="5545"/>
   <tile gid="5544"/>
   <tile gid="5545"/>
   <tile gid="5544"/>
   <tile gid="5545"/>
   <tile gid="5544"/>
   <tile gid="5545"/>
   <tile gid="5544"/>
   <tile gid="5545"/>
   <tile gid="5544"/>
   <tile gid="5545"/>
   <tile gid="5544"/>
   <tile gid="5545"/>
   <tile gid="5544"/>
   <tile gid="5545"/>
   <tile gid="5544"/>
   <tile gid="5545"/>
   <tile gid="5544"/>
   <tile gid="5545"/>
   <tile gid="5544"/>
   <tile gid="5545"/>
   <tile gid="5544"/>
   <tile gid="5545"/>
   <tile gid="5544"/>
   <tile gid="5545"/>
   <tile gid="5544"/>
   <tile gid="5545"/>
   <tile gid="5544"/>
   <tile gid="5545"/>
   <tile gid="5544"/>
   <tile gid="5545"/>
   <tile gid="5930"/>
   <tile gid="5931"/>
   <tile gid="5932"/>
   <tile gid="5933"/>
   <tile gid="5934"/>
   <tile gid="5935"/>
   <tile gid="5544"/>
   <tile gid="5545"/>
   <tile gid="5544"/>
   <tile gid="5545"/>
   <tile gid="5544"/>
   <tile gid="5545"/>
   <tile gid="5544"/>
   <tile gid="5545"/>
   <tile gid="5544"/>
   <tile gid="5545"/>
   <tile gid="5544"/>
   <tile gid="5545"/>
   <tile gid="5544"/>
   <tile gid="5545"/>
   <tile gid="5544"/>
   <tile gid="5545"/>
   <tile gid="5544"/>
   <tile gid="5545"/>
   <tile gid="5544"/>
   <tile gid="5545"/>
   <tile/>
   <tile/>
   <tile/>
   <tile/>
   <tile/>
   <tile gid="5545"/>
   <tile gid="5544"/>
   <tile gid="5545"/>
   <tile gid="5544"/>
   <tile gid="5545"/>
   <tile gid="5544"/>
   <tile gid="5545"/>
   <tile gid="5544"/>
   <tile gid="5930"/>
   <tile gid="5931"/>
   <tile gid="5932"/>
   <tile gid="5933"/>
   <tile gid="5934"/>
   <tile gid="5935"/>
   <tile gid="5545"/>
   <tile gid="5544"/>
   <tile gid="5545"/>
   <tile gid="5544"/>
   <tile gid="5545"/>
   <tile gid="5544"/>
   <tile gid="5545"/>
   <tile gid="5544"/>
   <tile gid="5545"/>
   <tile gid="5544"/>
   <tile gid="5545"/>
   <tile gid="5544"/>
   <tile gid="5545"/>
   <tile gid="5544"/>
   <tile gid="5545"/>
   <tile gid="5544"/>
   <tile gid="5545"/>
   <tile gid="5544"/>
   <tile gid="5545"/>
   <tile gid="5544"/>
   <tile gid="5545"/>
   <tile gid="5544"/>
   <tile gid="5545"/>
   <tile gid="5544"/>
   <tile gid="5545"/>
   <tile gid="5544"/>
   <tile gid="5545"/>
   <tile gid="5544"/>
   <tile gid="5545"/>
   <tile gid="5544"/>
   <tile gid="5545"/>
   <tile gid="5544"/>
   <tile gid="5545"/>
   <tile gid="5544"/>
   <tile gid="5545"/>
   <tile gid="5544"/>
   <tile gid="5545"/>
   <tile gid="5608"/>
   <tile/>
   <tile/>
   <tile/>
   <tile gid="5608"/>
   <tile gid="5609"/>
   <tile gid="5608"/>
   <tile gid="5609"/>
   <tile gid="5608"/>
   <tile gid="5609"/>
   <tile gid="5608"/>
   <tile gid="5609"/>
   <tile gid="5608"/>
   <tile gid="5609"/>
   <tile gid="5608"/>
   <tile gid="5609"/>
   <tile gid="5608"/>
   <tile gid="5609"/>
   <tile gid="5608"/>
   <tile gid="5609"/>
   <tile gid="5608"/>
   <tile gid="5609"/>
   <tile gid="5608"/>
   <tile gid="5609"/>
   <tile gid="5608"/>
   <tile gid="5609"/>
   <tile gid="5608"/>
   <tile gid="5609"/>
   <tile gid="5608"/>
   <tile gid="5609"/>
   <tile gid="5608"/>
   <tile gid="5609"/>
   <tile gid="5608"/>
   <tile gid="5609"/>
   <tile gid="5608"/>
   <tile gid="5609"/>
   <tile gid="5608"/>
   <tile gid="5609"/>
   <tile gid="5994"/>
   <tile gid="5995"/>
   <tile gid="5996"/>
   <tile gid="5997"/>
   <tile gid="5998"/>
   <tile gid="5999"/>
   <tile gid="5608"/>
   <tile gid="5609"/>
   <tile gid="5608"/>
   <tile gid="5609"/>
   <tile gid="5608"/>
   <tile gid="5609"/>
   <tile gid="5608"/>
   <tile gid="5609"/>
   <tile gid="5608"/>
   <tile gid="5609"/>
   <tile gid="5608"/>
   <tile gid="5609"/>
   <tile gid="5608"/>
   <tile gid="5609"/>
   <tile gid="5608"/>
   <tile gid="5609"/>
   <tile gid="5608"/>
   <tile gid="5609"/>
   <tile gid="5608"/>
   <tile gid="5609"/>
   <tile gid="5608"/>
   <tile gid="5609"/>
   <tile gid="5608"/>
   <tile gid="5609"/>
   <tile gid="5608"/>
   <tile gid="5609"/>
   <tile gid="5608"/>
   <tile gid="5609"/>
   <tile gid="5608"/>
   <tile gid="5609"/>
   <tile gid="5608"/>
   <tile gid="5609"/>
   <tile gid="5608"/>
   <tile gid="5994"/>
   <tile gid="5995"/>
   <tile gid="5996"/>
   <tile gid="5997"/>
   <tile gid="5998"/>
   <tile gid="5999"/>
   <tile gid="5609"/>
   <tile gid="5608"/>
   <tile gid="5609"/>
   <tile gid="5608"/>
   <tile gid="5609"/>
   <tile gid="5608"/>
   <tile gid="5609"/>
   <tile gid="5608"/>
   <tile gid="5609"/>
   <tile gid="5608"/>
   <tile gid="5609"/>
   <tile gid="5608"/>
   <tile gid="5609"/>
   <tile gid="5608"/>
   <tile gid="5609"/>
   <tile gid="5608"/>
   <tile gid="5609"/>
   <tile gid="5608"/>
   <tile gid="5609"/>
   <tile gid="5608"/>
   <tile gid="5609"/>
   <tile gid="5608"/>
   <tile gid="5609"/>
   <tile gid="5608"/>
   <tile gid="5609"/>
   <tile gid="5608"/>
   <tile gid="5609"/>
   <tile gid="5608"/>
   <tile gid="5609"/>
   <tile gid="5608"/>
   <tile gid="5609"/>
   <tile gid="5608"/>
   <tile gid="5609"/>
   <tile/>
   <tile/>
   <tile/>
   <tile/>
   <tile/>
   <tile/>
   <tile/>
   <tile/>
   <tile/>
   <tile gid="5545"/>
   <tile gid="5544"/>
   <tile gid="5545"/>
   <tile gid="5544"/>
   <tile gid="5545"/>
   <tile gid="5544"/>
   <tile gid="5545"/>
   <tile gid="5544"/>
   <tile gid="5545"/>
   <tile gid="5544"/>
   <tile gid="5545"/>
   <tile gid="5544"/>
   <tile gid="5545"/>
   <tile gid="5544"/>
   <tile gid="5545"/>
   <tile gid="5544"/>
   <tile gid="5545"/>
   <tile gid="5544"/>
   <tile gid="5545"/>
   <tile gid="5544"/>
   <tile gid="5545"/>
   <tile gid="5544"/>
   <tile gid="5545"/>
   <tile gid="5544"/>
   <tile gid="5545"/>
   <tile gid="5544"/>
   <tile gid="5545"/>
   <tile gid="5544"/>
   <tile gid="5545"/>
   <tile gid="5544"/>
   <tile gid="5545"/>
   <tile gid="5544"/>
   <tile gid="5545"/>
   <tile gid="5544"/>
   <tile gid="5545"/>
   <tile gid="5544"/>
   <tile gid="5545"/>
   <tile gid="5544"/>
   <tile gid="5545"/>
   <tile gid="5544"/>
   <tile gid="5545"/>
   <tile gid="5544"/>
   <tile gid="5545"/>
   <tile gid="5544"/>
   <tile gid="5545"/>
   <tile gid="5544"/>
   <tile gid="5545"/>
   <tile gid="5544"/>
   <tile gid="5545"/>
   <tile gid="5544"/>
   <tile gid="5545"/>
   <tile gid="5544"/>
   <tile gid="5545"/>
   <tile gid="5544"/>
   <tile gid="5545"/>
   <tile gid="5544"/>
   <tile gid="5545"/>
   <tile gid="5544"/>
   <tile gid="5545"/>
   <tile gid="5544"/>
   <tile gid="5545"/>
   <tile gid="5544"/>
   <tile gid="5545"/>
   <tile gid="5544"/>
   <tile gid="5545"/>
   <tile gid="5544"/>
   <tile gid="5545"/>
   <tile gid="5544"/>
   <tile gid="5545"/>
   <tile gid="5544"/>
   <tile gid="5545"/>
   <tile gid="5544"/>
   <tile gid="5545"/>
   <tile gid="5544"/>
   <tile gid="5545"/>
   <tile gid="5544"/>
   <tile gid="5545"/>
   <tile gid="5544"/>
   <tile gid="5545"/>
   <tile gid="5544"/>
   <tile gid="5545"/>
   <tile gid="5544"/>
   <tile gid="5545"/>
   <tile gid="5544"/>
   <tile gid="5545"/>
   <tile gid="5544"/>
   <tile gid="5545"/>
   <tile gid="5544"/>
   <tile gid="5545"/>
   <tile gid="5544"/>
   <tile gid="5545"/>
   <tile gid="5544"/>
   <tile gid="5545"/>
   <tile gid="5544"/>
   <tile gid="5545"/>
   <tile gid="5544"/>
   <tile gid="5545"/>
   <tile gid="5544"/>
   <tile gid="5545"/>
   <tile gid="5544"/>
   <tile gid="5545"/>
   <tile gid="5544"/>
   <tile gid="5545"/>
   <tile gid="5544"/>
   <tile gid="5545"/>
   <tile gid="5544"/>
   <tile gid="5545"/>
   <tile gid="5544"/>
   <tile gid="5545"/>
   <tile gid="5544"/>
   <tile/>
   <tile/>
   <tile/>
   <tile/>
   <tile/>
   <tile/>
   <tile/>
   <tile/>
   <tile/>
   <tile/>
   <tile gid="5609"/>
   <tile gid="5608"/>
   <tile gid="5609"/>
   <tile gid="5608"/>
   <tile gid="5609"/>
   <tile gid="5608"/>
   <tile gid="5609"/>
   <tile gid="5608"/>
   <tile gid="5609"/>
   <tile gid="5608"/>
   <tile gid="5609"/>
   <tile gid="5608"/>
   <tile gid="5609"/>
   <tile gid="5608"/>
   <tile gid="5609"/>
   <tile gid="5608"/>
   <tile gid="5609"/>
   <tile gid="5608"/>
   <tile gid="5609"/>
   <tile gid="5608"/>
   <tile gid="5609"/>
   <tile gid="5608"/>
   <tile gid="5609"/>
   <tile gid="5608"/>
   <tile gid="5609"/>
   <tile gid="5608"/>
   <tile gid="5609"/>
   <tile gid="5608"/>
   <tile gid="5609"/>
   <tile gid="5608"/>
   <tile gid="5609"/>
   <tile gid="5608"/>
   <tile gid="5609"/>
   <tile gid="5608"/>
   <tile gid="5609"/>
   <tile gid="5608"/>
   <tile gid="5609"/>
   <tile gid="5608"/>
   <tile gid="5609"/>
   <tile gid="5608"/>
   <tile gid="5609"/>
   <tile gid="5608"/>
   <tile gid="5609"/>
   <tile gid="5608"/>
   <tile gid="5609"/>
   <tile gid="5608"/>
   <tile gid="5609"/>
   <tile gid="5608"/>
   <tile gid="5609"/>
   <tile gid="5608"/>
   <tile gid="5609"/>
   <tile gid="5608"/>
   <tile gid="5609"/>
   <tile gid="5608"/>
   <tile gid="5609"/>
   <tile gid="5608"/>
   <tile gid="5609"/>
   <tile gid="5608"/>
   <tile gid="5609"/>
   <tile gid="5608"/>
   <tile gid="5609"/>
   <tile gid="5608"/>
   <tile gid="5609"/>
   <tile gid="5608"/>
   <tile gid="5609"/>
   <tile gid="5608"/>
   <tile gid="5609"/>
   <tile gid="5608"/>
   <tile gid="5609"/>
   <tile gid="5608"/>
   <tile gid="5609"/>
   <tile gid="5608"/>
   <tile gid="5609"/>
   <tile gid="5608"/>
   <tile gid="5609"/>
   <tile gid="5608"/>
   <tile gid="5609"/>
   <tile gid="5608"/>
   <tile gid="5609"/>
   <tile gid="5608"/>
   <tile gid="5609"/>
   <tile gid="5608"/>
   <tile gid="5609"/>
   <tile gid="5608"/>
   <tile gid="5609"/>
   <tile gid="5608"/>
   <tile gid="5609"/>
   <tile gid="5608"/>
   <tile gid="5609"/>
   <tile gid="5608"/>
   <tile gid="5609"/>
   <tile gid="5608"/>
   <tile gid="5609"/>
   <tile gid="5608"/>
   <tile gid="5609"/>
   <tile gid="5608"/>
   <tile gid="5609"/>
   <tile gid="5608"/>
   <tile gid="5609"/>
   <tile gid="5608"/>
   <tile gid="5609"/>
   <tile gid="5608"/>
   <tile gid="5609"/>
   <tile gid="5608"/>
   <tile gid="5609"/>
   <tile gid="5608"/>
   <tile gid="5609"/>
   <tile gid="5608"/>
   <tile gid="5609"/>
   <tile gid="5608"/>
   <tile/>
   <tile/>
   <tile/>
   <tile/>
   <tile/>
   <tile/>
   <tile/>
   <tile/>
   <tile/>
   <tile/>
   <tile gid="5545"/>
   <tile gid="5544"/>
   <tile gid="5545"/>
   <tile gid="5544"/>
   <tile gid="5545"/>
   <tile gid="5544"/>
   <tile gid="5545"/>
   <tile gid="5544"/>
   <tile gid="5545"/>
   <tile gid="5544"/>
   <tile gid="5545"/>
   <tile gid="5544"/>
   <tile gid="5545"/>
   <tile gid="5544"/>
   <tile gid="5545"/>
   <tile gid="5544"/>
   <tile gid="5545"/>
   <tile gid="5544"/>
   <tile gid="5545"/>
   <tile gid="5544"/>
   <tile gid="5545"/>
   <tile gid="5544"/>
   <tile gid="5545"/>
   <tile gid="5544"/>
   <tile gid="5545"/>
   <tile gid="5544"/>
   <tile gid="5545"/>
   <tile gid="5544"/>
   <tile gid="5545"/>
   <tile gid="5544"/>
   <tile gid="5545"/>
   <tile gid="5544"/>
   <tile gid="5545"/>
   <tile gid="5544"/>
   <tile gid="5545"/>
   <tile gid="5544"/>
   <tile gid="5545"/>
   <tile gid="5544"/>
   <tile gid="5545"/>
   <tile gid="5544"/>
   <tile gid="5545"/>
   <tile gid="5544"/>
   <tile gid="5545"/>
   <tile gid="5544"/>
   <tile gid="5545"/>
   <tile gid="5544"/>
   <tile gid="5545"/>
   <tile gid="5544"/>
   <tile gid="5545"/>
   <tile gid="5544"/>
   <tile gid="5545"/>
   <tile gid="5544"/>
   <tile gid="5545"/>
   <tile gid="5544"/>
   <tile gid="5545"/>
   <tile gid="5544"/>
   <tile gid="5545"/>
   <tile gid="5544"/>
   <tile gid="5545"/>
   <tile gid="5544"/>
   <tile gid="5545"/>
   <tile gid="5544"/>
   <tile gid="5545"/>
   <tile gid="5544"/>
   <tile gid="5545"/>
   <tile gid="5544"/>
   <tile gid="5545"/>
   <tile gid="5544"/>
   <tile gid="5545"/>
   <tile gid="5544"/>
   <tile gid="5545"/>
   <tile gid="5544"/>
   <tile gid="5545"/>
   <tile gid="5544"/>
   <tile gid="5545"/>
   <tile gid="5544"/>
   <tile gid="5545"/>
   <tile gid="5544"/>
   <tile gid="5545"/>
   <tile gid="5544"/>
   <tile gid="5545"/>
   <tile gid="5544"/>
   <tile gid="5545"/>
   <tile gid="5544"/>
   <tile gid="5545"/>
   <tile gid="5544"/>
   <tile gid="5545"/>
   <tile gid="5544"/>
   <tile gid="5545"/>
   <tile gid="5544"/>
   <tile gid="5545"/>
   <tile gid="5544"/>
   <tile gid="5545"/>
   <tile gid="5544"/>
   <tile gid="5545"/>
   <tile gid="5544"/>
   <tile gid="5545"/>
   <tile gid="5544"/>
   <tile gid="5545"/>
   <tile gid="5544"/>
   <tile gid="5545"/>
   <tile gid="5544"/>
   <tile gid="5545"/>
   <tile gid="5544"/>
   <tile gid="5545"/>
   <tile gid="5544"/>
   <tile gid="5545"/>
   <tile gid="5544"/>
   <tile gid="5545"/>
   <tile gid="5544"/>
   <tile/>
   <tile/>
   <tile/>
   <tile/>
   <tile/>
   <tile/>
   <tile/>
   <tile/>
   <tile/>
   <tile/>
   <tile gid="5609"/>
   <tile gid="5608"/>
   <tile gid="5609"/>
   <tile gid="5608"/>
   <tile gid="5609"/>
   <tile gid="5608"/>
   <tile gid="5609"/>
   <tile gid="5608"/>
   <tile gid="5609"/>
   <tile gid="5608"/>
   <tile gid="5609"/>
   <tile gid="5608"/>
   <tile gid="5609"/>
   <tile gid="5608"/>
   <tile gid="5609"/>
   <tile gid="5608"/>
   <tile gid="5609"/>
   <tile gid="5608"/>
   <tile gid="5609"/>
   <tile gid="5608"/>
   <tile gid="5609"/>
   <tile gid="5608"/>
   <tile gid="5609"/>
   <tile gid="5608"/>
   <tile gid="5609"/>
   <tile gid="5608"/>
   <tile gid="5609"/>
   <tile gid="5608"/>
   <tile gid="5609"/>
   <tile gid="5608"/>
   <tile gid="5609"/>
   <tile gid="5608"/>
   <tile gid="5609"/>
   <tile gid="5608"/>
   <tile gid="5609"/>
   <tile gid="5608"/>
   <tile gid="5609"/>
   <tile gid="5608"/>
   <tile gid="5609"/>
   <tile gid="5608"/>
   <tile gid="5609"/>
   <tile gid="5608"/>
   <tile gid="5609"/>
   <tile gid="5608"/>
   <tile gid="5609"/>
   <tile gid="5608"/>
   <tile gid="5609"/>
   <tile gid="5608"/>
   <tile gid="5609"/>
   <tile gid="5608"/>
   <tile gid="5609"/>
   <tile gid="5608"/>
   <tile gid="5609"/>
   <tile gid="5608"/>
   <tile gid="5609"/>
   <tile gid="5608"/>
   <tile gid="5609"/>
   <tile gid="5608"/>
   <tile gid="5609"/>
   <tile gid="5608"/>
   <tile gid="5609"/>
   <tile gid="5608"/>
   <tile gid="5609"/>
   <tile gid="5608"/>
   <tile gid="5609"/>
   <tile gid="5608"/>
   <tile gid="5609"/>
   <tile gid="5608"/>
   <tile gid="5609"/>
   <tile gid="5608"/>
   <tile gid="5609"/>
   <tile gid="5608"/>
   <tile gid="5609"/>
   <tile gid="5608"/>
   <tile gid="5609"/>
   <tile gid="5608"/>
   <tile gid="5609"/>
   <tile gid="5608"/>
   <tile gid="5609"/>
   <tile gid="5608"/>
   <tile gid="5609"/>
   <tile gid="5608"/>
   <tile gid="5609"/>
   <tile gid="5608"/>
   <tile gid="5609"/>
   <tile gid="5608"/>
   <tile gid="5609"/>
   <tile gid="5608"/>
   <tile gid="5609"/>
   <tile gid="5608"/>
   <tile gid="5609"/>
   <tile gid="5608"/>
   <tile gid="5609"/>
   <tile gid="5608"/>
   <tile gid="5609"/>
   <tile gid="5608"/>
   <tile gid="5609"/>
   <tile gid="5608"/>
   <tile gid="5609"/>
   <tile gid="5608"/>
   <tile gid="5609"/>
   <tile gid="5608"/>
   <tile gid="5609"/>
   <tile gid="5608"/>
   <tile gid="5609"/>
   <tile gid="5608"/>
   <tile gid="5609"/>
   <tile gid="5608"/>
   <tile gid="5609"/>
   <tile gid="5608"/>
   <tile/>
   <tile/>
   <tile/>
   <tile/>
   <tile/>
   <tile/>
   <tile/>
   <tile/>
   <tile/>
   <tile/>
   <tile gid="5545"/>
   <tile gid="5544"/>
   <tile gid="5545"/>
   <tile gid="5544"/>
   <tile gid="5545"/>
   <tile gid="5544"/>
   <tile gid="5545"/>
   <tile gid="5544"/>
   <tile gid="5545"/>
   <tile gid="5544"/>
   <tile gid="5545"/>
   <tile gid="5544"/>
   <tile gid="5545"/>
   <tile gid="5544"/>
   <tile gid="5545"/>
   <tile gid="5544"/>
   <tile gid="5545"/>
   <tile gid="5544"/>
   <tile gid="5545"/>
   <tile gid="5544"/>
   <tile gid="5545"/>
   <tile gid="5544"/>
   <tile gid="5545"/>
   <tile gid="5544"/>
   <tile gid="5545"/>
   <tile gid="5544"/>
   <tile gid="5545"/>
   <tile gid="5544"/>
   <tile gid="5545"/>
   <tile gid="5544"/>
   <tile gid="5545"/>
   <tile gid="5544"/>
   <tile gid="5545"/>
   <tile gid="5544"/>
   <tile gid="5545"/>
   <tile gid="5544"/>
   <tile gid="5545"/>
   <tile gid="5544"/>
   <tile gid="5545"/>
   <tile gid="5674"/>
   <tile gid="5675"/>
   <tile gid="5676"/>
   <tile gid="5677"/>
   <tile gid="5678"/>
   <tile gid="5679"/>
   <tile gid="5544"/>
   <tile gid="5545"/>
   <tile gid="5544"/>
   <tile gid="5545"/>
   <tile gid="5544"/>
   <tile gid="5545"/>
   <tile gid="5544"/>
   <tile gid="5545"/>
   <tile gid="5544"/>
   <tile gid="5545"/>
   <tile gid="5544"/>
   <tile gid="5545"/>
   <tile gid="5544"/>
   <tile gid="5545"/>
   <tile gid="5544"/>
   <tile gid="5545"/>
   <tile gid="5544"/>
   <tile gid="5545"/>
   <tile gid="5544"/>
   <tile gid="5545"/>
   <tile gid="5674"/>
   <tile gid="5675"/>
   <tile gid="5676"/>
   <tile gid="5677"/>
   <tile gid="5678"/>
   <tile gid="5679"/>
   <tile gid="5544"/>
   <tile gid="5545"/>
   <tile gid="5544"/>
   <tile gid="5545"/>
   <tile gid="5544"/>
   <tile gid="5545"/>
   <tile gid="5544"/>
   <tile gid="5545"/>
   <tile gid="5544"/>
   <tile gid="5545"/>
   <tile gid="5544"/>
   <tile gid="5545"/>
   <tile gid="5544"/>
   <tile gid="5545"/>
   <tile gid="5544"/>
   <tile gid="5545"/>
   <tile gid="5544"/>
   <tile gid="5545"/>
   <tile gid="5544"/>
   <tile gid="5545"/>
   <tile gid="5544"/>
   <tile gid="5545"/>
   <tile gid="5544"/>
   <tile gid="5545"/>
   <tile gid="5544"/>
   <tile gid="5545"/>
   <tile gid="5544"/>
   <tile gid="5545"/>
   <tile gid="5544"/>
   <tile gid="5545"/>
   <tile gid="5544"/>
   <tile gid="5545"/>
   <tile gid="5544"/>
   <tile gid="5545"/>
   <tile gid="5544"/>
   <tile gid="5545"/>
   <tile gid="5544"/>
   <tile gid="5545"/>
   <tile gid="5544"/>
   <tile/>
   <tile/>
   <tile/>
   <tile/>
   <tile/>
   <tile/>
   <tile/>
   <tile/>
   <tile/>
   <tile/>
   <tile gid="5544"/>
   <tile gid="5545"/>
   <tile gid="5544"/>
   <tile gid="5545"/>
   <tile gid="5544"/>
   <tile gid="5545"/>
   <tile gid="5544"/>
   <tile gid="5545"/>
   <tile gid="5544"/>
   <tile gid="5545"/>
   <tile gid="5544"/>
   <tile gid="5545"/>
   <tile gid="5544"/>
   <tile gid="5545"/>
   <tile gid="5544"/>
   <tile gid="5545"/>
   <tile gid="5544"/>
   <tile gid="5545"/>
   <tile gid="5544"/>
   <tile gid="5545"/>
   <tile gid="5544"/>
   <tile gid="5545"/>
   <tile gid="5544"/>
   <tile gid="5545"/>
   <tile gid="5544"/>
   <tile gid="5545"/>
   <tile gid="5544"/>
   <tile gid="5545"/>
   <tile gid="5544"/>
   <tile gid="5545"/>
   <tile gid="5544"/>
   <tile gid="5545"/>
   <tile gid="5544"/>
   <tile gid="5545"/>
   <tile gid="5544"/>
   <tile gid="5545"/>
   <tile gid="5544"/>
   <tile gid="5545"/>
   <tile gid="5544"/>
   <tile gid="5738"/>
   <tile gid="5739"/>
   <tile gid="5740"/>
   <tile gid="5741"/>
   <tile gid="5742"/>
   <tile gid="5743"/>
   <tile gid="5545"/>
   <tile gid="5544"/>
   <tile gid="5545"/>
   <tile gid="5544"/>
   <tile gid="5545"/>
   <tile gid="5544"/>
   <tile gid="5545"/>
   <tile gid="5544"/>
   <tile gid="5545"/>
   <tile gid="5544"/>
   <tile gid="5545"/>
   <tile gid="5544"/>
   <tile gid="5545"/>
   <tile gid="5544"/>
   <tile gid="5545"/>
   <tile gid="5544"/>
   <tile gid="5545"/>
   <tile gid="5544"/>
   <tile gid="5545"/>
   <tile gid="5544"/>
   <tile gid="5738"/>
   <tile gid="5739"/>
   <tile gid="5740"/>
   <tile gid="5741"/>
   <tile gid="5742"/>
   <tile gid="5743"/>
   <tile gid="5545"/>
   <tile gid="5544"/>
   <tile gid="5545"/>
   <tile gid="5544"/>
   <tile gid="5545"/>
   <tile gid="5544"/>
   <tile gid="5545"/>
   <tile gid="5544"/>
   <tile gid="5545"/>
   <tile gid="5544"/>
   <tile gid="5545"/>
   <tile gid="5544"/>
   <tile gid="5545"/>
   <tile gid="5544"/>
   <tile gid="5545"/>
   <tile gid="5544"/>
   <tile gid="5545"/>
   <tile gid="5544"/>
   <tile gid="5545"/>
   <tile gid="5544"/>
   <tile gid="5545"/>
   <tile gid="5544"/>
   <tile gid="5545"/>
   <tile gid="5544"/>
   <tile gid="5545"/>
   <tile gid="5544"/>
   <tile gid="5545"/>
   <tile gid="5544"/>
   <tile gid="5545"/>
   <tile gid="5544"/>
   <tile gid="5545"/>
   <tile gid="5544"/>
   <tile gid="5545"/>
   <tile gid="5544"/>
   <tile gid="5545"/>
   <tile gid="5544"/>
   <tile gid="5545"/>
   <tile gid="5544"/>
   <tile gid="5545"/>
   <tile/>
   <tile/>
   <tile/>
   <tile/>
   <tile/>
   <tile/>
   <tile/>
   <tile/>
   <tile/>
   <tile/>
   <tile gid="5608"/>
   <tile gid="5609"/>
   <tile gid="5608"/>
   <tile gid="5609"/>
   <tile gid="5608"/>
   <tile gid="5609"/>
   <tile gid="5608"/>
   <tile gid="5609"/>
   <tile gid="5608"/>
   <tile gid="5609"/>
   <tile gid="5608"/>
   <tile gid="5609"/>
   <tile gid="5608"/>
   <tile gid="5609"/>
   <tile gid="5608"/>
   <tile gid="5609"/>
   <tile gid="5608"/>
   <tile gid="5609"/>
   <tile gid="5608"/>
   <tile gid="5609"/>
   <tile gid="5608"/>
   <tile gid="5609"/>
   <tile gid="5608"/>
   <tile gid="5609"/>
   <tile gid="5608"/>
   <tile gid="5609"/>
   <tile gid="5608"/>
   <tile gid="5609"/>
   <tile gid="5608"/>
   <tile gid="5609"/>
   <tile gid="5608"/>
   <tile gid="5609"/>
   <tile gid="5608"/>
   <tile gid="5609"/>
   <tile gid="5608"/>
   <tile gid="5609"/>
   <tile gid="5608"/>
   <tile gid="5609"/>
   <tile gid="5608"/>
   <tile gid="5802"/>
   <tile gid="5803"/>
   <tile gid="5804"/>
   <tile gid="5805"/>
   <tile gid="5806"/>
   <tile gid="5807"/>
   <tile gid="5609"/>
   <tile gid="5608"/>
   <tile gid="5609"/>
   <tile gid="5608"/>
   <tile gid="5609"/>
   <tile gid="5608"/>
   <tile gid="5609"/>
   <tile gid="5608"/>
   <tile gid="5609"/>
   <tile gid="5608"/>
   <tile gid="5609"/>
   <tile gid="5608"/>
   <tile gid="5609"/>
   <tile gid="5608"/>
   <tile gid="5609"/>
   <tile gid="5608"/>
   <tile gid="5609"/>
   <tile gid="5608"/>
   <tile gid="5609"/>
   <tile gid="5608"/>
   <tile gid="5802"/>
   <tile gid="5803"/>
   <tile gid="5804"/>
   <tile gid="5805"/>
   <tile gid="5806"/>
   <tile gid="5807"/>
   <tile gid="5609"/>
   <tile gid="5608"/>
   <tile gid="5609"/>
   <tile gid="5608"/>
   <tile gid="5609"/>
   <tile gid="5608"/>
   <tile gid="5609"/>
   <tile gid="5608"/>
   <tile gid="5609"/>
   <tile gid="5608"/>
   <tile gid="5609"/>
   <tile gid="5608"/>
   <tile gid="5609"/>
   <tile gid="5608"/>
   <tile gid="5609"/>
   <tile gid="5608"/>
   <tile gid="5609"/>
   <tile gid="5608"/>
   <tile gid="5609"/>
   <tile gid="5608"/>
   <tile gid="5609"/>
   <tile gid="5608"/>
   <tile gid="5609"/>
   <tile gid="5608"/>
   <tile gid="5609"/>
   <tile gid="5608"/>
   <tile gid="5609"/>
   <tile gid="5608"/>
   <tile gid="5609"/>
   <tile gid="5608"/>
   <tile gid="5609"/>
   <tile gid="5608"/>
   <tile gid="5609"/>
   <tile gid="5608"/>
   <tile gid="5609"/>
   <tile gid="5608"/>
   <tile gid="5609"/>
   <tile gid="5608"/>
   <tile gid="5609"/>
   <tile/>
   <tile/>
   <tile/>
   <tile/>
   <tile/>
   <tile/>
   <tile/>
   <tile/>
   <tile/>
   <tile/>
   <tile gid="5544"/>
   <tile gid="5545"/>
   <tile gid="5544"/>
   <tile gid="5545"/>
   <tile gid="5544"/>
   <tile gid="5545"/>
   <tile gid="5544"/>
   <tile gid="5545"/>
   <tile gid="5544"/>
   <tile gid="5545"/>
   <tile gid="5544"/>
   <tile gid="5545"/>
   <tile gid="5544"/>
   <tile gid="5545"/>
   <tile gid="5544"/>
   <tile gid="5545"/>
   <tile gid="5544"/>
   <tile gid="5545"/>
   <tile gid="5544"/>
   <tile gid="5545"/>
   <tile gid="5544"/>
   <tile gid="5545"/>
   <tile gid="5544"/>
   <tile gid="5545"/>
   <tile gid="5544"/>
   <tile gid="5545"/>
   <tile gid="5544"/>
   <tile gid="5545"/>
   <tile gid="5544"/>
   <tile gid="5545"/>
   <tile gid="5544"/>
   <tile gid="5545"/>
   <tile gid="5544"/>
   <tile gid="5545"/>
   <tile gid="5544"/>
   <tile gid="5545"/>
   <tile gid="5544"/>
   <tile gid="5545"/>
   <tile gid="5544"/>
   <tile gid="5866"/>
   <tile gid="5867"/>
   <tile gid="5868"/>
   <tile gid="5869"/>
   <tile gid="5870"/>
   <tile gid="5871"/>
   <tile gid="5545"/>
   <tile gid="5544"/>
   <tile gid="5545"/>
   <tile gid="5544"/>
   <tile gid="5545"/>
   <tile gid="5544"/>
   <tile gid="5545"/>
   <tile gid="5544"/>
   <tile gid="5545"/>
   <tile gid="5544"/>
   <tile gid="5545"/>
   <tile gid="5544"/>
   <tile gid="5545"/>
   <tile gid="5544"/>
   <tile gid="5545"/>
   <tile gid="5544"/>
   <tile gid="5545"/>
   <tile gid="5544"/>
   <tile gid="5545"/>
   <tile gid="5544"/>
   <tile gid="5866"/>
   <tile gid="5867"/>
   <tile gid="5868"/>
   <tile gid="5869"/>
   <tile gid="5870"/>
   <tile gid="5871"/>
   <tile gid="5545"/>
   <tile gid="5544"/>
   <tile gid="5545"/>
   <tile gid="5544"/>
   <tile gid="5545"/>
   <tile gid="5544"/>
   <tile gid="5545"/>
   <tile gid="5544"/>
   <tile gid="5545"/>
   <tile gid="5544"/>
   <tile gid="5545"/>
   <tile gid="5544"/>
   <tile gid="5545"/>
   <tile gid="5544"/>
   <tile gid="5545"/>
   <tile gid="5544"/>
   <tile gid="5545"/>
   <tile gid="5544"/>
   <tile gid="5545"/>
   <tile gid="5544"/>
   <tile gid="5545"/>
   <tile gid="5544"/>
   <tile gid="5545"/>
   <tile gid="5544"/>
   <tile gid="5545"/>
   <tile gid="5544"/>
   <tile gid="5545"/>
   <tile gid="5544"/>
   <tile gid="5545"/>
   <tile gid="5544"/>
   <tile gid="5545"/>
   <tile gid="5544"/>
   <tile gid="5545"/>
   <tile gid="5544"/>
   <tile gid="5545"/>
   <tile gid="5544"/>
   <tile gid="5545"/>
   <tile gid="5544"/>
   <tile gid="5545"/>
   <tile/>
   <tile/>
   <tile/>
   <tile/>
   <tile/>
   <tile/>
   <tile/>
   <tile/>
   <tile/>
   <tile/>
   <tile gid="5608"/>
   <tile gid="5609"/>
   <tile/>
   <tile/>
   <tile/>
   <tile/>
   <tile gid="5608"/>
   <tile gid="5609"/>
   <tile gid="5608"/>
   <tile gid="5609"/>
   <tile gid="5608"/>
   <tile gid="5609"/>
   <tile gid="5608"/>
   <tile gid="5609"/>
   <tile gid="5608"/>
   <tile gid="5609"/>
   <tile gid="5608"/>
   <tile gid="5609"/>
   <tile gid="5608"/>
   <tile gid="5609"/>
   <tile gid="5608"/>
   <tile gid="5609"/>
   <tile gid="5608"/>
   <tile gid="5609"/>
   <tile gid="5608"/>
   <tile gid="5609"/>
   <tile gid="5608"/>
   <tile gid="5609"/>
   <tile gid="5608"/>
   <tile gid="5609"/>
   <tile gid="5608"/>
   <tile gid="5609"/>
   <tile gid="5608"/>
   <tile gid="5609"/>
   <tile gid="5608"/>
   <tile gid="5609"/>
   <tile gid="5608"/>
   <tile gid="5609"/>
   <tile gid="5608"/>
   <tile gid="5930"/>
   <tile gid="5931"/>
   <tile gid="5932"/>
   <tile gid="5933"/>
   <tile gid="5934"/>
   <tile gid="5935"/>
   <tile gid="5609"/>
   <tile gid="5608"/>
   <tile gid="5609"/>
   <tile gid="5608"/>
   <tile gid="5609"/>
   <tile gid="5608"/>
   <tile gid="5609"/>
   <tile gid="5674"/>
   <tile gid="5675"/>
   <tile gid="5676"/>
   <tile gid="5677"/>
   <tile gid="5678"/>
   <tile gid="5679"/>
   <tile gid="5608"/>
   <tile gid="5609"/>
   <tile gid="5608"/>
   <tile gid="5609"/>
   <tile gid="5608"/>
   <tile gid="5609"/>
   <tile gid="5608"/>
   <tile gid="5930"/>
   <tile gid="5931"/>
   <tile gid="5932"/>
   <tile gid="5933"/>
   <tile gid="5934"/>
   <tile gid="5935"/>
   <tile gid="5609"/>
   <tile gid="5608"/>
   <tile gid="5609"/>
   <tile gid="5608"/>
   <tile gid="5609"/>
   <tile gid="5608"/>
   <tile gid="5609"/>
   <tile gid="5608"/>
   <tile gid="5609"/>
   <tile gid="5608"/>
   <tile gid="5609"/>
   <tile gid="5608"/>
   <tile gid="5609"/>
   <tile gid="5608"/>
   <tile gid="5609"/>
   <tile gid="5608"/>
   <tile gid="5609"/>
   <tile gid="5608"/>
   <tile gid="5609"/>
   <tile gid="5608"/>
   <tile gid="5609"/>
   <tile gid="5608"/>
   <tile gid="5609"/>
   <tile gid="5608"/>
   <tile gid="5609"/>
   <tile gid="5608"/>
   <tile gid="5609"/>
   <tile gid="5608"/>
   <tile gid="5609"/>
   <tile gid="5608"/>
   <tile gid="5609"/>
   <tile gid="5608"/>
   <tile gid="5609"/>
   <tile gid="5608"/>
   <tile gid="5609"/>
   <tile gid="5608"/>
   <tile gid="5609"/>
   <tile gid="5608"/>
   <tile gid="5609"/>
   <tile/>
   <tile/>
   <tile/>
   <tile/>
   <tile/>
   <tile/>
   <tile/>
   <tile/>
   <tile/>
   <tile/>
   <tile gid="5544"/>
   <tile/>
   <tile/>
   <tile/>
   <tile/>
   <tile/>
   <tile/>
   <tile gid="5545"/>
   <tile gid="5544"/>
   <tile gid="5545"/>
   <tile gid="5544"/>
   <tile gid="5545"/>
   <tile gid="5544"/>
   <tile gid="5545"/>
   <tile gid="5544"/>
   <tile gid="5545"/>
   <tile gid="5544"/>
   <tile gid="5545"/>
   <tile gid="5544"/>
   <tile gid="5545"/>
   <tile gid="5544"/>
   <tile gid="5545"/>
   <tile gid="5544"/>
   <tile gid="5545"/>
   <tile gid="5544"/>
   <tile gid="5545"/>
   <tile gid="5544"/>
   <tile gid="5545"/>
   <tile gid="5544"/>
   <tile gid="5545"/>
   <tile gid="5544"/>
   <tile gid="5545"/>
   <tile gid="5544"/>
   <tile gid="5545"/>
   <tile gid="5544"/>
   <tile gid="5545"/>
   <tile gid="5544"/>
   <tile gid="5545"/>
   <tile gid="5544"/>
   <tile gid="5994"/>
   <tile gid="5995"/>
   <tile gid="5996"/>
   <tile gid="5997"/>
   <tile gid="5998"/>
   <tile gid="5999"/>
   <tile gid="5545"/>
   <tile gid="5544"/>
   <tile gid="5545"/>
   <tile gid="5544"/>
   <tile gid="5545"/>
   <tile gid="5544"/>
   <tile gid="5545"/>
   <tile gid="5738"/>
   <tile gid="5739"/>
   <tile gid="5740"/>
   <tile gid="5741"/>
   <tile gid="5742"/>
   <tile gid="5743"/>
   <tile gid="5544"/>
   <tile gid="5545"/>
   <tile gid="5544"/>
   <tile gid="5545"/>
   <tile gid="5544"/>
   <tile gid="5545"/>
   <tile gid="5544"/>
   <tile gid="5994"/>
   <tile gid="5995"/>
   <tile gid="5996"/>
   <tile gid="5997"/>
   <tile gid="5998"/>
   <tile gid="5999"/>
   <tile gid="5545"/>
   <tile gid="5544"/>
   <tile gid="5545"/>
   <tile gid="5544"/>
   <tile gid="5545"/>
   <tile gid="5544"/>
   <tile gid="5545"/>
   <tile gid="5544"/>
   <tile gid="5545"/>
   <tile gid="5544"/>
   <tile gid="5545"/>
   <tile gid="5544"/>
   <tile gid="5545"/>
   <tile gid="5544"/>
   <tile gid="5545"/>
   <tile gid="5544"/>
   <tile gid="5545"/>
   <tile gid="5544"/>
   <tile gid="5545"/>
   <tile gid="5544"/>
   <tile gid="5545"/>
   <tile gid="5544"/>
   <tile gid="5545"/>
   <tile gid="5544"/>
   <tile gid="5545"/>
   <tile gid="5544"/>
   <tile gid="5545"/>
   <tile gid="5544"/>
   <tile gid="5545"/>
   <tile gid="5544"/>
   <tile gid="5545"/>
   <tile gid="5544"/>
   <tile gid="5545"/>
   <tile gid="5544"/>
   <tile gid="5545"/>
   <tile gid="5544"/>
   <tile gid="5545"/>
   <tile gid="5544"/>
   <tile gid="5545"/>
   <tile/>
   <tile/>
   <tile/>
   <tile/>
   <tile/>
   <tile gid="5609"/>
   <tile gid="5608"/>
   <tile gid="5609"/>
   <tile gid="5608"/>
   <tile gid="5609"/>
   <tile gid="5608"/>
   <tile/>
   <tile/>
   <tile/>
   <tile/>
   <tile/>
   <tile/>
   <tile gid="5609"/>
   <tile gid="5608"/>
   <tile gid="5609"/>
   <tile gid="5608"/>
   <tile gid="5609"/>
   <tile gid="5608"/>
   <tile gid="5609"/>
   <tile gid="5608"/>
   <tile gid="5609"/>
   <tile gid="5608"/>
   <tile gid="5609"/>
   <tile gid="5608"/>
   <tile gid="5609"/>
   <tile gid="5608"/>
   <tile gid="5609"/>
   <tile gid="5608"/>
   <tile gid="5609"/>
   <tile gid="5608"/>
   <tile gid="5609"/>
   <tile gid="5608"/>
   <tile gid="5609"/>
   <tile gid="5608"/>
   <tile gid="5609"/>
   <tile gid="5608"/>
   <tile gid="5609"/>
   <tile gid="5608"/>
   <tile gid="5609"/>
   <tile gid="5608"/>
   <tile gid="5609"/>
   <tile gid="5608"/>
   <tile gid="5609"/>
   <tile gid="5608"/>
   <tile gid="5609"/>
   <tile gid="5608"/>
   <tile gid="5609"/>
   <tile gid="5608"/>
   <tile gid="5609"/>
   <tile gid="5608"/>
   <tile gid="5609"/>
   <tile gid="5608"/>
   <tile gid="5609"/>
   <tile gid="5608"/>
   <tile gid="5609"/>
   <tile gid="5608"/>
   <tile gid="5609"/>
   <tile gid="5802"/>
   <tile gid="5803"/>
   <tile gid="5804"/>
   <tile gid="5805"/>
   <tile gid="5806"/>
   <tile gid="5807"/>
   <tile gid="5608"/>
   <tile gid="5609"/>
   <tile gid="5608"/>
   <tile gid="5609"/>
   <tile gid="5608"/>
   <tile gid="5609"/>
   <tile gid="5608"/>
   <tile gid="5609"/>
   <tile gid="5608"/>
   <tile gid="5609"/>
   <tile gid="5608"/>
   <tile gid="5609"/>
   <tile gid="5608"/>
   <tile gid="5609"/>
   <tile gid="5608"/>
   <tile gid="5609"/>
   <tile gid="5608"/>
   <tile gid="5609"/>
   <tile gid="5608"/>
   <tile gid="5609"/>
   <tile gid="5608"/>
   <tile gid="5609"/>
   <tile gid="5608"/>
   <tile gid="5609"/>
   <tile gid="5608"/>
   <tile gid="5609"/>
   <tile gid="5608"/>
   <tile gid="5609"/>
   <tile gid="5608"/>
   <tile gid="5609"/>
   <tile gid="5608"/>
   <tile gid="5609"/>
   <tile gid="5608"/>
   <tile gid="5609"/>
   <tile gid="5608"/>
   <tile gid="5609"/>
   <tile gid="5608"/>
   <tile gid="5609"/>
   <tile gid="5608"/>
   <tile gid="5609"/>
   <tile gid="5608"/>
   <tile gid="5609"/>
   <tile/>
   <tile/>
   <tile/>
   <tile/>
   <tile/>
   <tile/>
   <tile/>
   <tile/>
   <tile/>
   <tile/>
   <tile gid="5608"/>
   <tile gid="5609"/>
   <tile gid="5608"/>
   <tile gid="5609"/>
   <tile gid="5608"/>
   <tile gid="5545"/>
   <tile gid="5544"/>
   <tile gid="5545"/>
   <tile gid="5544"/>
   <tile gid="5545"/>
   <tile gid="5544"/>
   <tile/>
   <tile/>
   <tile/>
   <tile/>
   <tile/>
   <tile/>
   <tile/>
   <tile gid="5544"/>
   <tile gid="5545"/>
   <tile gid="5544"/>
   <tile gid="5545"/>
   <tile gid="5544"/>
   <tile gid="5545"/>
   <tile gid="5544"/>
   <tile gid="5545"/>
   <tile gid="5544"/>
   <tile gid="5545"/>
   <tile gid="5544"/>
   <tile gid="5545"/>
   <tile gid="5544"/>
   <tile gid="5545"/>
   <tile gid="5544"/>
   <tile gid="5545"/>
   <tile gid="5544"/>
   <tile gid="5545"/>
   <tile gid="5544"/>
   <tile gid="5545"/>
   <tile gid="5544"/>
   <tile gid="5545"/>
   <tile gid="5544"/>
   <tile gid="5545"/>
   <tile gid="5544"/>
   <tile gid="5545"/>
   <tile gid="5544"/>
   <tile gid="5545"/>
   <tile gid="5544"/>
   <tile gid="5545"/>
   <tile gid="5544"/>
   <tile gid="5545"/>
   <tile gid="5544"/>
   <tile gid="5545"/>
   <tile gid="5544"/>
   <tile gid="5545"/>
   <tile gid="5544"/>
   <tile gid="5545"/>
   <tile gid="5544"/>
   <tile gid="5545"/>
   <tile gid="5544"/>
   <tile gid="5545"/>
   <tile gid="5544"/>
   <tile gid="5545"/>
   <tile gid="5866"/>
   <tile gid="5867"/>
   <tile gid="5868"/>
   <tile gid="5869"/>
   <tile gid="5870"/>
   <tile gid="5871"/>
   <tile gid="5544"/>
   <tile gid="5545"/>
   <tile gid="5544"/>
   <tile gid="5545"/>
   <tile gid="5544"/>
   <tile gid="5545"/>
   <tile gid="5544"/>
   <tile gid="5545"/>
   <tile gid="5544"/>
   <tile gid="5545"/>
   <tile gid="5544"/>
   <tile gid="5545"/>
   <tile gid="5544"/>
   <tile gid="5545"/>
   <tile gid="5544"/>
   <tile gid="5545"/>
   <tile gid="5544"/>
   <tile gid="5545"/>
   <tile gid="5544"/>
   <tile gid="5545"/>
   <tile gid="5544"/>
   <tile gid="5545"/>
   <tile gid="5544"/>
   <tile gid="5545"/>
   <tile gid="5544"/>
   <tile gid="5545"/>
   <tile gid="5544"/>
   <tile gid="5545"/>
   <tile gid="5544"/>
   <tile gid="5545"/>
   <tile gid="5544"/>
   <tile gid="5545"/>
   <tile gid="5544"/>
   <tile gid="5545"/>
   <tile gid="5544"/>
   <tile gid="5545"/>
   <tile gid="5544"/>
   <tile gid="5545"/>
   <tile gid="5544"/>
   <tile gid="5545"/>
   <tile gid="5544"/>
   <tile/>
   <tile/>
   <tile/>
   <tile/>
   <tile/>
   <tile/>
   <tile/>
   <tile/>
   <tile/>
   <tile/>
   <tile/>
   <tile/>
   <tile gid="5545"/>
   <tile gid="5544"/>
   <tile gid="5545"/>
   <tile gid="5544"/>
   <tile gid="5609"/>
   <tile gid="5608"/>
   <tile gid="5609"/>
   <tile gid="5608"/>
   <tile gid="5609"/>
   <tile/>
   <tile/>
   <tile/>
   <tile/>
   <tile/>
   <tile/>
   <tile/>
   <tile/>
   <tile gid="5608"/>
   <tile gid="5609"/>
   <tile gid="5608"/>
   <tile gid="5609"/>
   <tile gid="5608"/>
   <tile gid="5609"/>
   <tile gid="5608"/>
   <tile gid="5609"/>
   <tile gid="5608"/>
   <tile gid="5609"/>
   <tile gid="5608"/>
   <tile gid="5609"/>
   <tile gid="5608"/>
   <tile gid="5609"/>
   <tile gid="5608"/>
   <tile gid="5609"/>
   <tile gid="5608"/>
   <tile gid="5609"/>
   <tile gid="5608"/>
   <tile gid="5609"/>
   <tile gid="5608"/>
   <tile gid="5609"/>
   <tile gid="5608"/>
   <tile gid="5609"/>
   <tile gid="5608"/>
   <tile gid="5609"/>
   <tile gid="5608"/>
   <tile gid="5609"/>
   <tile gid="5608"/>
   <tile gid="5609"/>
   <tile gid="5608"/>
   <tile gid="5609"/>
   <tile gid="5608"/>
   <tile gid="5609"/>
   <tile gid="5608"/>
   <tile gid="5609"/>
   <tile gid="5608"/>
   <tile gid="5609"/>
   <tile gid="5608"/>
   <tile gid="5609"/>
   <tile gid="5608"/>
   <tile gid="5609"/>
   <tile gid="5608"/>
   <tile gid="5609"/>
   <tile gid="5930"/>
   <tile gid="5931"/>
   <tile gid="5932"/>
   <tile gid="5933"/>
   <tile gid="5934"/>
   <tile gid="5935"/>
   <tile gid="5608"/>
   <tile gid="5609"/>
   <tile gid="5608"/>
   <tile gid="5609"/>
   <tile gid="5608"/>
   <tile gid="5609"/>
   <tile gid="5608"/>
   <tile gid="5609"/>
   <tile gid="5608"/>
   <tile gid="5609"/>
   <tile gid="5608"/>
   <tile gid="5609"/>
   <tile gid="5608"/>
   <tile gid="5609"/>
   <tile gid="5608"/>
   <tile gid="5609"/>
   <tile gid="5608"/>
   <tile gid="5609"/>
   <tile gid="5608"/>
   <tile gid="5609"/>
   <tile gid="5608"/>
   <tile gid="5609"/>
   <tile gid="5608"/>
   <tile gid="5609"/>
   <tile gid="5608"/>
   <tile gid="5609"/>
   <tile gid="5608"/>
   <tile gid="5609"/>
   <tile gid="5608"/>
   <tile gid="5609"/>
   <tile gid="5608"/>
   <tile gid="5609"/>
   <tile gid="5608"/>
   <tile gid="5609"/>
   <tile gid="5608"/>
   <tile gid="5609"/>
   <tile gid="5608"/>
   <tile gid="5609"/>
   <tile gid="5608"/>
   <tile gid="5609"/>
   <tile gid="5608"/>
   <tile/>
   <tile/>
   <tile/>
   <tile/>
   <tile/>
   <tile/>
   <tile/>
   <tile/>
   <tile/>
   <tile/>
   <tile/>
   <tile/>
   <tile gid="5609"/>
   <tile gid="5608"/>
   <tile gid="5609"/>
   <tile gid="5608"/>
   <tile gid="5545"/>
   <tile gid="5544"/>
   <tile gid="5545"/>
   <tile gid="5544"/>
   <tile gid="5545"/>
   <tile/>
   <tile/>
   <tile/>
   <tile/>
   <tile/>
   <tile/>
   <tile/>
   <tile/>
   <tile gid="5544"/>
   <tile gid="5545"/>
   <tile gid="5544"/>
   <tile gid="5545"/>
   <tile gid="5544"/>
   <tile gid="5545"/>
   <tile gid="5544"/>
   <tile gid="5545"/>
   <tile gid="5544"/>
   <tile gid="5545"/>
   <tile gid="5544"/>
   <tile gid="5545"/>
   <tile gid="5544"/>
   <tile gid="5545"/>
   <tile gid="5544"/>
   <tile gid="5545"/>
   <tile gid="5544"/>
   <tile gid="5545"/>
   <tile gid="5544"/>
   <tile gid="5545"/>
   <tile gid="5544"/>
   <tile gid="5545"/>
   <tile gid="5544"/>
   <tile gid="5545"/>
   <tile gid="5544"/>
   <tile gid="5545"/>
   <tile gid="5544"/>
   <tile gid="5545"/>
   <tile gid="5544"/>
   <tile gid="5545"/>
   <tile gid="5544"/>
   <tile gid="5545"/>
   <tile gid="5544"/>
   <tile gid="5545"/>
   <tile gid="5544"/>
   <tile gid="5545"/>
   <tile gid="5544"/>
   <tile gid="5545"/>
   <tile gid="5544"/>
   <tile gid="5545"/>
   <tile gid="5544"/>
   <tile gid="5545"/>
   <tile gid="5544"/>
   <tile gid="5545"/>
   <tile gid="5994"/>
   <tile gid="5995"/>
   <tile gid="5996"/>
   <tile gid="5997"/>
   <tile gid="5998"/>
   <tile gid="5999"/>
   <tile gid="5544"/>
   <tile gid="5545"/>
   <tile gid="5544"/>
   <tile gid="5545"/>
   <tile gid="5544"/>
   <tile gid="5545"/>
   <tile gid="5544"/>
   <tile gid="5545"/>
   <tile gid="5544"/>
   <tile gid="5545"/>
   <tile gid="5544"/>
   <tile gid="5545"/>
   <tile gid="5544"/>
   <tile gid="5545"/>
   <tile gid="5544"/>
   <tile gid="5545"/>
   <tile gid="5544"/>
   <tile gid="5545"/>
   <tile gid="5544"/>
   <tile gid="5545"/>
   <tile gid="5544"/>
   <tile gid="5545"/>
   <tile gid="5544"/>
   <tile gid="5545"/>
   <tile gid="5544"/>
   <tile gid="5545"/>
   <tile gid="5544"/>
   <tile gid="5545"/>
   <tile gid="5544"/>
   <tile gid="5545"/>
   <tile gid="5544"/>
   <tile gid="5545"/>
   <tile gid="5544"/>
   <tile gid="5545"/>
   <tile gid="5544"/>
   <tile gid="5545"/>
   <tile gid="5544"/>
   <tile gid="5545"/>
   <tile gid="5544"/>
   <tile gid="5545"/>
   <tile gid="5544"/>
   <tile/>
   <tile/>
   <tile/>
   <tile/>
   <tile/>
   <tile/>
   <tile/>
   <tile/>
   <tile/>
   <tile/>
   <tile/>
   <tile/>
   <tile gid="5545"/>
   <tile gid="5544"/>
   <tile gid="5545"/>
   <tile gid="5544"/>
   <tile gid="5609"/>
   <tile gid="5608"/>
   <tile gid="5609"/>
   <tile gid="5608"/>
   <tile gid="5609"/>
   <tile/>
   <tile/>
   <tile/>
   <tile/>
   <tile/>
   <tile/>
   <tile/>
   <tile/>
   <tile/>
   <tile gid="5609"/>
   <tile gid="5608"/>
   <tile gid="5609"/>
   <tile gid="5608"/>
   <tile gid="5609"/>
   <tile gid="5608"/>
   <tile gid="5609"/>
   <tile gid="5608"/>
   <tile gid="5609"/>
   <tile gid="5608"/>
   <tile gid="5609"/>
   <tile gid="5608"/>
   <tile gid="5609"/>
   <tile gid="5608"/>
   <tile gid="5609"/>
   <tile gid="5608"/>
   <tile gid="5609"/>
   <tile gid="5608"/>
   <tile gid="5609"/>
   <tile gid="5608"/>
   <tile gid="5609"/>
   <tile gid="5608"/>
   <tile gid="5609"/>
   <tile gid="5608"/>
   <tile gid="5609"/>
   <tile gid="5608"/>
   <tile gid="5609"/>
   <tile gid="5608"/>
   <tile gid="5609"/>
   <tile gid="5608"/>
   <tile gid="5609"/>
   <tile gid="5608"/>
   <tile gid="5609"/>
   <tile gid="5608"/>
   <tile gid="5609"/>
   <tile gid="5608"/>
   <tile gid="5609"/>
   <tile gid="5608"/>
   <tile gid="5609"/>
   <tile gid="5608"/>
   <tile gid="5609"/>
   <tile gid="5608"/>
   <tile gid="5609"/>
   <tile gid="5608"/>
   <tile gid="5609"/>
   <tile gid="5608"/>
   <tile gid="5609"/>
   <tile gid="5608"/>
   <tile gid="5609"/>
   <tile gid="5608"/>
   <tile gid="5609"/>
   <tile gid="5608"/>
   <tile gid="5609"/>
   <tile gid="5608"/>
   <tile gid="5609"/>
   <tile gid="5608"/>
   <tile gid="5609"/>
   <tile gid="5608"/>
   <tile gid="5609"/>
   <tile gid="5608"/>
   <tile gid="5609"/>
   <tile gid="5608"/>
   <tile gid="5609"/>
   <tile gid="5608"/>
   <tile gid="5609"/>
   <tile gid="5608"/>
   <tile gid="5609"/>
   <tile gid="5608"/>
   <tile gid="5609"/>
   <tile gid="5608"/>
   <tile gid="5609"/>
   <tile gid="5608"/>
   <tile gid="5609"/>
   <tile gid="5608"/>
   <tile gid="5609"/>
   <tile gid="5608"/>
   <tile gid="5609"/>
   <tile gid="5608"/>
   <tile gid="5609"/>
   <tile gid="5608"/>
   <tile gid="5609"/>
   <tile gid="5608"/>
   <tile gid="5609"/>
   <tile gid="5608"/>
   <tile gid="5609"/>
   <tile gid="5608"/>
   <tile gid="5609"/>
   <tile gid="5608"/>
   <tile gid="5609"/>
   <tile gid="5608"/>
   <tile/>
   <tile/>
   <tile/>
   <tile/>
   <tile/>
   <tile/>
   <tile/>
   <tile/>
   <tile/>
   <tile/>
   <tile/>
   <tile/>
   <tile gid="5609"/>
   <tile gid="5608"/>
   <tile gid="5609"/>
   <tile gid="5608"/>
   <tile gid="5545"/>
   <tile gid="5544"/>
   <tile gid="5545"/>
   <tile gid="5544"/>
   <tile gid="5545"/>
   <tile/>
   <tile/>
   <tile/>
   <tile/>
   <tile/>
   <tile/>
   <tile/>
   <tile/>
   <tile/>
   <tile gid="5545"/>
   <tile gid="5544"/>
   <tile gid="5545"/>
   <tile gid="5544"/>
   <tile gid="5545"/>
   <tile gid="5544"/>
   <tile gid="5545"/>
   <tile gid="5544"/>
   <tile gid="5545"/>
   <tile gid="5544"/>
   <tile gid="5545"/>
   <tile gid="5544"/>
   <tile gid="5545"/>
   <tile gid="5544"/>
   <tile gid="5545"/>
   <tile gid="5544"/>
   <tile gid="5545"/>
   <tile gid="5544"/>
   <tile gid="5545"/>
   <tile gid="5544"/>
   <tile gid="5545"/>
   <tile gid="5544"/>
   <tile gid="5545"/>
   <tile gid="5544"/>
   <tile gid="5545"/>
   <tile gid="5544"/>
   <tile gid="5545"/>
   <tile gid="5544"/>
   <tile gid="5545"/>
   <tile gid="5544"/>
   <tile gid="5545"/>
   <tile gid="5544"/>
   <tile gid="5545"/>
   <tile gid="5544"/>
   <tile gid="5545"/>
   <tile gid="5544"/>
   <tile gid="5545"/>
   <tile gid="5544"/>
   <tile gid="5545"/>
   <tile gid="5544"/>
   <tile gid="5545"/>
   <tile gid="5544"/>
   <tile gid="5545"/>
   <tile gid="5544"/>
   <tile gid="5545"/>
   <tile gid="5544"/>
   <tile gid="5545"/>
   <tile gid="5544"/>
   <tile gid="5545"/>
   <tile gid="5544"/>
   <tile gid="5545"/>
   <tile gid="5544"/>
   <tile gid="5545"/>
   <tile gid="5544"/>
   <tile gid="5545"/>
   <tile gid="5544"/>
   <tile gid="5545"/>
   <tile gid="5544"/>
   <tile gid="5545"/>
   <tile gid="5544"/>
   <tile gid="5545"/>
   <tile gid="5544"/>
   <tile gid="5545"/>
   <tile gid="5544"/>
   <tile gid="5545"/>
   <tile gid="5544"/>
   <tile gid="5545"/>
   <tile gid="5544"/>
   <tile gid="5545"/>
   <tile gid="5544"/>
   <tile gid="5545"/>
   <tile gid="5544"/>
   <tile gid="5545"/>
   <tile gid="5544"/>
   <tile gid="5545"/>
   <tile gid="5544"/>
   <tile gid="5545"/>
   <tile gid="5544"/>
   <tile gid="5545"/>
   <tile gid="5544"/>
   <tile gid="5545"/>
   <tile gid="5544"/>
   <tile gid="5545"/>
   <tile gid="5544"/>
   <tile gid="5545"/>
   <tile gid="5544"/>
   <tile gid="5545"/>
   <tile gid="5544"/>
   <tile gid="5545"/>
   <tile gid="5544"/>
   <tile/>
   <tile/>
   <tile/>
   <tile/>
   <tile/>
   <tile gid="5544"/>
   <tile gid="5545"/>
   <tile gid="5544"/>
   <tile gid="5545"/>
   <tile gid="5544"/>
   <tile gid="5545"/>
   <tile gid="5544"/>
   <tile gid="5545"/>
   <tile gid="5544"/>
   <tile gid="5545"/>
   <tile gid="5544"/>
   <tile gid="5609"/>
   <tile gid="5608"/>
   <tile gid="5609"/>
   <tile gid="5608"/>
   <tile gid="5609"/>
   <tile gid="5608"/>
   <tile/>
   <tile/>
   <tile/>
   <tile/>
   <tile/>
   <tile/>
   <tile/>
   <tile gid="5608"/>
   <tile gid="5609"/>
   <tile gid="5608"/>
   <tile gid="5609"/>
   <tile gid="5608"/>
   <tile gid="5609"/>
   <tile gid="5608"/>
   <tile gid="5609"/>
   <tile gid="5608"/>
   <tile gid="5609"/>
   <tile gid="5608"/>
   <tile gid="5609"/>
   <tile gid="5608"/>
   <tile gid="5609"/>
   <tile gid="5608"/>
   <tile gid="5609"/>
   <tile gid="5608"/>
   <tile gid="5609"/>
   <tile gid="5608"/>
   <tile gid="5609"/>
   <tile gid="5608"/>
   <tile gid="5609"/>
   <tile gid="5608"/>
   <tile gid="5609"/>
   <tile gid="5608"/>
   <tile gid="5609"/>
   <tile gid="5608"/>
   <tile gid="5609"/>
   <tile gid="5608"/>
   <tile gid="5609"/>
   <tile gid="5608"/>
   <tile gid="5609"/>
   <tile gid="5608"/>
   <tile gid="5609"/>
   <tile gid="5608"/>
   <tile gid="5609"/>
   <tile gid="5608"/>
   <tile gid="5609"/>
   <tile gid="5608"/>
   <tile gid="5609"/>
   <tile gid="5608"/>
   <tile gid="5609"/>
   <tile gid="5608"/>
   <tile gid="5609"/>
   <tile gid="5608"/>
   <tile gid="5609"/>
   <tile gid="5608"/>
   <tile gid="5609"/>
   <tile gid="5608"/>
   <tile gid="5609"/>
   <tile gid="5608"/>
   <tile gid="5609"/>
   <tile gid="5608"/>
   <tile gid="5609"/>
   <tile gid="5608"/>
   <tile gid="5609"/>
   <tile gid="5608"/>
   <tile gid="5609"/>
   <tile gid="5608"/>
   <tile gid="5609"/>
   <tile gid="5608"/>
   <tile gid="5609"/>
   <tile gid="5608"/>
   <tile gid="5609"/>
   <tile gid="5608"/>
   <tile gid="5609"/>
   <tile gid="5608"/>
   <tile gid="5609"/>
   <tile gid="5608"/>
   <tile gid="5609"/>
   <tile gid="5608"/>
   <tile gid="5609"/>
   <tile gid="5608"/>
   <tile gid="5609"/>
   <tile gid="5608"/>
   <tile gid="5609"/>
   <tile gid="5608"/>
   <tile gid="5609"/>
   <tile gid="5608"/>
   <tile gid="5609"/>
   <tile gid="5608"/>
   <tile gid="5609"/>
   <tile gid="5608"/>
   <tile gid="5609"/>
   <tile gid="5608"/>
   <tile gid="5609"/>
   <tile gid="5608"/>
   <tile gid="5609"/>
   <tile gid="5608"/>
   <tile gid="5609"/>
   <tile gid="5608"/>
   <tile gid="5609"/>
   <tile/>
   <tile/>
   <tile/>
   <tile gid="5609"/>
   <tile gid="5608"/>
   <tile gid="5609"/>
   <tile gid="5608"/>
   <tile gid="5609"/>
   <tile gid="5608"/>
   <tile gid="5609"/>
   <tile gid="5608"/>
   <tile gid="5609"/>
   <tile gid="5608"/>
   <tile gid="5609"/>
   <tile gid="5608"/>
   <tile gid="5545"/>
   <tile gid="5544"/>
   <tile gid="5545"/>
   <tile gid="5544"/>
   <tile gid="5545"/>
   <tile gid="5544"/>
   <tile gid="5545"/>
   <tile gid="5544"/>
   <tile gid="5545"/>
   <tile gid="5544"/>
   <tile gid="5545"/>
   <tile gid="5544"/>
   <tile gid="5545"/>
   <tile gid="5544"/>
   <tile gid="5545"/>
   <tile gid="5544"/>
   <tile gid="5545"/>
   <tile gid="5544"/>
   <tile gid="5545"/>
   <tile gid="5544"/>
   <tile gid="5545"/>
   <tile gid="5544"/>
   <tile gid="5545"/>
   <tile gid="5544"/>
   <tile gid="5545"/>
   <tile gid="5544"/>
   <tile gid="5545"/>
   <tile gid="5544"/>
   <tile gid="5545"/>
   <tile gid="5544"/>
   <tile gid="5545"/>
   <tile gid="5544"/>
   <tile gid="5545"/>
   <tile gid="5544"/>
   <tile gid="5545"/>
   <tile gid="5544"/>
   <tile gid="5545"/>
   <tile gid="5544"/>
   <tile gid="5545"/>
   <tile gid="5544"/>
   <tile gid="5545"/>
   <tile gid="5544"/>
   <tile gid="5545"/>
   <tile gid="5544"/>
   <tile gid="5545"/>
   <tile gid="5544"/>
   <tile gid="5545"/>
   <tile gid="5544"/>
   <tile gid="5545"/>
   <tile gid="5544"/>
   <tile gid="5545"/>
   <tile gid="5544"/>
   <tile gid="5545"/>
   <tile gid="5544"/>
   <tile gid="5545"/>
   <tile gid="5544"/>
   <tile gid="5545"/>
   <tile gid="5544"/>
   <tile gid="5545"/>
   <tile gid="5544"/>
   <tile gid="5545"/>
   <tile gid="5544"/>
   <tile gid="5545"/>
   <tile gid="5544"/>
   <tile gid="5545"/>
   <tile gid="5544"/>
   <tile gid="5545"/>
   <tile gid="5544"/>
   <tile gid="5545"/>
   <tile gid="5544"/>
   <tile gid="5545"/>
   <tile gid="5544"/>
   <tile gid="5545"/>
   <tile gid="5544"/>
   <tile gid="5545"/>
   <tile gid="5544"/>
   <tile gid="5545"/>
   <tile gid="5544"/>
   <tile gid="5545"/>
   <tile gid="5544"/>
   <tile gid="5545"/>
   <tile gid="5544"/>
   <tile gid="5545"/>
   <tile gid="5544"/>
   <tile gid="5545"/>
   <tile gid="5544"/>
   <tile gid="5545"/>
   <tile gid="5544"/>
   <tile gid="5545"/>
   <tile gid="5544"/>
   <tile gid="5545"/>
   <tile gid="5544"/>
   <tile gid="5545"/>
   <tile gid="5544"/>
   <tile gid="5545"/>
   <tile gid="5544"/>
   <tile gid="5545"/>
   <tile gid="5544"/>
   <tile gid="5545"/>
   <tile gid="5544"/>
   <tile gid="5545"/>
   <tile gid="5544"/>
   <tile gid="5545"/>
   <tile gid="5544"/>
   <tile gid="5545"/>
   <tile gid="5544"/>
   <tile gid="5545"/>
   <tile gid="5544"/>
   <tile gid="5545"/>
   <tile gid="5544"/>
   <tile gid="5545"/>
   <tile gid="5544"/>
   <tile gid="5545"/>
   <tile gid="5544"/>
   <tile gid="5545"/>
   <tile gid="5544"/>
   <tile gid="5545"/>
   <tile gid="5544"/>
   <tile gid="5545"/>
   <tile gid="5544"/>
   <tile/>
   <tile/>
   <tile/>
   <tile/>
   <tile/>
   <tile/>
   <tile/>
   <tile/>
   <tile/>
   <tile/>
   <tile/>
   <tile/>
   <tile/>
   <tile/>
   <tile/>
   <tile/>
   <tile/>
   <tile/>
   <tile/>
   <tile/>
   <tile/>
   <tile/>
   <tile/>
   <tile/>
   <tile/>
   <tile/>
   <tile/>
   <tile/>
   <tile/>
   <tile/>
   <tile/>
   <tile/>
   <tile/>
   <tile/>
   <tile/>
   <tile/>
   <tile/>
   <tile/>
   <tile/>
   <tile/>
   <tile/>
   <tile/>
   <tile/>
   <tile/>
   <tile/>
   <tile/>
   <tile/>
   <tile/>
   <tile/>
   <tile/>
   <tile/>
   <tile/>
   <tile/>
   <tile/>
   <tile/>
   <tile/>
   <tile/>
   <tile/>
   <tile/>
   <tile/>
   <tile/>
   <tile/>
   <tile/>
   <tile/>
   <tile/>
   <tile/>
   <tile/>
   <tile/>
   <tile/>
   <tile/>
   <tile/>
   <tile/>
   <tile/>
   <tile/>
   <tile/>
   <tile/>
   <tile/>
   <tile/>
   <tile/>
   <tile/>
   <tile/>
   <tile/>
   <tile/>
   <tile/>
   <tile/>
   <tile/>
   <tile/>
   <tile/>
   <tile/>
   <tile/>
   <tile/>
   <tile/>
   <tile/>
   <tile/>
   <tile/>
   <tile/>
   <tile/>
   <tile/>
   <tile/>
   <tile/>
   <tile/>
   <tile/>
   <tile/>
   <tile/>
   <tile/>
   <tile/>
   <tile/>
   <tile/>
   <tile/>
   <tile/>
   <tile/>
   <tile/>
   <tile/>
   <tile/>
   <tile/>
   <tile/>
   <tile/>
   <tile/>
   <tile/>
   <tile/>
   <tile/>
   <tile/>
   <tile/>
   <tile/>
   <tile/>
   <tile/>
   <tile/>
   <tile/>
   <tile/>
   <tile/>
   <tile/>
   <tile/>
   <tile/>
   <tile/>
   <tile/>
   <tile/>
   <tile/>
   <tile/>
   <tile/>
   <tile/>
   <tile/>
   <tile/>
   <tile/>
   <tile/>
   <tile/>
   <tile/>
   <tile/>
   <tile/>
   <tile/>
   <tile/>
   <tile/>
   <tile/>
   <tile/>
   <tile/>
   <tile/>
   <tile/>
   <tile/>
   <tile/>
   <tile/>
   <tile/>
   <tile/>
   <tile/>
   <tile/>
   <tile/>
   <tile/>
   <tile/>
   <tile/>
   <tile/>
   <tile/>
   <tile/>
   <tile/>
   <tile/>
   <tile/>
   <tile/>
   <tile/>
   <tile/>
   <tile/>
   <tile/>
   <tile/>
   <tile/>
   <tile/>
   <tile/>
   <tile/>
   <tile/>
   <tile/>
   <tile/>
   <tile/>
   <tile/>
   <tile/>
   <tile/>
   <tile/>
   <tile/>
   <tile/>
   <tile/>
   <tile/>
   <tile/>
   <tile/>
   <tile/>
   <tile/>
   <tile/>
   <tile/>
   <tile/>
   <tile/>
   <tile/>
   <tile/>
   <tile/>
   <tile/>
   <tile/>
   <tile/>
   <tile/>
   <tile/>
   <tile/>
   <tile/>
   <tile/>
   <tile/>
   <tile/>
   <tile/>
   <tile/>
   <tile/>
   <tile/>
   <tile/>
   <tile/>
   <tile/>
   <tile/>
   <tile/>
   <tile/>
   <tile/>
   <tile/>
   <tile/>
   <tile/>
   <tile/>
   <tile/>
   <tile/>
   <tile/>
   <tile/>
   <tile/>
   <tile/>
   <tile/>
   <tile/>
   <tile/>
   <tile/>
   <tile/>
   <tile/>
   <tile/>
   <tile/>
   <tile/>
   <tile/>
   <tile/>
   <tile/>
   <tile/>
   <tile/>
   <tile/>
   <tile/>
   <tile/>
   <tile/>
   <tile/>
   <tile/>
   <tile/>
   <tile/>
   <tile/>
   <tile/>
   <tile/>
   <tile/>
   <tile/>
   <tile/>
   <tile/>
   <tile/>
   <tile/>
   <tile/>
   <tile/>
   <tile/>
   <tile/>
   <tile/>
   <tile/>
   <tile/>
   <tile/>
   <tile/>
   <tile/>
   <tile/>
   <tile/>
   <tile/>
   <tile/>
   <tile/>
   <tile/>
   <tile/>
   <tile/>
   <tile/>
   <tile/>
   <tile/>
   <tile/>
   <tile/>
   <tile/>
   <tile/>
   <tile/>
   <tile/>
   <tile/>
   <tile/>
   <tile/>
   <tile/>
   <tile/>
   <tile/>
   <tile/>
   <tile/>
   <tile/>
   <tile/>
   <tile/>
   <tile/>
   <tile/>
   <tile/>
   <tile/>
   <tile/>
   <tile/>
   <tile/>
   <tile/>
   <tile/>
   <tile/>
   <tile/>
   <tile/>
   <tile/>
   <tile/>
   <tile/>
   <tile/>
   <tile/>
   <tile/>
   <tile/>
   <tile/>
   <tile/>
   <tile/>
   <tile/>
   <tile/>
   <tile/>
   <tile/>
   <tile/>
   <tile/>
   <tile/>
   <tile/>
   <tile/>
   <tile/>
   <tile/>
   <tile/>
   <tile/>
   <tile/>
   <tile/>
   <tile/>
   <tile/>
   <tile/>
   <tile/>
   <tile/>
   <tile/>
   <tile/>
   <tile/>
   <tile/>
   <tile/>
   <tile/>
   <tile/>
   <tile/>
   <tile/>
   <tile/>
   <tile/>
   <tile/>
   <tile/>
   <tile/>
   <tile/>
   <tile/>
   <tile/>
   <tile/>
   <tile/>
   <tile/>
   <tile/>
   <tile/>
   <tile/>
   <tile/>
   <tile/>
   <tile/>
   <tile/>
   <tile/>
   <tile/>
   <tile/>
   <tile/>
   <tile/>
   <tile/>
   <tile/>
   <tile/>
   <tile/>
   <tile/>
   <tile/>
   <tile/>
   <tile/>
   <tile/>
   <tile/>
   <tile/>
   <tile/>
   <tile/>
   <tile/>
   <tile/>
   <tile/>
   <tile/>
   <tile/>
   <tile/>
   <tile/>
   <tile/>
   <tile/>
   <tile/>
   <tile/>
   <tile/>
   <tile/>
   <tile/>
   <tile/>
   <tile/>
   <tile/>
   <tile/>
   <tile/>
   <tile/>
   <tile/>
   <tile/>
   <tile/>
   <tile/>
   <tile/>
   <tile/>
   <tile/>
   <tile/>
   <tile/>
   <tile/>
   <tile/>
   <tile/>
   <tile/>
   <tile/>
   <tile/>
   <tile/>
   <tile/>
   <tile/>
   <tile/>
   <tile/>
   <tile/>
   <tile/>
   <tile/>
   <tile/>
   <tile/>
   <tile/>
   <tile/>
   <tile/>
   <tile/>
   <tile/>
   <tile/>
   <tile/>
   <tile/>
   <tile/>
   <tile/>
   <tile/>
   <tile/>
   <tile/>
   <tile/>
   <tile/>
   <tile/>
   <tile/>
   <tile/>
   <tile/>
   <tile/>
   <tile/>
   <tile/>
   <tile/>
   <tile/>
   <tile/>
   <tile/>
   <tile/>
   <tile/>
   <tile/>
   <tile/>
   <tile/>
   <tile/>
   <tile/>
   <tile/>
   <tile/>
   <tile/>
   <tile/>
   <tile/>
   <tile/>
   <tile/>
   <tile/>
   <tile/>
   <tile/>
   <tile/>
   <tile/>
   <tile/>
   <tile/>
   <tile/>
   <tile/>
   <tile/>
   <tile/>
   <tile/>
   <tile/>
   <tile/>
   <tile/>
   <tile/>
   <tile/>
   <tile/>
   <tile/>
   <tile/>
   <tile/>
   <tile/>
   <tile/>
   <tile/>
   <tile/>
   <tile/>
   <tile/>
   <tile/>
   <tile/>
   <tile/>
   <tile/>
   <tile/>
   <tile/>
   <tile/>
   <tile/>
   <tile/>
   <tile/>
   <tile/>
   <tile/>
   <tile/>
   <tile/>
   <tile/>
   <tile/>
   <tile/>
   <tile/>
   <tile/>
   <tile/>
   <tile/>
   <tile/>
   <tile/>
   <tile/>
   <tile/>
   <tile/>
   <tile/>
   <tile/>
   <tile/>
   <tile/>
   <tile/>
   <tile/>
   <tile/>
   <tile/>
   <tile/>
   <tile/>
   <tile/>
   <tile/>
   <tile/>
   <tile/>
   <tile/>
   <tile/>
   <tile/>
   <tile/>
   <tile/>
   <tile/>
   <tile/>
   <tile/>
   <tile/>
   <tile/>
   <tile/>
   <tile/>
   <tile/>
   <tile/>
   <tile/>
   <tile/>
   <tile/>
   <tile/>
   <tile/>
   <tile/>
   <tile/>
   <tile/>
   <tile/>
   <tile/>
   <tile/>
   <tile/>
   <tile/>
   <tile/>
   <tile/>
   <tile/>
   <tile/>
   <tile/>
   <tile/>
   <tile/>
   <tile/>
   <tile/>
   <tile/>
   <tile/>
   <tile/>
   <tile/>
   <tile/>
   <tile/>
   <tile/>
   <tile/>
   <tile/>
   <tile/>
   <tile/>
   <tile/>
   <tile/>
   <tile/>
   <tile/>
   <tile/>
   <tile/>
   <tile/>
   <tile/>
   <tile/>
   <tile/>
   <tile/>
   <tile/>
   <tile/>
   <tile/>
   <tile/>
   <tile/>
   <tile/>
   <tile/>
   <tile/>
   <tile/>
   <tile/>
   <tile/>
   <tile/>
   <tile/>
   <tile/>
   <tile/>
   <tile/>
   <tile/>
   <tile/>
   <tile/>
   <tile/>
   <tile/>
   <tile/>
   <tile/>
   <tile/>
   <tile/>
   <tile/>
   <tile/>
   <tile/>
   <tile/>
   <tile/>
   <tile/>
   <tile/>
   <tile/>
   <tile/>
   <tile/>
   <tile/>
   <tile/>
   <tile/>
   <tile/>
   <tile/>
   <tile/>
   <tile/>
   <tile/>
   <tile/>
   <tile/>
   <tile/>
   <tile/>
   <tile/>
   <tile/>
   <tile/>
   <tile/>
   <tile/>
   <tile/>
   <tile/>
   <tile/>
   <tile/>
   <tile/>
   <tile/>
   <tile/>
   <tile/>
   <tile/>
   <tile/>
   <tile/>
   <tile/>
   <tile/>
   <tile/>
   <tile/>
   <tile/>
   <tile/>
   <tile/>
   <tile/>
   <tile/>
   <tile/>
   <tile/>
   <tile/>
   <tile/>
   <tile/>
   <tile/>
   <tile/>
   <tile/>
   <tile/>
   <tile/>
   <tile/>
   <tile/>
   <tile/>
   <tile/>
   <tile/>
   <tile/>
   <tile/>
   <tile/>
   <tile/>
   <tile/>
   <tile/>
   <tile/>
   <tile/>
   <tile/>
   <tile/>
   <tile/>
   <tile/>
   <tile/>
   <tile/>
   <tile/>
   <tile/>
   <tile/>
   <tile/>
   <tile/>
   <tile/>
   <tile/>
   <tile/>
   <tile/>
   <tile/>
   <tile/>
   <tile/>
   <tile/>
   <tile/>
   <tile/>
   <tile/>
   <tile/>
   <tile/>
   <tile/>
   <tile/>
   <tile/>
   <tile/>
   <tile/>
   <tile/>
   <tile/>
   <tile/>
   <tile/>
   <tile/>
   <tile/>
   <tile/>
   <tile/>
   <tile/>
   <tile/>
   <tile/>
   <tile/>
   <tile/>
   <tile/>
   <tile/>
   <tile/>
   <tile/>
   <tile/>
   <tile/>
   <tile/>
   <tile/>
   <tile/>
   <tile/>
   <tile/>
   <tile/>
   <tile/>
   <tile/>
   <tile/>
   <tile/>
   <tile/>
   <tile/>
   <tile/>
   <tile/>
   <tile/>
   <tile/>
   <tile/>
   <tile/>
   <tile/>
   <tile/>
   <tile/>
   <tile/>
   <tile/>
   <tile/>
   <tile/>
   <tile/>
   <tile/>
   <tile/>
   <tile/>
   <tile/>
   <tile/>
   <tile/>
   <tile/>
   <tile/>
   <tile/>
   <tile/>
   <tile/>
   <tile/>
   <tile/>
   <tile/>
   <tile/>
   <tile/>
   <tile/>
   <tile/>
   <tile/>
   <tile/>
   <tile/>
   <tile/>
   <tile/>
   <tile/>
   <tile/>
   <tile/>
   <tile/>
   <tile/>
   <tile/>
   <tile/>
   <tile/>
   <tile/>
   <tile/>
   <tile/>
   <tile/>
   <tile/>
   <tile/>
   <tile/>
   <tile/>
   <tile/>
   <tile/>
   <tile/>
   <tile/>
   <tile/>
   <tile/>
   <tile/>
   <tile/>
   <tile/>
   <tile/>
   <tile/>
   <tile/>
   <tile/>
   <tile/>
   <tile/>
   <tile/>
   <tile/>
   <tile/>
   <tile/>
   <tile/>
   <tile/>
   <tile/>
   <tile/>
   <tile/>
   <tile/>
   <tile/>
   <tile/>
   <tile/>
   <tile/>
   <tile/>
   <tile/>
   <tile/>
   <tile/>
   <tile/>
   <tile/>
   <tile/>
   <tile/>
   <tile/>
   <tile/>
   <tile/>
   <tile/>
   <tile/>
   <tile/>
   <tile/>
   <tile/>
   <tile/>
   <tile/>
   <tile/>
   <tile/>
   <tile/>
   <tile/>
   <tile/>
   <tile/>
   <tile/>
   <tile/>
   <tile/>
   <tile/>
   <tile/>
   <tile/>
   <tile/>
   <tile/>
   <tile/>
   <tile/>
   <tile/>
   <tile/>
   <tile/>
   <tile/>
   <tile/>
   <tile/>
   <tile/>
   <tile/>
   <tile/>
   <tile/>
   <tile/>
   <tile/>
   <tile/>
   <tile/>
   <tile/>
   <tile/>
   <tile/>
   <tile/>
   <tile/>
   <tile/>
   <tile/>
   <tile/>
   <tile/>
   <tile/>
   <tile/>
   <tile/>
   <tile/>
   <tile/>
   <tile/>
   <tile/>
   <tile/>
   <tile/>
   <tile/>
   <tile/>
   <tile/>
   <tile/>
   <tile/>
   <tile/>
   <tile/>
   <tile/>
   <tile/>
   <tile/>
   <tile/>
   <tile/>
   <tile/>
   <tile/>
   <tile/>
   <tile/>
   <tile/>
   <tile/>
   <tile/>
   <tile/>
   <tile/>
   <tile/>
   <tile/>
   <tile/>
   <tile/>
   <tile/>
   <tile/>
   <tile/>
   <tile/>
   <tile/>
   <tile/>
   <tile/>
   <tile/>
   <tile/>
   <tile/>
   <tile/>
   <tile/>
   <tile/>
   <tile/>
   <tile/>
   <tile/>
   <tile/>
   <tile/>
   <tile/>
   <tile/>
   <tile/>
   <tile/>
   <tile/>
   <tile/>
   <tile/>
   <tile/>
   <tile/>
   <tile/>
   <tile/>
   <tile/>
   <tile/>
   <tile/>
   <tile/>
   <tile/>
   <tile/>
   <tile/>
   <tile/>
   <tile/>
   <tile/>
   <tile/>
   <tile/>
   <tile/>
   <tile/>
   <tile/>
   <tile/>
   <tile/>
   <tile/>
   <tile/>
   <tile/>
   <tile/>
   <tile/>
   <tile/>
   <tile/>
   <tile/>
   <tile/>
   <tile/>
   <tile/>
   <tile/>
   <tile/>
   <tile/>
   <tile/>
   <tile/>
   <tile/>
   <tile/>
   <tile/>
   <tile/>
   <tile/>
   <tile/>
   <tile/>
   <tile/>
   <tile/>
   <tile/>
   <tile/>
   <tile/>
   <tile/>
   <tile/>
   <tile/>
   <tile/>
   <tile/>
   <tile/>
   <tile/>
   <tile/>
   <tile/>
   <tile/>
   <tile/>
   <tile/>
   <tile/>
   <tile/>
   <tile/>
   <tile/>
   <tile/>
   <tile/>
   <tile/>
   <tile/>
   <tile/>
   <tile/>
   <tile/>
   <tile/>
   <tile/>
   <tile/>
   <tile/>
   <tile/>
   <tile/>
   <tile/>
   <tile/>
   <tile/>
   <tile/>
   <tile/>
   <tile/>
   <tile/>
   <tile/>
   <tile/>
   <tile/>
   <tile/>
   <tile/>
   <tile/>
   <tile/>
   <tile/>
   <tile/>
   <tile/>
   <tile/>
   <tile/>
   <tile/>
   <tile/>
   <tile/>
   <tile/>
   <tile/>
   <tile/>
   <tile/>
   <tile/>
   <tile/>
   <tile/>
   <tile/>
   <tile/>
   <tile/>
   <tile/>
   <tile/>
   <tile/>
   <tile/>
   <tile/>
   <tile/>
   <tile/>
   <tile/>
   <tile/>
   <tile/>
   <tile/>
   <tile/>
   <tile/>
   <tile/>
   <tile/>
   <tile/>
   <tile/>
   <tile/>
   <tile/>
   <tile/>
   <tile/>
   <tile/>
   <tile/>
   <tile/>
   <tile/>
   <tile/>
   <tile/>
   <tile/>
   <tile/>
   <tile/>
   <tile/>
   <tile/>
   <tile/>
   <tile/>
   <tile/>
   <tile/>
   <tile/>
   <tile/>
   <tile/>
   <tile/>
   <tile/>
   <tile/>
   <tile/>
   <tile/>
   <tile/>
   <tile/>
   <tile/>
   <tile/>
   <tile/>
   <tile/>
   <tile/>
   <tile/>
   <tile/>
   <tile/>
   <tile/>
   <tile/>
   <tile/>
   <tile/>
   <tile/>
   <tile/>
   <tile/>
   <tile/>
   <tile/>
   <tile/>
   <tile/>
   <tile/>
   <tile/>
   <tile/>
   <tile/>
   <tile/>
   <tile/>
   <tile/>
   <tile/>
   <tile/>
   <tile/>
   <tile/>
   <tile/>
   <tile/>
   <tile/>
   <tile/>
   <tile/>
   <tile/>
   <tile/>
   <tile/>
   <tile/>
   <tile/>
   <tile/>
   <tile/>
   <tile/>
   <tile/>
   <tile/>
   <tile/>
   <tile/>
   <tile/>
   <tile/>
   <tile/>
   <tile/>
   <tile/>
   <tile/>
   <tile/>
   <tile/>
   <tile/>
   <tile/>
   <tile/>
   <tile/>
   <tile/>
   <tile/>
   <tile/>
   <tile/>
   <tile/>
   <tile/>
   <tile/>
   <tile/>
   <tile/>
   <tile/>
   <tile/>
   <tile/>
   <tile/>
   <tile/>
   <tile/>
   <tile/>
   <tile/>
   <tile/>
   <tile/>
   <tile/>
   <tile/>
   <tile/>
   <tile/>
   <tile/>
   <tile/>
   <tile/>
   <tile/>
   <tile/>
   <tile/>
   <tile/>
   <tile/>
   <tile/>
   <tile/>
   <tile/>
   <tile/>
   <tile/>
   <tile/>
   <tile/>
   <tile/>
   <tile/>
   <tile/>
   <tile/>
   <tile/>
   <tile/>
   <tile/>
   <tile/>
   <tile/>
   <tile/>
   <tile/>
   <tile/>
   <tile/>
   <tile/>
   <tile/>
   <tile/>
   <tile/>
   <tile/>
   <tile/>
   <tile/>
   <tile/>
   <tile/>
   <tile/>
   <tile/>
   <tile/>
   <tile/>
   <tile/>
   <tile/>
   <tile/>
   <tile/>
   <tile/>
   <tile/>
   <tile/>
   <tile/>
   <tile/>
   <tile/>
   <tile/>
   <tile/>
   <tile/>
   <tile/>
   <tile/>
   <tile/>
   <tile/>
   <tile/>
   <tile/>
   <tile/>
   <tile/>
   <tile/>
   <tile/>
   <tile/>
   <tile/>
   <tile/>
   <tile/>
   <tile/>
   <tile/>
   <tile/>
   <tile/>
   <tile/>
   <tile/>
   <tile/>
   <tile/>
   <tile/>
   <tile/>
   <tile/>
   <tile/>
   <tile/>
   <tile/>
   <tile/>
   <tile/>
   <tile/>
   <tile/>
   <tile/>
   <tile/>
   <tile/>
   <tile/>
   <tile/>
   <tile/>
   <tile/>
   <tile/>
   <tile/>
   <tile/>
   <tile/>
   <tile/>
   <tile/>
   <tile/>
   <tile/>
   <tile/>
   <tile/>
   <tile/>
   <tile/>
   <tile/>
   <tile/>
   <tile/>
   <tile/>
   <tile/>
   <tile/>
   <tile/>
   <tile/>
   <tile/>
   <tile/>
   <tile/>
   <tile/>
   <tile/>
   <tile/>
   <tile/>
   <tile/>
   <tile/>
   <tile/>
   <tile/>
   <tile/>
   <tile/>
   <tile/>
   <tile/>
   <tile/>
   <tile/>
   <tile/>
   <tile/>
   <tile/>
   <tile/>
   <tile/>
   <tile/>
   <tile/>
   <tile/>
   <tile/>
   <tile/>
   <tile/>
   <tile/>
   <tile/>
   <tile/>
   <tile/>
   <tile/>
   <tile/>
   <tile/>
   <tile/>
   <tile/>
   <tile/>
   <tile/>
   <tile/>
   <tile/>
   <tile/>
   <tile/>
   <tile/>
   <tile/>
   <tile/>
   <tile/>
   <tile/>
   <tile/>
   <tile/>
   <tile/>
   <tile/>
   <tile/>
   <tile/>
   <tile/>
   <tile/>
   <tile/>
   <tile/>
   <tile/>
   <tile/>
   <tile/>
   <tile/>
   <tile/>
   <tile/>
   <tile/>
   <tile/>
   <tile/>
   <tile/>
   <tile/>
   <tile/>
   <tile/>
   <tile/>
   <tile/>
   <tile/>
   <tile/>
   <tile/>
   <tile/>
   <tile/>
   <tile/>
   <tile/>
   <tile/>
   <tile/>
   <tile/>
   <tile/>
   <tile/>
   <tile/>
   <tile/>
   <tile/>
   <tile/>
   <tile/>
   <tile/>
   <tile/>
   <tile/>
   <tile/>
   <tile/>
   <tile/>
   <tile/>
   <tile/>
   <tile/>
   <tile/>
   <tile/>
   <tile/>
   <tile/>
   <tile/>
   <tile/>
   <tile/>
   <tile/>
   <tile/>
   <tile/>
   <tile/>
   <tile/>
   <tile/>
   <tile/>
   <tile/>
   <tile/>
   <tile/>
   <tile/>
   <tile/>
   <tile/>
   <tile/>
   <tile/>
   <tile/>
   <tile/>
   <tile/>
   <tile/>
   <tile/>
   <tile/>
   <tile/>
   <tile/>
   <tile/>
   <tile/>
   <tile/>
   <tile/>
  </data>
 </layer>
 <layer id="1" name="paredes" width="120" height="90">
  <data>
   <tile gid="5"/>
   <tile gid="6"/>
   <tile gid="7"/>
   <tile gid="8"/>
   <tile gid="9"/>
   <tile gid="10"/>
   <tile gid="11"/>
   <tile gid="12"/>
   <tile gid="13"/>
   <tile gid="14"/>
   <tile gid="15"/>
   <tile gid="16"/>
   <tile gid="17"/>
   <tile gid="18"/>
   <tile gid="19"/>
   <tile gid="5"/>
   <tile gid="6"/>
   <tile gid="7"/>
   <tile gid="8"/>
   <tile gid="9"/>
   <tile gid="10"/>
   <tile gid="11"/>
   <tile gid="12"/>
   <tile gid="13"/>
   <tile gid="14"/>
   <tile gid="15"/>
   <tile gid="16"/>
   <tile gid="17"/>
   <tile gid="18"/>
   <tile gid="19"/>
   <tile gid="5"/>
   <tile gid="6"/>
   <tile gid="7"/>
   <tile gid="8"/>
   <tile gid="9"/>
   <tile gid="10"/>
   <tile gid="11"/>
   <tile gid="12"/>
   <tile gid="13"/>
   <tile gid="14"/>
   <tile gid="15"/>
   <tile gid="16"/>
   <tile gid="17"/>
   <tile gid="18"/>
   <tile gid="19"/>
   <tile gid="5"/>
   <tile gid="6"/>
   <tile gid="7"/>
   <tile gid="8"/>
   <tile gid="9"/>
   <tile gid="10"/>
   <tile gid="11"/>
   <tile gid="929"/>
   <tile gid="930"/>
   <tile gid="931"/>
   <tile gid="932"/>
   <tile gid="933"/>
   <tile gid="934"/>
   <tile gid="935"/>
   <tile gid="936"/>
   <tile gid="937"/>
   <tile gid="938"/>
   <tile gid="939"/>
   <tile gid="940"/>
   <tile gid="941"/>
   <tile gid="942"/>
   <tile gid="943"/>
   <tile gid="944"/>
   <tile gid="13"/>
   <tile gid="14"/>
   <tile gid="15"/>
   <tile gid="16"/>
   <tile gid="17"/>
   <tile gid="18"/>
   <tile gid="19"/>
   <tile gid="5"/>
   <tile gid="6"/>
   <tile gid="7"/>
   <tile gid="8"/>
   <tile gid="9"/>
   <tile gid="10"/>
   <tile gid="11"/>
   <tile gid="12"/>
   <tile gid="13"/>
   <tile gid="14"/>
   <tile gid="15"/>
   <tile gid="16"/>
   <tile gid="17"/>
   <tile gid="18"/>
   <tile gid="19"/>
   <tile gid="5"/>
   <tile gid="6"/>
   <tile gid="7"/>
   <tile gid="8"/>
   <tile gid="9"/>
   <tile gid="10"/>
   <tile gid="11"/>
   <tile gid="12"/>
   <tile gid="13"/>
   <tile gid="14"/>
   <tile gid="15"/>
   <tile gid="16"/>
   <tile gid="17"/>
   <tile gid="18"/>
   <tile gid="19"/>
   <tile gid="5"/>
   <tile gid="6"/>
   <tile gid="7"/>
   <tile gid="8"/>
   <tile gid="9"/>
   <tile gid="10"/>
   <tile gid="11"/>
   <tile gid="12"/>
   <tile gid="13"/>
   <tile gid="14"/>
   <tile gid="15"/>
   <tile gid="16"/>
   <tile gid="17"/>
   <tile gid="18"/>
   <tile gid="19"/>
   <tile gid="69"/>
   <tile gid="70"/>
   <tile gid="71"/>
   <tile gid="72"/>
   <tile gid="73"/>
   <tile gid="74"/>
   <tile gid="75"/>
   <tile gid="76"/>
   <tile gid="77"/>
   <tile gid="78"/>
   <tile gid="79"/>
   <tile gid="80"/>
   <tile gid="81"/>
   <tile gid="82"/>
   <tile gid="83"/>
   <tile gid="69"/>
   <tile gid="70"/>
   <tile gid="71"/>
   <tile gid="72"/>
   <tile gid="73"/>
   <tile gid="74"/>
   <tile gid="75"/>
   <tile gid="76"/>
   <tile gid="77"/>
   <tile gid="78"/>
   <tile gid="79"/>
   <tile gid="80"/>
   <tile gid="81"/>
   <tile gid="82"/>
   <tile gid="83"/>
   <tile gid="69"/>
   <tile gid="70"/>
   <tile gid="71"/>
   <tile gid="72"/>
   <tile gid="73"/>
   <tile gid="74"/>
   <tile gid="75"/>
   <tile gid="76"/>
   <tile gid="77"/>
   <tile gid="78"/>
   <tile gid="79"/>
   <tile gid="80"/>
   <tile gid="81"/>
   <tile gid="82"/>
   <tile gid="83"/>
   <tile gid="69"/>
   <tile gid="70"/>
   <tile gid="71"/>
   <tile gid="72"/>
   <tile gid="73"/>
   <tile gid="74"/>
   <tile gid="75"/>
   <tile gid="993"/>
   <tile gid="994"/>
   <tile gid="995"/>
   <tile gid="996"/>
   <tile gid="997"/>
   <tile gid="998"/>
   <tile gid="999"/>
   <tile gid="1000"/>
   <tile gid="1001"/>
   <tile gid="1002"/>
   <tile gid="1003"/>
   <tile gid="1004"/>
   <tile gid="1005"/>
   <tile gid="1006"/>
   <tile gid="1007"/>
   <tile gid="1008"/>
   <tile gid="77"/>
   <tile gid="78"/>
   <tile gid="79"/>
   <tile gid="80"/>
   <tile gid="81"/>
   <tile gid="82"/>
   <tile gid="83"/>
   <tile gid="69"/>
   <tile gid="70"/>
   <tile gid="71"/>
   <tile gid="72"/>
   <tile gid="73"/>
   <tile gid="74"/>
   <tile gid="75"/>
   <tile gid="76"/>
   <tile gid="77"/>
   <tile gid="78"/>
   <tile gid="79"/>
   <tile gid="80"/>
   <tile gid="81"/>
   <tile gid="82"/>
   <tile gid="83"/>
   <tile gid="69"/>
   <tile gid="70"/>
   <tile gid="71"/>
   <tile gid="72"/>
   <tile gid="73"/>
   <tile gid="74"/>
   <tile gid="75"/>
   <tile gid="76"/>
   <tile gid="77"/>
   <tile gid="78"/>
   <tile gid="79"/>
   <tile gid="80"/>
   <tile gid="81"/>
   <tile gid="82"/>
   <tile gid="83"/>
   <tile gid="69"/>
   <tile gid="70"/>
   <tile gid="71"/>
   <tile gid="72"/>
   <tile gid="73"/>
   <tile gid="74"/>
   <tile gid="75"/>
   <tile gid="76"/>
   <tile gid="77"/>
   <tile gid="78"/>
   <tile gid="79"/>
   <tile gid="80"/>
   <tile gid="81"/>
   <tile gid="82"/>
   <tile gid="83"/>
   <tile gid="133"/>
   <tile gid="134"/>
   <tile gid="135"/>
   <tile gid="136"/>
   <tile gid="137"/>
   <tile gid="138"/>
   <tile gid="139"/>
   <tile gid="140"/>
   <tile gid="141"/>
   <tile gid="142"/>
   <tile gid="143"/>
   <tile gid="144"/>
   <tile gid="145"/>
   <tile gid="146"/>
   <tile gid="147"/>
   <tile gid="133"/>
   <tile gid="134"/>
   <tile gid="135"/>
   <tile gid="136"/>
   <tile gid="137"/>
   <tile gid="138"/>
   <tile gid="139"/>
   <tile gid="140"/>
   <tile gid="141"/>
   <tile gid="142"/>
   <tile gid="143"/>
   <tile gid="144"/>
   <tile gid="145"/>
   <tile gid="146"/>
   <tile gid="147"/>
   <tile gid="133"/>
   <tile gid="134"/>
   <tile gid="135"/>
   <tile gid="136"/>
   <tile gid="137"/>
   <tile gid="138"/>
   <tile gid="139"/>
   <tile gid="140"/>
   <tile gid="141"/>
   <tile gid="142"/>
   <tile gid="143"/>
   <tile gid="144"/>
   <tile gid="145"/>
   <tile gid="146"/>
   <tile gid="147"/>
   <tile gid="133"/>
   <tile gid="134"/>
   <tile gid="135"/>
   <tile gid="136"/>
   <tile gid="137"/>
   <tile gid="138"/>
   <tile gid="139"/>
   <tile gid="1057"/>
   <tile gid="1058"/>
   <tile gid="1059"/>
   <tile gid="1060"/>
   <tile gid="1061"/>
   <tile gid="1062"/>
   <tile gid="1063"/>
   <tile gid="1064"/>
   <tile gid="1065"/>
   <tile gid="1066"/>
   <tile gid="1067"/>
   <tile gid="1068"/>
   <tile gid="1069"/>
   <tile gid="1070"/>
   <tile gid="1071"/>
   <tile gid="1072"/>
   <tile gid="141"/>
   <tile gid="142"/>
   <tile gid="143"/>
   <tile gid="144"/>
   <tile gid="145"/>
   <tile gid="146"/>
   <tile gid="147"/>
   <tile gid="133"/>
   <tile gid="134"/>
   <tile gid="135"/>
   <tile gid="136"/>
   <tile gid="137"/>
   <tile gid="138"/>
   <tile gid="139"/>
   <tile gid="140"/>
   <tile gid="141"/>
   <tile gid="142"/>
   <tile gid="143"/>
   <tile gid="144"/>
   <tile gid="145"/>
   <tile gid="146"/>
   <tile gid="147"/>
   <tile gid="133"/>
   <tile gid="134"/>
   <tile gid="135"/>
   <tile gid="136"/>
   <tile gid="137"/>
   <tile gid="138"/>
   <tile gid="139"/>
   <tile gid="140"/>
   <tile gid="141"/>
   <tile gid="142"/>
   <tile gid="143"/>
   <tile gid="144"/>
   <tile gid="145"/>
   <tile gid="146"/>
   <tile gid="147"/>
   <tile gid="133"/>
   <tile gid="134"/>
   <tile gid="135"/>
   <tile gid="136"/>
   <tile gid="137"/>
   <tile gid="138"/>
   <tile gid="139"/>
   <tile gid="140"/>
   <tile gid="141"/>
   <tile gid="142"/>
   <tile gid="143"/>
   <tile gid="144"/>
   <tile gid="145"/>
   <tile gid="146"/>
   <tile gid="147"/>
   <tile gid="197"/>
   <tile gid="198"/>
   <tile gid="199"/>
   <tile gid="200"/>
   <tile gid="201"/>
   <tile gid="202"/>
   <tile gid="203"/>
   <tile gid="204"/>
   <tile gid="205"/>
   <tile gid="206"/>
   <tile gid="207"/>
   <tile gid="208"/>
   <tile gid="209"/>
   <tile gid="210"/>
   <tile gid="211"/>
   <tile gid="197"/>
   <tile gid="198"/>
   <tile gid="199"/>
   <tile gid="200"/>
   <tile gid="201"/>
   <tile gid="202"/>
   <tile gid="203"/>
   <tile gid="204"/>
   <tile gid="205"/>
   <tile gid="206"/>
   <tile gid="207"/>
   <tile gid="208"/>
   <tile gid="209"/>
   <tile gid="210"/>
   <tile gid="211"/>
   <tile gid="197"/>
   <tile gid="198"/>
   <tile gid="199"/>
   <tile gid="200"/>
   <tile gid="201"/>
   <tile gid="202"/>
   <tile gid="203"/>
   <tile gid="204"/>
   <tile gid="205"/>
   <tile gid="206"/>
   <tile gid="207"/>
   <tile gid="208"/>
   <tile gid="209"/>
   <tile gid="210"/>
   <tile gid="211"/>
   <tile gid="197"/>
   <tile gid="198"/>
   <tile gid="199"/>
   <tile gid="200"/>
   <tile gid="201"/>
   <tile gid="202"/>
   <tile gid="203"/>
   <tile gid="1121"/>
   <tile gid="1122"/>
   <tile gid="1123"/>
   <tile gid="1124"/>
   <tile gid="1125"/>
   <tile gid="1126"/>
   <tile gid="1127"/>
   <tile gid="1128"/>
   <tile gid="1129"/>
   <tile gid="1130"/>
   <tile gid="1131"/>
   <tile gid="1132"/>
   <tile gid="1133"/>
   <tile gid="1134"/>
   <tile gid="1135"/>
   <tile gid="1136"/>
   <tile gid="205"/>
   <tile gid="206"/>
   <tile gid="207"/>
   <tile gid="208"/>
   <tile gid="209"/>
   <tile gid="210"/>
   <tile gid="211"/>
   <tile gid="197"/>
   <tile gid="198"/>
   <tile gid="199"/>
   <tile gid="200"/>
   <tile gid="201"/>
   <tile gid="202"/>
   <tile gid="203"/>
   <tile gid="204"/>
   <tile gid="205"/>
   <tile gid="206"/>
   <tile gid="207"/>
   <tile gid="208"/>
   <tile gid="209"/>
   <tile gid="210"/>
   <tile gid="211"/>
   <tile gid="197"/>
   <tile gid="198"/>
   <tile gid="199"/>
   <tile gid="200"/>
   <tile gid="201"/>
   <tile gid="202"/>
   <tile gid="203"/>
   <tile gid="204"/>
   <tile gid="205"/>
   <tile gid="206"/>
   <tile gid="207"/>
   <tile gid="208"/>
   <tile gid="209"/>
   <tile gid="210"/>
   <tile gid="211"/>
   <tile gid="197"/>
   <tile gid="198"/>
   <tile gid="199"/>
   <tile gid="200"/>
   <tile gid="201"/>
   <tile gid="202"/>
   <tile gid="203"/>
   <tile gid="204"/>
   <tile gid="205"/>
   <tile gid="206"/>
   <tile gid="207"/>
   <tile gid="208"/>
   <tile gid="209"/>
   <tile gid="210"/>
   <tile gid="211"/>
   <tile gid="261"/>
   <tile gid="262"/>
   <tile gid="263"/>
   <tile gid="264"/>
   <tile gid="265"/>
   <tile gid="266"/>
   <tile gid="267"/>
   <tile gid="268"/>
   <tile gid="269"/>
   <tile gid="270"/>
   <tile gid="271"/>
   <tile gid="272"/>
   <tile gid="273"/>
   <tile gid="274"/>
   <tile gid="275"/>
   <tile gid="261"/>
   <tile gid="262"/>
   <tile gid="263"/>
   <tile gid="264"/>
   <tile gid="265"/>
   <tile gid="266"/>
   <tile gid="267"/>
   <tile gid="268"/>
   <tile gid="269"/>
   <tile gid="270"/>
   <tile gid="271"/>
   <tile gid="272"/>
   <tile gid="273"/>
   <tile gid="274"/>
   <tile gid="275"/>
   <tile gid="261"/>
   <tile gid="262"/>
   <tile gid="263"/>
   <tile gid="264"/>
   <tile gid="265"/>
   <tile gid="266"/>
   <tile gid="267"/>
   <tile gid="268"/>
   <tile gid="269"/>
   <tile gid="270"/>
   <tile gid="271"/>
   <tile gid="272"/>
   <tile gid="273"/>
   <tile gid="274"/>
   <tile gid="275"/>
   <tile gid="261"/>
   <tile gid="262"/>
   <tile gid="263"/>
   <tile gid="264"/>
   <tile gid="265"/>
   <tile gid="266"/>
   <tile gid="267"/>
   <tile gid="1185"/>
   <tile gid="1186"/>
   <tile gid="1187"/>
   <tile gid="1188"/>
   <tile gid="1189"/>
   <tile gid="1190"/>
   <tile gid="1191"/>
   <tile gid="1192"/>
   <tile gid="1193"/>
   <tile gid="1194"/>
   <tile gid="1195"/>
   <tile gid="1196"/>
   <tile gid="1197"/>
   <tile gid="1198"/>
   <tile gid="1199"/>
   <tile gid="1200"/>
   <tile gid="269"/>
   <tile gid="270"/>
   <tile gid="271"/>
   <tile gid="272"/>
   <tile gid="273"/>
   <tile gid="274"/>
   <tile gid="275"/>
   <tile gid="261"/>
   <tile gid="262"/>
   <tile gid="263"/>
   <tile gid="264"/>
   <tile gid="265"/>
   <tile gid="266"/>
   <tile gid="267"/>
   <tile gid="268"/>
   <tile gid="269"/>
   <tile gid="270"/>
   <tile gid="271"/>
   <tile gid="272"/>
   <tile gid="273"/>
   <tile gid="274"/>
   <tile gid="275"/>
   <tile gid="261"/>
   <tile gid="262"/>
   <tile gid="263"/>
   <tile gid="264"/>
   <tile gid="265"/>
   <tile gid="266"/>
   <tile gid="267"/>
   <tile gid="268"/>
   <tile gid="269"/>
   <tile gid="270"/>
   <tile gid="271"/>
   <tile gid="272"/>
   <tile gid="273"/>
   <tile gid="274"/>
   <tile gid="275"/>
   <tile gid="261"/>
   <tile gid="262"/>
   <tile gid="263"/>
   <tile gid="264"/>
   <tile gid="265"/>
   <tile gid="266"/>
   <tile gid="267"/>
   <tile gid="268"/>
   <tile gid="269"/>
   <tile gid="270"/>
   <tile gid="271"/>
   <tile gid="272"/>
   <tile gid="273"/>
   <tile gid="274"/>
   <tile gid="275"/>
   <tile gid="325"/>
   <tile gid="326"/>
   <tile gid="327"/>
   <tile gid="328"/>
   <tile gid="329"/>
   <tile gid="330"/>
   <tile gid="331"/>
   <tile gid="332"/>
   <tile gid="333"/>
   <tile gid="334"/>
   <tile gid="335"/>
   <tile gid="336"/>
   <tile gid="337"/>
   <tile gid="338"/>
   <tile gid="339"/>
   <tile gid="325"/>
   <tile gid="326"/>
   <tile gid="327"/>
   <tile gid="328"/>
   <tile gid="329"/>
   <tile gid="330"/>
   <tile gid="331"/>
   <tile gid="332"/>
   <tile gid="333"/>
   <tile gid="334"/>
   <tile gid="335"/>
   <tile gid="336"/>
   <tile gid="337"/>
   <tile gid="338"/>
   <tile gid="339"/>
   <tile gid="325"/>
   <tile gid="326"/>
   <tile gid="327"/>
   <tile gid="328"/>
   <tile gid="329"/>
   <tile gid="330"/>
   <tile gid="331"/>
   <tile gid="332"/>
   <tile gid="333"/>
   <tile gid="334"/>
   <tile gid="335"/>
   <tile gid="336"/>
   <tile gid="337"/>
   <tile gid="338"/>
   <tile gid="339"/>
   <tile gid="325"/>
   <tile gid="326"/>
   <tile gid="327"/>
   <tile gid="328"/>
   <tile gid="329"/>
   <tile gid="330"/>
   <tile gid="331"/>
   <tile gid="1249"/>
   <tile gid="1250"/>
   <tile gid="1251"/>
   <tile gid="1252"/>
   <tile gid="1253"/>
   <tile gid="1254"/>
   <tile gid="1255"/>
   <tile gid="1256"/>
   <tile gid="1257"/>
   <tile gid="1258"/>
   <tile gid="1259"/>
   <tile gid="1260"/>
   <tile gid="1261"/>
   <tile gid="1262"/>
   <tile gid="1263"/>
   <tile gid="1264"/>
   <tile gid="333"/>
   <tile gid="334"/>
   <tile gid="335"/>
   <tile gid="336"/>
   <tile gid="337"/>
   <tile gid="338"/>
   <tile gid="339"/>
   <tile gid="325"/>
   <tile gid="326"/>
   <tile gid="327"/>
   <tile gid="328"/>
   <tile gid="329"/>
   <tile gid="330"/>
   <tile gid="331"/>
   <tile gid="332"/>
   <tile gid="333"/>
   <tile gid="334"/>
   <tile gid="335"/>
   <tile gid="336"/>
   <tile gid="337"/>
   <tile gid="338"/>
   <tile gid="339"/>
   <tile gid="325"/>
   <tile gid="326"/>
   <tile gid="327"/>
   <tile gid="328"/>
   <tile gid="329"/>
   <tile gid="330"/>
   <tile gid="331"/>
   <tile gid="332"/>
   <tile gid="333"/>
   <tile gid="334"/>
   <tile gid="335"/>
   <tile gid="336"/>
   <tile gid="337"/>
   <tile gid="338"/>
   <tile gid="339"/>
   <tile gid="325"/>
   <tile gid="326"/>
   <tile gid="327"/>
   <tile gid="328"/>
   <tile gid="329"/>
   <tile gid="330"/>
   <tile gid="331"/>
   <tile gid="332"/>
   <tile gid="333"/>
   <tile gid="334"/>
   <tile gid="335"/>
   <tile gid="336"/>
   <tile gid="337"/>
   <tile gid="338"/>
   <tile gid="339"/>
   <tile gid="389"/>
   <tile gid="390"/>
   <tile gid="391"/>
   <tile gid="392"/>
   <tile gid="393"/>
   <tile gid="394"/>
   <tile gid="395"/>
   <tile gid="396"/>
   <tile gid="397"/>
   <tile gid="398"/>
   <tile gid="399"/>
   <tile gid="400"/>
   <tile gid="401"/>
   <tile gid="402"/>
   <tile gid="403"/>
   <tile gid="389"/>
   <tile gid="390"/>
   <tile gid="391"/>
   <tile gid="392"/>
   <tile gid="393"/>
   <tile gid="394"/>
   <tile gid="395"/>
   <tile gid="396"/>
   <tile gid="397"/>
   <tile gid="398"/>
   <tile gid="399"/>
   <tile gid="400"/>
   <tile gid="401"/>
   <tile gid="402"/>
   <tile gid="403"/>
   <tile gid="389"/>
   <tile gid="390"/>
   <tile gid="391"/>
   <tile gid="392"/>
   <tile gid="393"/>
   <tile gid="394"/>
   <tile gid="395"/>
   <tile gid="396"/>
   <tile gid="397"/>
   <tile gid="398"/>
   <tile gid="399"/>
   <tile gid="400"/>
   <tile gid="401"/>
   <tile gid="402"/>
   <tile gid="403"/>
   <tile gid="389"/>
   <tile gid="390"/>
   <tile gid="391"/>
   <tile gid="392"/>
   <tile gid="393"/>
   <tile gid="394"/>
   <tile gid="395"/>
   <tile gid="1313"/>
   <tile gid="1314"/>
   <tile gid="1315"/>
   <tile gid="1316"/>
   <tile gid="1317"/>
   <tile gid="1318"/>
   <tile gid="1319"/>
   <tile gid="1320"/>
   <tile gid="1321"/>
   <tile gid="1322"/>
   <tile gid="1323"/>
   <tile gid="1324"/>
   <tile gid="1325"/>
   <tile gid="1326"/>
   <tile gid="1327"/>
   <tile gid="1328"/>
   <tile gid="397"/>
   <tile gid="398"/>
   <tile gid="399"/>
   <tile gid="400"/>
   <tile gid="401"/>
   <tile gid="402"/>
   <tile gid="403"/>
   <tile gid="389"/>
   <tile gid="390"/>
   <tile gid="391"/>
   <tile gid="392"/>
   <tile gid="393"/>
   <tile gid="394"/>
   <tile gid="395"/>
   <tile gid="396"/>
   <tile gid="397"/>
   <tile gid="398"/>
   <tile gid="399"/>
   <tile gid="400"/>
   <tile gid="401"/>
   <tile gid="402"/>
   <tile gid="403"/>
   <tile gid="389"/>
   <tile gid="390"/>
   <tile gid="391"/>
   <tile gid="392"/>
   <tile gid="393"/>
   <tile gid="394"/>
   <tile gid="395"/>
   <tile gid="396"/>
   <tile gid="397"/>
   <tile gid="398"/>
   <tile gid="399"/>
   <tile gid="400"/>
   <tile gid="401"/>
   <tile gid="402"/>
   <tile gid="403"/>
   <tile gid="389"/>
   <tile gid="390"/>
   <tile gid="391"/>
   <tile gid="392"/>
   <tile gid="393"/>
   <tile gid="394"/>
   <tile gid="395"/>
   <tile gid="396"/>
   <tile gid="397"/>
   <tile gid="398"/>
   <tile gid="399"/>
   <tile gid="400"/>
   <tile gid="401"/>
   <tile gid="402"/>
   <tile gid="403"/>
   <tile gid="453"/>
   <tile gid="454"/>
   <tile gid="455"/>
   <tile gid="456"/>
   <tile gid="457"/>
   <tile gid="458"/>
   <tile gid="459"/>
   <tile gid="460"/>
   <tile gid="461"/>
   <tile gid="462"/>
   <tile gid="463"/>
   <tile gid="464"/>
   <tile gid="465"/>
   <tile gid="466"/>
   <tile gid="467"/>
   <tile gid="453"/>
   <tile gid="454"/>
   <tile gid="455"/>
   <tile gid="456"/>
   <tile gid="457"/>
   <tile gid="458"/>
   <tile gid="459"/>
   <tile gid="460"/>
   <tile gid="461"/>
   <tile gid="462"/>
   <tile gid="463"/>
   <tile gid="464"/>
   <tile gid="465"/>
   <tile gid="466"/>
   <tile gid="467"/>
   <tile gid="453"/>
   <tile gid="454"/>
   <tile gid="455"/>
   <tile gid="456"/>
   <tile gid="457"/>
   <tile gid="458"/>
   <tile gid="459"/>
   <tile gid="460"/>
   <tile gid="461"/>
   <tile gid="462"/>
   <tile gid="463"/>
   <tile gid="464"/>
   <tile gid="465"/>
   <tile gid="466"/>
   <tile gid="467"/>
   <tile gid="453"/>
   <tile gid="454"/>
   <tile gid="455"/>
   <tile gid="456"/>
   <tile gid="457"/>
   <tile gid="458"/>
   <tile gid="459"/>
   <tile gid="1377"/>
   <tile gid="1378"/>
   <tile gid="1379"/>
   <tile gid="1380"/>
   <tile gid="1381"/>
   <tile gid="1382"/>
   <tile gid="1383"/>
   <tile gid="1384"/>
   <tile gid="1385"/>
   <tile gid="1386"/>
   <tile gid="1387"/>
   <tile gid="1388"/>
   <tile gid="1389"/>
   <tile gid="1390"/>
   <tile gid="1391"/>
   <tile gid="1392"/>
   <tile gid="461"/>
   <tile gid="462"/>
   <tile gid="463"/>
   <tile gid="464"/>
   <tile gid="465"/>
   <tile gid="466"/>
   <tile gid="467"/>
   <tile gid="453"/>
   <tile gid="454"/>
   <tile gid="455"/>
   <tile gid="456"/>
   <tile gid="457"/>
   <tile gid="458"/>
   <tile gid="459"/>
   <tile gid="460"/>
   <tile gid="461"/>
   <tile gid="462"/>
   <tile gid="463"/>
   <tile gid="464"/>
   <tile gid="465"/>
   <tile gid="466"/>
   <tile gid="467"/>
   <tile gid="453"/>
   <tile gid="454"/>
   <tile gid="455"/>
   <tile gid="456"/>
   <tile gid="457"/>
   <tile gid="458"/>
   <tile gid="459"/>
   <tile gid="460"/>
   <tile gid="461"/>
   <tile gid="462"/>
   <tile gid="463"/>
   <tile gid="464"/>
   <tile gid="465"/>
   <tile gid="466"/>
   <tile gid="467"/>
   <tile gid="453"/>
   <tile gid="454"/>
   <tile gid="455"/>
   <tile gid="456"/>
   <tile gid="457"/>
   <tile gid="458"/>
   <tile gid="459"/>
   <tile gid="460"/>
   <tile gid="461"/>
   <tile gid="462"/>
   <tile gid="463"/>
   <tile gid="464"/>
   <tile gid="465"/>
   <tile gid="466"/>
   <tile gid="467"/>
   <tile gid="517"/>
   <tile gid="518"/>
   <tile gid="519"/>
   <tile gid="520"/>
   <tile gid="521"/>
   <tile gid="522"/>
   <tile gid="523"/>
   <tile gid="524"/>
   <tile gid="525"/>
   <tile gid="526"/>
   <tile gid="527"/>
   <tile gid="528"/>
   <tile gid="529"/>
   <tile gid="530"/>
   <tile gid="531"/>
   <tile gid="517"/>
   <tile gid="518"/>
   <tile gid="519"/>
   <tile gid="520"/>
   <tile gid="521"/>
   <tile gid="522"/>
   <tile gid="523"/>
   <tile gid="524"/>
   <tile gid="525"/>
   <tile gid="526"/>
   <tile gid="527"/>
   <tile gid="528"/>
   <tile gid="529"/>
   <tile gid="530"/>
   <tile gid="531"/>
   <tile gid="517"/>
   <tile gid="518"/>
   <tile gid="519"/>
   <tile gid="520"/>
   <tile gid="521"/>
   <tile gid="522"/>
   <tile gid="523"/>
   <tile gid="524"/>
   <tile gid="525"/>
   <tile gid="526"/>
   <tile gid="527"/>
   <tile gid="528"/>
   <tile gid="529"/>
   <tile gid="530"/>
   <tile gid="531"/>
   <tile gid="517"/>
   <tile gid="518"/>
   <tile gid="519"/>
   <tile gid="520"/>
   <tile gid="521"/>
   <tile gid="522"/>
   <tile gid="523"/>
   <tile gid="1441"/>
   <tile gid="1442"/>
   <tile gid="1443"/>
   <tile gid="1444"/>
   <tile gid="1445"/>
   <tile gid="1446"/>
   <tile gid="1447"/>
   <tile gid="1448"/>
   <tile gid="1449"/>
   <tile gid="1450"/>
   <tile gid="1451"/>
   <tile gid="1452"/>
   <tile gid="1453"/>
   <tile gid="1454"/>
   <tile gid="1455"/>
   <tile gid="1456"/>
   <tile gid="525"/>
   <tile gid="526"/>
   <tile gid="527"/>
   <tile gid="528"/>
   <tile gid="529"/>
   <tile gid="530"/>
   <tile gid="531"/>
   <tile gid="517"/>
   <tile gid="518"/>
   <tile gid="519"/>
   <tile gid="520"/>
   <tile gid="521"/>
   <tile gid="522"/>
   <tile gid="523"/>
   <tile gid="524"/>
   <tile gid="525"/>
   <tile gid="526"/>
   <tile gid="527"/>
   <tile gid="528"/>
   <tile gid="529"/>
   <tile gid="530"/>
   <tile gid="531"/>
   <tile gid="517"/>
   <tile gid="518"/>
   <tile gid="519"/>
   <tile gid="520"/>
   <tile gid="521"/>
   <tile gid="522"/>
   <tile gid="523"/>
   <tile gid="524"/>
   <tile gid="525"/>
   <tile gid="526"/>
   <tile gid="527"/>
   <tile gid="528"/>
   <tile gid="529"/>
   <tile gid="530"/>
   <tile gid="531"/>
   <tile gid="517"/>
   <tile gid="518"/>
   <tile gid="519"/>
   <tile gid="520"/>
   <tile gid="521"/>
   <tile gid="522"/>
   <tile gid="523"/>
   <tile gid="524"/>
   <tile gid="525"/>
   <tile gid="526"/>
   <tile gid="527"/>
   <tile gid="528"/>
   <tile gid="529"/>
   <tile gid="530"/>
   <tile gid="531"/>
   <tile gid="4674"/>
   <tile gid="4675"/>
   <tile gid="4676"/>
   <tile gid="4677"/>
   <tile gid="4678"/>
   <tile gid="4679"/>
   <tile gid="4680"/>
   <tile gid="4681"/>
   <tile gid="4682"/>
   <tile gid="4683"/>
   <tile gid="4684"/>
   <tile gid="4685"/>
   <tile gid="4686"/>
   <tile gid="4687"/>
   <tile gid="4674"/>
   <tile gid="4675"/>
   <tile gid="4676"/>
   <tile gid="4677"/>
   <tile gid="4678"/>
   <tile gid="4679"/>
   <tile gid="4680"/>
   <tile gid="4681"/>
   <tile gid="4682"/>
   <tile gid="4683"/>
   <tile gid="4684"/>
   <tile gid="4685"/>
   <tile gid="4686"/>
   <tile gid="4687"/>
   <tile gid="4674"/>
   <tile gid="4675"/>
   <tile gid="4676"/>
   <tile gid="4677"/>
   <tile gid="4678"/>
   <tile gid="4679"/>
   <tile gid="4680"/>
   <tile gid="4681"/>
   <tile gid="4682"/>
   <tile gid="4683"/>
   <tile gid="4674"/>
   <tile gid="4675"/>
   <tile gid="4676"/>
   <tile gid="4677"/>
   <tile gid="4678"/>
   <tile gid="4679"/>
   <tile gid="4680"/>
   <tile gid="4681"/>
   <tile gid="4682"/>
   <tile gid="4683"/>
   <tile gid="4684"/>
   <tile gid="4685"/>
   <tile gid="4686"/>
   <tile gid="4687"/>
   <tile gid="1505"/>
   <tile gid="1506"/>
   <tile gid="1507"/>
   <tile gid="1508"/>
   <tile gid="1509"/>
   <tile gid="1510"/>
   <tile gid="1511"/>
   <tile gid="1512"/>
   <tile gid="1513"/>
   <tile gid="1514"/>
   <tile gid="1515"/>
   <tile gid="1516"/>
   <tile gid="1517"/>
   <tile gid="1518"/>
   <tile gid="1519"/>
   <tile gid="1520"/>
   <tile gid="4674"/>
   <tile gid="4675"/>
   <tile gid="4676"/>
   <tile gid="4677"/>
   <tile gid="4678"/>
   <tile gid="4679"/>
   <tile gid="4680"/>
   <tile gid="4681"/>
   <tile gid="4682"/>
   <tile gid="4683"/>
   <tile gid="4684"/>
   <tile gid="4685"/>
   <tile gid="4686"/>
   <tile gid="4687"/>
   <tile gid="4674"/>
   <tile gid="4675"/>
   <tile gid="4676"/>
   <tile gid="4677"/>
   <tile gid="4678"/>
   <tile gid="4679"/>
   <tile gid="4680"/>
   <tile gid="4681"/>
   <tile gid="4682"/>
   <tile gid="4683"/>
   <tile gid="4684"/>
   <tile gid="4685"/>
   <tile gid="4686"/>
   <tile gid="4687"/>
   <tile gid="4674"/>
   <tile gid="4675"/>
   <tile gid="4676"/>
   <tile gid="4677"/>
   <tile gid="4678"/>
   <tile gid="4679"/>
   <tile gid="4680"/>
   <tile gid="4681"/>
   <tile gid="4682"/>
   <tile gid="4683"/>
   <tile gid="4684"/>
   <tile gid="4685"/>
   <tile gid="4686"/>
   <tile gid="4674"/>
   <tile gid="4675"/>
   <tile gid="4676"/>
   <tile gid="4677"/>
   <tile gid="4678"/>
   <tile gid="4679"/>
   <tile gid="4680"/>
   <tile gid="4681"/>
   <tile gid="4682"/>
   <tile gid="4683"/>
   <tile gid="4684"/>
   <tile gid="4738"/>
   <tile gid="4739"/>
   <tile gid="4740"/>
   <tile gid="4741"/>
   <tile gid="4742"/>
   <tile gid="4743"/>
   <tile gid="4744"/>
   <tile gid="4745"/>
   <tile gid="4746"/>
   <tile gid="4747"/>
   <tile gid="4748"/>
   <tile gid="4749"/>
   <tile gid="4750"/>
   <tile gid="4751"/>
   <tile gid="4738"/>
   <tile gid="4739"/>
   <tile gid="4740"/>
   <tile gid="4741"/>
   <tile gid="4742"/>
   <tile gid="4743"/>
   <tile gid="4744"/>
   <tile gid="4745"/>
   <tile gid="4746"/>
   <tile gid="4747"/>
   <tile gid="4748"/>
   <tile gid="4749"/>
   <tile gid="4750"/>
   <tile gid="4751"/>
   <tile gid="4738"/>
   <tile gid="4739"/>
   <tile gid="4740"/>
   <tile gid="4741"/>
   <tile gid="4742"/>
   <tile gid="4743"/>
   <tile gid="4744"/>
   <tile gid="4745"/>
   <tile gid="4746"/>
   <tile gid="4747"/>
   <tile gid="4738"/>
   <tile gid="4739"/>
   <tile gid="4740"/>
   <tile gid="4741"/>
   <tile gid="4742"/>
   <tile gid="4743"/>
   <tile gid="4744"/>
   <tile gid="4745"/>
   <tile gid="4746"/>
   <tile gid="4747"/>
   <tile gid="4748"/>
   <tile gid="4749"/>
   <tile gid="4750"/>
   <tile gid="4751"/>
   <tile gid="1569"/>
   <tile gid="1570"/>
   <tile gid="1571"/>
   <tile gid="1572"/>
   <tile gid="1573"/>
   <tile gid="1574"/>
   <tile gid="1575"/>
   <tile gid="1576"/>
   <tile gid="1577"/>
   <tile gid="1578"/>
   <tile gid="1579"/>
   <tile gid="1580"/>
   <tile gid="1581"/>
   <tile gid="1582"/>
   <tile gid="1583"/>
   <tile gid="1584"/>
   <tile gid="4738"/>
   <tile gid="4739"/>
   <tile gid="4740"/>
   <tile gid="4741"/>
   <tile gid="4742"/>
   <tile gid="4743"/>
   <tile gid="4744"/>
   <tile gid="4745"/>
   <tile gid="4746"/>
   <tile gid="4747"/>
   <tile gid="4748"/>
   <tile gid="4749"/>
   <tile gid="4750"/>
   <tile gid="4751"/>
   <tile gid="4738"/>
   <tile gid="4739"/>
   <tile gid="4740"/>
   <tile gid="4741"/>
   <tile gid="4742"/>
   <tile gid="4743"/>
   <tile gid="4744"/>
   <tile gid="4745"/>
   <tile gid="4746"/>
   <tile gid="4747"/>
   <tile gid="4748"/>
   <tile gid="4749"/>
   <tile gid="4750"/>
   <tile gid="4751"/>
   <tile gid="4738"/>
   <tile gid="4739"/>
   <tile gid="4740"/>
   <tile gid="4741"/>
   <tile gid="4742"/>
   <tile gid="4743"/>
   <tile gid="4744"/>
   <tile gid="4745"/>
   <tile gid="4746"/>
   <tile gid="4747"/>
   <tile gid="4748"/>
   <tile gid="4749"/>
   <tile gid="4750"/>
   <tile gid="4738"/>
   <tile gid="4739"/>
   <tile gid="4740"/>
   <tile gid="4741"/>
   <tile gid="4742"/>
   <tile gid="4743"/>
   <tile gid="4744"/>
   <tile gid="4745"/>
   <tile gid="4746"/>
   <tile gid="4747"/>
   <tile gid="4748"/>
   <tile gid="4802"/>
   <tile gid="4803"/>
   <tile gid="4804"/>
   <tile gid="4805"/>
   <tile gid="4806"/>
   <tile gid="4807"/>
   <tile gid="4808"/>
   <tile gid="4809"/>
   <tile gid="4810"/>
   <tile gid="4811"/>
   <tile gid="4812"/>
   <tile gid="4813"/>
   <tile gid="4814"/>
   <tile gid="4815"/>
   <tile gid="4802"/>
   <tile gid="4803"/>
   <tile gid="4804"/>
   <tile gid="4805"/>
   <tile gid="4806"/>
   <tile gid="4807"/>
   <tile gid="4808"/>
   <tile gid="4809"/>
   <tile gid="4810"/>
   <tile gid="4811"/>
   <tile gid="4812"/>
   <tile gid="4813"/>
   <tile gid="4814"/>
   <tile gid="4815"/>
   <tile gid="4802"/>
   <tile gid="4803"/>
   <tile gid="4804"/>
   <tile gid="4805"/>
   <tile gid="4806"/>
   <tile gid="4807"/>
   <tile gid="4808"/>
   <tile gid="4809"/>
   <tile gid="4810"/>
   <tile gid="4811"/>
   <tile gid="4802"/>
   <tile gid="4803"/>
   <tile gid="4804"/>
   <tile gid="4805"/>
   <tile gid="4806"/>
   <tile gid="4807"/>
   <tile gid="4808"/>
   <tile gid="4809"/>
   <tile gid="4810"/>
   <tile gid="4811"/>
   <tile gid="4812"/>
   <tile gid="4813"/>
   <tile gid="4814"/>
   <tile gid="4815"/>
   <tile gid="1633"/>
   <tile gid="1634"/>
   <tile gid="1635"/>
   <tile gid="1636"/>
   <tile gid="1637"/>
   <tile gid="1638"/>
   <tile gid="1639"/>
   <tile gid="1640"/>
   <tile gid="1641"/>
   <tile gid="1642"/>
   <tile gid="1643"/>
   <tile gid="1644"/>
   <tile gid="1645"/>
   <tile gid="1646"/>
   <tile gid="1647"/>
   <tile gid="1648"/>
   <tile gid="4802"/>
   <tile gid="4803"/>
   <tile gid="4804"/>
   <tile gid="4805"/>
   <tile gid="4806"/>
   <tile gid="4807"/>
   <tile gid="4808"/>
   <tile gid="4809"/>
   <tile gid="4810"/>
   <tile gid="4811"/>
   <tile gid="4812"/>
   <tile gid="4813"/>
   <tile gid="4814"/>
   <tile gid="4815"/>
   <tile gid="4802"/>
   <tile gid="4803"/>
   <tile gid="4804"/>
   <tile gid="4805"/>
   <tile gid="4806"/>
   <tile gid="4807"/>
   <tile gid="4808"/>
   <tile gid="4809"/>
   <tile gid="4810"/>
   <tile gid="4811"/>
   <tile gid="4812"/>
   <tile gid="4813"/>
   <tile gid="4814"/>
   <tile gid="4815"/>
   <tile gid="4802"/>
   <tile gid="4803"/>
   <tile gid="4804"/>
   <tile gid="4805"/>
   <tile gid="4806"/>
   <tile gid="4807"/>
   <tile gid="4808"/>
   <tile gid="4809"/>
   <tile gid="4810"/>
   <tile gid="4811"/>
   <tile gid="4812"/>
   <tile gid="4813"/>
   <tile gid="4814"/>
   <tile gid="4802"/>
   <tile gid="4803"/>
   <tile gid="4804"/>
   <tile gid="4805"/>
   <tile gid="4806"/>
   <tile gid="4807"/>
   <tile gid="4808"/>
   <tile gid="4809"/>
   <tile gid="4810"/>
   <tile gid="4811"/>
   <tile gid="4812"/>
   <tile gid="4866"/>
   <tile gid="4867"/>
   <tile gid="4868"/>
   <tile gid="4869"/>
   <tile gid="4870"/>
   <tile gid="4871"/>
   <tile gid="4872"/>
   <tile gid="4873"/>
   <tile gid="4874"/>
   <tile gid="4875"/>
   <tile gid="4876"/>
   <tile gid="4877"/>
   <tile gid="4878"/>
   <tile gid="4879"/>
   <tile gid="4866"/>
   <tile gid="4867"/>
   <tile gid="4868"/>
   <tile gid="4869"/>
   <tile gid="4870"/>
   <tile gid="4871"/>
   <tile gid="4872"/>
   <tile gid="4873"/>
   <tile gid="4874"/>
   <tile gid="4875"/>
   <tile gid="4876"/>
   <tile gid="4877"/>
   <tile gid="4878"/>
   <tile gid="4879"/>
   <tile gid="4866"/>
   <tile gid="4867"/>
   <tile gid="4868"/>
   <tile gid="4869"/>
   <tile gid="4870"/>
   <tile gid="4871"/>
   <tile gid="4872"/>
   <tile gid="4873"/>
   <tile gid="4874"/>
   <tile gid="4875"/>
   <tile gid="4866"/>
   <tile gid="4867"/>
   <tile gid="4868"/>
   <tile gid="4869"/>
   <tile gid="4870"/>
   <tile gid="4871"/>
   <tile gid="4872"/>
   <tile gid="4873"/>
   <tile gid="4874"/>
   <tile gid="4875"/>
   <tile gid="4876"/>
   <tile gid="4877"/>
   <tile gid="4878"/>
   <tile gid="4879"/>
   <tile gid="1697"/>
   <tile gid="1698"/>
   <tile gid="1699"/>
   <tile gid="1700"/>
   <tile gid="1701"/>
   <tile gid="1702"/>
   <tile gid="1703"/>
   <tile gid="1704"/>
   <tile gid="1705"/>
   <tile gid="1706"/>
   <tile gid="1707"/>
   <tile gid="1708"/>
   <tile gid="1709"/>
   <tile gid="1710"/>
   <tile gid="1711"/>
   <tile gid="1712"/>
   <tile gid="4866"/>
   <tile gid="4867"/>
   <tile gid="4868"/>
   <tile gid="4869"/>
   <tile gid="4870"/>
   <tile gid="4871"/>
   <tile gid="4872"/>
   <tile gid="4873"/>
   <tile gid="4874"/>
   <tile gid="4875"/>
   <tile gid="4876"/>
   <tile gid="4877"/>
   <tile gid="4878"/>
   <tile gid="4879"/>
   <tile gid="4866"/>
   <tile gid="4867"/>
   <tile gid="4868"/>
   <tile gid="4869"/>
   <tile gid="4870"/>
   <tile gid="4871"/>
   <tile gid="4872"/>
   <tile gid="4873"/>
   <tile gid="4874"/>
   <tile gid="4875"/>
   <tile gid="4876"/>
   <tile gid="4877"/>
   <tile gid="4878"/>
   <tile gid="4879"/>
   <tile gid="4866"/>
   <tile gid="4867"/>
   <tile gid="4868"/>
   <tile gid="4869"/>
   <tile gid="4870"/>
   <tile gid="4871"/>
   <tile gid="4872"/>
   <tile gid="4873"/>
   <tile gid="4874"/>
   <tile gid="4875"/>
   <tile gid="4876"/>
   <tile gid="4877"/>
   <tile gid="4878"/>
   <tile gid="4866"/>
   <tile gid="4867"/>
   <tile gid="4868"/>
   <tile gid="4869"/>
   <tile gid="4870"/>
   <tile gid="4871"/>
   <tile gid="4872"/>
   <tile gid="4873"/>
   <tile gid="4874"/>
   <tile gid="4875"/>
   <tile gid="4876"/>
   <tile gid="4930"/>
   <tile gid="4931"/>
   <tile gid="4932"/>
   <tile gid="4933"/>
   <tile gid="4934"/>
   <tile gid="4935"/>
   <tile gid="4936"/>
   <tile gid="4937"/>
   <tile gid="4938"/>
   <tile gid="4939"/>
   <tile gid="4940"/>
   <tile gid="4941"/>
   <tile gid="4942"/>
   <tile gid="4943"/>
   <tile gid="4930"/>
   <tile gid="4931"/>
   <tile gid="4932"/>
   <tile gid="4933"/>
   <tile gid="4934"/>
   <tile gid="4935"/>
   <tile gid="4936"/>
   <tile gid="4937"/>
   <tile gid="4938"/>
   <tile gid="4939"/>
   <tile gid="4940"/>
   <tile gid="4941"/>
   <tile gid="4942"/>
   <tile gid="4943"/>
   <tile gid="4930"/>
   <tile gid="4931"/>
   <tile gid="4932"/>
   <tile gid="4933"/>
   <tile gid="4934"/>
   <tile gid="4935"/>
   <tile gid="4936"/>
   <tile gid="4937"/>
   <tile gid="4938"/>
   <tile gid="4939"/>
   <tile gid="4930"/>
   <tile gid="4931"/>
   <tile gid="4932"/>
   <tile gid="4933"/>
   <tile gid="4934"/>
   <tile gid="4935"/>
   <tile gid="4936"/>
   <tile gid="4937"/>
   <tile gid="4938"/>
   <tile gid="4939"/>
   <tile gid="4940"/>
   <tile gid="4941"/>
   <tile gid="4942"/>
   <tile gid="4943"/>
   <tile gid="1761"/>
   <tile gid="1762"/>
   <tile gid="1763"/>
   <tile gid="1764"/>
   <tile gid="1765"/>
   <tile gid="1766"/>
   <tile gid="1767"/>
   <tile gid="1768"/>
   <tile gid="1769"/>
   <tile gid="1770"/>
   <tile gid="1771"/>
   <tile gid="1772"/>
   <tile gid="1773"/>
   <tile gid="1774"/>
   <tile gid="1775"/>
   <tile gid="1776"/>
   <tile gid="4930"/>
   <tile gid="4931"/>
   <tile gid="4932"/>
   <tile gid="4933"/>
   <tile gid="4934"/>
   <tile gid="4935"/>
   <tile gid="4936"/>
   <tile gid="4937"/>
   <tile gid="4938"/>
   <tile gid="4939"/>
   <tile gid="4940"/>
   <tile gid="4941"/>
   <tile gid="4942"/>
   <tile gid="4943"/>
   <tile gid="4930"/>
   <tile gid="4931"/>
   <tile gid="4932"/>
   <tile gid="4933"/>
   <tile gid="4934"/>
   <tile gid="4935"/>
   <tile gid="4936"/>
   <tile gid="4937"/>
   <tile gid="4938"/>
   <tile gid="4939"/>
   <tile gid="4940"/>
   <tile gid="4941"/>
   <tile gid="4942"/>
   <tile gid="4943"/>
   <tile gid="4930"/>
   <tile gid="4931"/>
   <tile gid="4932"/>
   <tile gid="4933"/>
   <tile gid="4934"/>
   <tile gid="4935"/>
   <tile gid="4936"/>
   <tile gid="4937"/>
   <tile gid="4938"/>
   <tile gid="4939"/>
   <tile gid="4940"/>
   <tile gid="4941"/>
   <tile gid="4942"/>
   <tile gid="4930"/>
   <tile gid="4931"/>
   <tile gid="4932"/>
   <tile gid="4933"/>
   <tile gid="4934"/>
   <tile gid="4935"/>
   <tile gid="4936"/>
   <tile gid="4937"/>
   <tile gid="4938"/>
   <tile gid="4939"/>
   <tile gid="4940"/>
   <tile gid="4994"/>
   <tile gid="4995"/>
   <tile gid="4996"/>
   <tile gid="4997"/>
   <tile gid="4998"/>
   <tile gid="4999"/>
   <tile gid="5000"/>
   <tile gid="5001"/>
   <tile gid="5002"/>
   <tile gid="5003"/>
   <tile gid="5004"/>
   <tile gid="5005"/>
   <tile gid="5006"/>
   <tile gid="5007"/>
   <tile gid="4994"/>
   <tile gid="4995"/>
   <tile gid="4996"/>
   <tile gid="4997"/>
   <tile gid="4998"/>
   <tile gid="4999"/>
   <tile gid="5000"/>
   <tile gid="5001"/>
   <tile gid="5002"/>
   <tile gid="5003"/>
   <tile gid="5004"/>
   <tile gid="5005"/>
   <tile gid="5006"/>
   <tile gid="5007"/>
   <tile gid="4994"/>
   <tile gid="4995"/>
   <tile gid="4996"/>
   <tile gid="4997"/>
   <tile gid="4998"/>
   <tile gid="4999"/>
   <tile gid="5000"/>
   <tile gid="5001"/>
   <tile gid="5002"/>
   <tile gid="5003"/>
   <tile gid="4994"/>
   <tile gid="4995"/>
   <tile gid="4996"/>
   <tile gid="4997"/>
   <tile gid="4998"/>
   <tile gid="4999"/>
   <tile gid="5000"/>
   <tile gid="5001"/>
   <tile gid="5002"/>
   <tile gid="5003"/>
   <tile gid="5004"/>
   <tile gid="5005"/>
   <tile gid="4267"/>
   <tile gid="4268"/>
   <tile gid="4269"/>
   <tile gid="1248"/>
   <tile gid="1248"/>
   <tile gid="1248"/>
   <tile gid="1248"/>
   <tile gid="1248"/>
   <tile gid="1248"/>
   <tile gid="1248"/>
   <tile gid="1248"/>
   <tile gid="1248"/>
   <tile gid="1248"/>
   <tile gid="1248"/>
   <tile gid="1248"/>
   <tile gid="1248"/>
   <tile gid="1248"/>
   <tile gid="4267"/>
   <tile gid="4268"/>
   <tile gid="4269"/>
   <tile gid="4996"/>
   <tile gid="4997"/>
   <tile gid="4998"/>
   <tile gid="4999"/>
   <tile gid="5000"/>
   <tile gid="5001"/>
   <tile gid="5002"/>
   <tile gid="5003"/>
   <tile gid="5004"/>
   <tile gid="5005"/>
   <tile gid="5006"/>
   <tile gid="5007"/>
   <tile gid="4994"/>
   <tile gid="4995"/>
   <tile gid="4996"/>
   <tile gid="4997"/>
   <tile gid="4998"/>
   <tile gid="4999"/>
   <tile gid="5000"/>
   <tile gid="5001"/>
   <tile gid="5002"/>
   <tile gid="5003"/>
   <tile gid="5004"/>
   <tile gid="5005"/>
   <tile gid="5006"/>
   <tile gid="5007"/>
   <tile gid="4994"/>
   <tile gid="4995"/>
   <tile gid="4996"/>
   <tile gid="4997"/>
   <tile gid="4998"/>
   <tile gid="4999"/>
   <tile gid="5000"/>
   <tile gid="5001"/>
   <tile gid="5002"/>
   <tile gid="5003"/>
   <tile gid="5004"/>
   <tile gid="5005"/>
   <tile gid="5006"/>
   <tile gid="4994"/>
   <tile gid="4995"/>
   <tile gid="4996"/>
   <tile gid="4997"/>
   <tile gid="4998"/>
   <tile gid="4999"/>
   <tile gid="5000"/>
   <tile gid="5001"/>
   <tile gid="5002"/>
   <tile gid="5003"/>
   <tile gid="5004"/>
   <tile gid="5058"/>
   <tile gid="5059"/>
   <tile gid="5060"/>
   <tile gid="5061"/>
   <tile gid="5062"/>
   <tile gid="5063"/>
   <tile gid="5064"/>
   <tile gid="5065"/>
   <tile gid="5066"/>
   <tile gid="5067"/>
   <tile gid="5068"/>
   <tile gid="5069"/>
   <tile gid="5070"/>
   <tile gid="5071"/>
   <tile gid="5058"/>
   <tile gid="5059"/>
   <tile gid="5060"/>
   <tile gid="5061"/>
   <tile gid="5062"/>
   <tile gid="5063"/>
   <tile gid="5064"/>
   <tile gid="5065"/>
   <tile gid="5066"/>
   <tile gid="5067"/>
   <tile gid="5068"/>
   <tile gid="5069"/>
   <tile gid="5070"/>
   <tile gid="5071"/>
   <tile gid="5058"/>
   <tile gid="5059"/>
   <tile gid="5060"/>
   <tile gid="5061"/>
   <tile gid="5062"/>
   <tile gid="5063"/>
   <tile gid="5064"/>
   <tile gid="5065"/>
   <tile gid="5066"/>
   <tile gid="5067"/>
   <tile gid="5058"/>
   <tile gid="5059"/>
   <tile gid="5060"/>
   <tile gid="5061"/>
   <tile gid="5062"/>
   <tile gid="5063"/>
   <tile gid="5064"/>
   <tile gid="5065"/>
   <tile gid="5066"/>
   <tile gid="5067"/>
   <tile gid="5068"/>
   <tile gid="5069"/>
   <tile gid="4331"/>
   <tile gid="4332"/>
   <tile gid="4333"/>
   <tile/>
   <tile/>
   <tile/>
   <tile/>
   <tile/>
   <tile/>
   <tile/>
   <tile/>
   <tile/>
   <tile/>
   <tile/>
   <tile/>
   <tile/>
   <tile/>
   <tile gid="4331"/>
   <tile gid="4332"/>
   <tile gid="4333"/>
   <tile gid="5060"/>
   <tile gid="5061"/>
   <tile gid="5062"/>
   <tile gid="5063"/>
   <tile gid="5064"/>
   <tile gid="5065"/>
   <tile gid="5066"/>
   <tile gid="5067"/>
   <tile gid="5068"/>
   <tile gid="5069"/>
   <tile gid="5070"/>
   <tile gid="5071"/>
   <tile gid="5058"/>
   <tile gid="5059"/>
   <tile gid="5060"/>
   <tile gid="5061"/>
   <tile gid="5062"/>
   <tile gid="5063"/>
   <tile gid="5064"/>
   <tile gid="5065"/>
   <tile gid="5066"/>
   <tile gid="5067"/>
   <tile gid="5068"/>
   <tile gid="5069"/>
   <tile gid="5070"/>
   <tile gid="5071"/>
   <tile gid="5058"/>
   <tile gid="5059"/>
   <tile gid="5060"/>
   <tile gid="5061"/>
   <tile gid="5062"/>
   <tile gid="5063"/>
   <tile gid="5064"/>
   <tile gid="5065"/>
   <tile gid="5066"/>
   <tile gid="5067"/>
   <tile gid="5068"/>
   <tile gid="5069"/>
   <tile gid="5070"/>
   <tile gid="5058"/>
   <tile gid="5059"/>
   <tile gid="5060"/>
   <tile gid="5061"/>
   <tile gid="5062"/>
   <tile gid="5063"/>
   <tile gid="5064"/>
   <tile gid="5065"/>
   <tile gid="5066"/>
   <tile gid="5067"/>
   <tile gid="5068"/>
   <tile gid="5122"/>
   <tile gid="5123"/>
   <tile gid="5124"/>
   <tile gid="5125"/>
   <tile gid="5126"/>
   <tile gid="5127"/>
   <tile gid="5128"/>
   <tile gid="5129"/>
   <tile gid="5130"/>
   <tile gid="5131"/>
   <tile gid="5132"/>
   <tile gid="5133"/>
   <tile gid="5134"/>
   <tile gid="5135"/>
   <tile gid="5122"/>
   <tile gid="5123"/>
   <tile gid="5124"/>
   <tile gid="5125"/>
   <tile gid="5126"/>
   <tile gid="5127"/>
   <tile gid="5128"/>
   <tile gid="5129"/>
   <tile gid="5130"/>
   <tile gid="5131"/>
   <tile gid="5132"/>
   <tile gid="5133"/>
   <tile gid="5134"/>
   <tile gid="5135"/>
   <tile gid="5122"/>
   <tile gid="5123"/>
   <tile gid="5124"/>
   <tile gid="5125"/>
   <tile gid="5126"/>
   <tile gid="5127"/>
   <tile gid="5128"/>
   <tile gid="5129"/>
   <tile gid="5130"/>
   <tile gid="5131"/>
   <tile gid="5122"/>
   <tile gid="5123"/>
   <tile gid="5124"/>
   <tile gid="5125"/>
   <tile gid="5126"/>
   <tile gid="5127"/>
   <tile gid="5128"/>
   <tile gid="5129"/>
   <tile gid="5130"/>
   <tile gid="5131"/>
   <tile gid="5132"/>
   <tile gid="5133"/>
   <tile gid="4395"/>
   <tile gid="4396"/>
   <tile gid="4397"/>
   <tile/>
   <tile/>
   <tile/>
   <tile/>
   <tile/>
   <tile/>
   <tile/>
   <tile/>
   <tile/>
   <tile/>
   <tile/>
   <tile/>
   <tile/>
   <tile/>
   <tile gid="4395"/>
   <tile gid="4396"/>
   <tile gid="4397"/>
   <tile gid="5124"/>
   <tile gid="5125"/>
   <tile gid="5126"/>
   <tile gid="5127"/>
   <tile gid="5128"/>
   <tile gid="5129"/>
   <tile gid="5130"/>
   <tile gid="5131"/>
   <tile gid="5132"/>
   <tile gid="5133"/>
   <tile gid="5134"/>
   <tile gid="5135"/>
   <tile gid="5122"/>
   <tile gid="5123"/>
   <tile gid="5124"/>
   <tile gid="5125"/>
   <tile gid="5126"/>
   <tile gid="5127"/>
   <tile gid="5128"/>
   <tile gid="5129"/>
   <tile gid="5130"/>
   <tile gid="5131"/>
   <tile gid="5132"/>
   <tile gid="5133"/>
   <tile gid="5134"/>
   <tile gid="5135"/>
   <tile gid="5122"/>
   <tile gid="5123"/>
   <tile gid="5124"/>
   <tile gid="5125"/>
   <tile gid="5126"/>
   <tile gid="5127"/>
   <tile gid="5128"/>
   <tile gid="5129"/>
   <tile gid="5130"/>
   <tile gid="5131"/>
   <tile gid="5132"/>
   <tile gid="5133"/>
   <tile gid="5134"/>
   <tile gid="5122"/>
   <tile gid="5123"/>
   <tile gid="5124"/>
   <tile gid="5125"/>
   <tile gid="5126"/>
   <tile gid="5127"/>
   <tile gid="5128"/>
   <tile gid="5129"/>
   <tile gid="5130"/>
   <tile gid="5131"/>
   <tile gid="5132"/>
   <tile gid="5186"/>
   <tile gid="5187"/>
   <tile gid="5188"/>
   <tile gid="5189"/>
   <tile gid="5190"/>
   <tile gid="5191"/>
   <tile gid="5192"/>
   <tile gid="5193"/>
   <tile gid="5194"/>
   <tile gid="5195"/>
   <tile gid="5196"/>
   <tile gid="5197"/>
   <tile gid="5198"/>
   <tile gid="5199"/>
   <tile gid="5186"/>
   <tile gid="5187"/>
   <tile gid="5188"/>
   <tile gid="5189"/>
   <tile gid="5190"/>
   <tile gid="5191"/>
   <tile gid="5192"/>
   <tile gid="5193"/>
   <tile gid="5194"/>
   <tile gid="5195"/>
   <tile gid="5196"/>
   <tile gid="5197"/>
   <tile gid="5198"/>
   <tile gid="5199"/>
   <tile gid="5186"/>
   <tile gid="5187"/>
   <tile gid="5188"/>
   <tile gid="5189"/>
   <tile gid="5190"/>
   <tile gid="5191"/>
   <tile gid="5192"/>
   <tile gid="5193"/>
   <tile gid="5194"/>
   <tile gid="5195"/>
   <tile gid="5186"/>
   <tile gid="5187"/>
   <tile gid="5188"/>
   <tile gid="5189"/>
   <tile gid="5190"/>
   <tile gid="5191"/>
   <tile gid="5192"/>
   <tile gid="5193"/>
   <tile gid="5194"/>
   <tile gid="5195"/>
   <tile gid="5196"/>
   <tile gid="5197"/>
   <tile gid="4459"/>
   <tile gid="4460"/>
   <tile gid="4461"/>
   <tile/>
   <tile/>
   <tile/>
   <tile/>
   <tile/>
   <tile/>
   <tile/>
   <tile/>
   <tile/>
   <tile/>
   <tile/>
   <tile/>
   <tile/>
   <tile/>
   <tile gid="4459"/>
   <tile gid="4460"/>
   <tile gid="4461"/>
   <tile gid="5188"/>
   <tile gid="5189"/>
   <tile gid="5190"/>
   <tile gid="5191"/>
   <tile gid="5192"/>
   <tile gid="5193"/>
   <tile gid="5194"/>
   <tile gid="5195"/>
   <tile gid="5196"/>
   <tile gid="5197"/>
   <tile gid="5198"/>
   <tile gid="5199"/>
   <tile gid="5186"/>
   <tile gid="5187"/>
   <tile gid="5188"/>
   <tile gid="5189"/>
   <tile gid="5190"/>
   <tile gid="5191"/>
   <tile gid="5192"/>
   <tile gid="5193"/>
   <tile gid="5194"/>
   <tile gid="5195"/>
   <tile gid="5196"/>
   <tile gid="5197"/>
   <tile gid="5198"/>
   <tile gid="5199"/>
   <tile gid="5186"/>
   <tile gid="5187"/>
   <tile gid="5188"/>
   <tile gid="5189"/>
   <tile gid="5190"/>
   <tile gid="5191"/>
   <tile gid="5192"/>
   <tile gid="5193"/>
   <tile gid="5194"/>
   <tile gid="5195"/>
   <tile gid="5196"/>
   <tile gid="5197"/>
   <tile gid="5198"/>
   <tile gid="5186"/>
   <tile gid="5187"/>
   <tile gid="5188"/>
   <tile gid="5189"/>
   <tile gid="5190"/>
   <tile gid="5191"/>
   <tile gid="5192"/>
   <tile gid="5193"/>
   <tile gid="5194"/>
   <tile gid="5195"/>
   <tile gid="5196"/>
   <tile gid="5250"/>
   <tile gid="5251"/>
   <tile gid="5252"/>
   <tile gid="5253"/>
   <tile gid="5254"/>
   <tile gid="5255"/>
   <tile gid="5256"/>
   <tile gid="5257"/>
   <tile gid="5258"/>
   <tile gid="5259"/>
   <tile gid="5260"/>
   <tile gid="5261"/>
   <tile gid="5262"/>
   <tile gid="5263"/>
   <tile gid="5250"/>
   <tile gid="5251"/>
   <tile gid="5252"/>
   <tile gid="5253"/>
   <tile gid="5254"/>
   <tile gid="5255"/>
   <tile gid="5256"/>
   <tile gid="5257"/>
   <tile gid="5258"/>
   <tile gid="5259"/>
   <tile gid="5260"/>
   <tile gid="5261"/>
   <tile gid="5262"/>
   <tile gid="5263"/>
   <tile gid="5250"/>
   <tile gid="5251"/>
   <tile gid="5252"/>
   <tile gid="5253"/>
   <tile gid="5254"/>
   <tile gid="5255"/>
   <tile gid="5256"/>
   <tile gid="5257"/>
   <tile gid="5258"/>
   <tile gid="5259"/>
   <tile gid="5250"/>
   <tile gid="5251"/>
   <tile gid="5252"/>
   <tile gid="5253"/>
   <tile gid="5254"/>
   <tile gid="5255"/>
   <tile gid="5256"/>
   <tile gid="5257"/>
   <tile gid="5258"/>
   <tile gid="5259"/>
   <tile gid="5260"/>
   <tile gid="5261"/>
   <tile gid="4523"/>
   <tile gid="4524"/>
   <tile gid="4525"/>
   <tile/>
   <tile/>
   <tile/>
   <tile/>
   <tile/>
   <tile/>
   <tile/>
   <tile/>
   <tile/>
   <tile/>
   <tile/>
   <tile/>
   <tile/>
   <tile/>
   <tile gid="4523"/>
   <tile gid="4524"/>
   <tile gid="4525"/>
   <tile gid="5252"/>
   <tile gid="5253"/>
   <tile gid="5254"/>
   <tile gid="5255"/>
   <tile gid="5256"/>
   <tile gid="5257"/>
   <tile gid="5258"/>
   <tile gid="5259"/>
   <tile gid="5260"/>
   <tile gid="5261"/>
   <tile gid="5262"/>
   <tile gid="5263"/>
   <tile gid="5250"/>
   <tile gid="5251"/>
   <tile gid="5252"/>
   <tile gid="5253"/>
   <tile gid="5254"/>
   <tile gid="5255"/>
   <tile gid="5256"/>
   <tile gid="5257"/>
   <tile gid="5258"/>
   <tile gid="5259"/>
   <tile gid="5260"/>
   <tile gid="5261"/>
   <tile gid="5262"/>
   <tile gid="5263"/>
   <tile gid="5250"/>
   <tile gid="5251"/>
   <tile gid="5252"/>
   <tile gid="5253"/>
   <tile gid="5254"/>
   <tile gid="5255"/>
   <tile gid="5256"/>
   <tile gid="5257"/>
   <tile gid="5258"/>
   <tile gid="5259"/>
   <tile gid="5260"/>
   <tile gid="5261"/>
   <tile gid="5262"/>
   <tile gid="5250"/>
   <tile gid="5251"/>
   <tile gid="5252"/>
   <tile gid="5253"/>
   <tile gid="5254"/>
   <tile gid="5255"/>
   <tile gid="5256"/>
   <tile gid="5257"/>
   <tile gid="5258"/>
   <tile gid="5259"/>
   <tile gid="5260"/>
   <tile gid="5314"/>
   <tile gid="5315"/>
   <tile gid="5316"/>
   <tile gid="5317"/>
   <tile gid="5318"/>
   <tile gid="5319"/>
   <tile gid="5320"/>
   <tile gid="5321"/>
   <tile gid="5322"/>
   <tile gid="5323"/>
   <tile gid="5324"/>
   <tile gid="5325"/>
   <tile gid="5326"/>
   <tile gid="5327"/>
   <tile gid="5314"/>
   <tile gid="5315"/>
   <tile gid="5316"/>
   <tile gid="5317"/>
   <tile gid="5318"/>
   <tile gid="5319"/>
   <tile gid="5320"/>
   <tile gid="5321"/>
   <tile gid="5322"/>
   <tile gid="5323"/>
   <tile gid="5324"/>
   <tile gid="5325"/>
   <tile gid="5326"/>
   <tile gid="5327"/>
   <tile gid="5314"/>
   <tile gid="5315"/>
   <tile gid="5316"/>
   <tile gid="5317"/>
   <tile gid="5318"/>
   <tile gid="5319"/>
   <tile gid="5320"/>
   <tile gid="5321"/>
   <tile gid="5322"/>
   <tile gid="5323"/>
   <tile gid="5314"/>
   <tile gid="5315"/>
   <tile gid="5316"/>
   <tile gid="5317"/>
   <tile gid="5318"/>
   <tile gid="5319"/>
   <tile gid="5320"/>
   <tile gid="5321"/>
   <tile gid="5322"/>
   <tile gid="5323"/>
   <tile gid="5324"/>
   <tile gid="5325"/>
   <tile gid="4523"/>
   <tile gid="4524"/>
   <tile gid="4525"/>
   <tile/>
   <tile/>
   <tile/>
   <tile/>
   <tile/>
   <tile/>
   <tile/>
   <tile/>
   <tile/>
   <tile/>
   <tile/>
   <tile/>
   <tile/>
   <tile/>
   <tile gid="4523"/>
   <tile gid="4524"/>
   <tile gid="4525"/>
   <tile gid="5316"/>
   <tile gid="5317"/>
   <tile gid="5318"/>
   <tile gid="5319"/>
   <tile gid="5320"/>
   <tile gid="5321"/>
   <tile gid="5322"/>
   <tile gid="5323"/>
   <tile gid="5324"/>
   <tile gid="5325"/>
   <tile gid="5326"/>
   <tile gid="5327"/>
   <tile gid="5314"/>
   <tile gid="5315"/>
   <tile gid="5316"/>
   <tile gid="5317"/>
   <tile gid="5318"/>
   <tile gid="5319"/>
   <tile gid="5320"/>
   <tile gid="5321"/>
   <tile gid="5322"/>
   <tile gid="5323"/>
   <tile gid="5324"/>
   <tile gid="5325"/>
   <tile gid="5326"/>
   <tile gid="5327"/>
   <tile gid="5314"/>
   <tile gid="5315"/>
   <tile gid="5316"/>
   <tile gid="5317"/>
   <tile gid="5318"/>
   <tile gid="5319"/>
   <tile gid="5320"/>
   <tile gid="5321"/>
   <tile gid="5322"/>
   <tile gid="5323"/>
   <tile gid="5324"/>
   <tile gid="5325"/>
   <tile gid="5326"/>
   <tile gid="5314"/>
   <tile gid="5315"/>
   <tile gid="5316"/>
   <tile gid="5317"/>
   <tile gid="5318"/>
   <tile gid="5319"/>
   <tile gid="5320"/>
   <tile gid="5321"/>
   <tile gid="5322"/>
   <tile gid="5323"/>
   <tile gid="5324"/>
   <tile gid="3859"/>
   <tile gid="3860"/>
   <tile gid="3861"/>
   <tile gid="3862"/>
   <tile gid="3863"/>
   <tile gid="3864"/>
   <tile gid="3865"/>
   <tile gid="3866"/>
   <tile gid="3867"/>
   <tile gid="3868"/>
   <tile gid="3869"/>
   <tile gid="3870"/>
   <tile gid="3871"/>
   <tile gid="3868"/>
   <tile gid="3869"/>
   <tile gid="3870"/>
   <tile gid="3871"/>
   <tile gid="3860"/>
   <tile gid="3861"/>
   <tile gid="3862"/>
   <tile gid="3863"/>
   <tile gid="3864"/>
   <tile gid="3865"/>
   <tile gid="3866"/>
   <tile gid="3867"/>
   <tile gid="3868"/>
   <tile gid="3869"/>
   <tile gid="3870"/>
   <tile gid="3871"/>
   <tile gid="3863"/>
   <tile gid="3864"/>
   <tile gid="3865"/>
   <tile gid="3866"/>
   <tile gid="3867"/>
   <tile gid="3868"/>
   <tile gid="3869"/>
   <tile gid="3870"/>
   <tile gid="3871"/>
   <tile gid="3858"/>
   <tile gid="3859"/>
   <tile gid="3860"/>
   <tile gid="3861"/>
   <tile gid="3862"/>
   <tile gid="3863"/>
   <tile gid="3864"/>
   <tile gid="3865"/>
   <tile gid="3866"/>
   <tile gid="3867"/>
   <tile gid="3868"/>
   <tile gid="3869"/>
   <tile gid="3870"/>
   <tile gid="3871"/>
   <tile gid="3869"/>
   <tile/>
   <tile/>
   <tile/>
   <tile/>
   <tile/>
   <tile/>
   <tile/>
   <tile/>
   <tile/>
   <tile/>
   <tile/>
   <tile/>
   <tile/>
   <tile/>
   <tile gid="3869"/>
   <tile gid="3858"/>
   <tile gid="3859"/>
   <tile gid="3860"/>
   <tile gid="3861"/>
   <tile gid="3862"/>
   <tile gid="3863"/>
   <tile gid="3864"/>
   <tile gid="3865"/>
   <tile gid="3866"/>
   <tile gid="3867"/>
   <tile gid="3868"/>
   <tile gid="3869"/>
   <tile gid="3870"/>
   <tile gid="3871"/>
   <tile gid="3858"/>
   <tile gid="3859"/>
   <tile gid="3860"/>
   <tile gid="3861"/>
   <tile gid="3862"/>
   <tile gid="3863"/>
   <tile gid="3864"/>
   <tile gid="3865"/>
   <tile gid="3866"/>
   <tile gid="3867"/>
   <tile gid="3868"/>
   <tile gid="3869"/>
   <tile gid="3870"/>
   <tile gid="3871"/>
   <tile gid="3858"/>
   <tile gid="3859"/>
   <tile gid="3860"/>
   <tile gid="3861"/>
   <tile gid="3862"/>
   <tile gid="3863"/>
   <tile gid="3864"/>
   <tile gid="3865"/>
   <tile gid="3866"/>
   <tile gid="3867"/>
   <tile gid="3858"/>
   <tile gid="3859"/>
   <tile gid="3860"/>
   <tile gid="3861"/>
   <tile gid="3862"/>
   <tile gid="3863"/>
   <tile gid="3864"/>
   <tile gid="3865"/>
   <tile gid="3866"/>
   <tile gid="3867"/>
   <tile gid="3868"/>
   <tile gid="3869"/>
   <tile gid="3870"/>
   <tile gid="3871"/>
   <tile gid="3923"/>
   <tile gid="3924"/>
   <tile gid="3925"/>
   <tile gid="3926"/>
   <tile gid="3927"/>
   <tile gid="3928"/>
   <tile gid="3929"/>
   <tile gid="3930"/>
   <tile gid="3931"/>
   <tile gid="3932"/>
   <tile gid="3933"/>
   <tile gid="3934"/>
   <tile gid="3935"/>
   <tile gid="3932"/>
   <tile gid="3933"/>
   <tile gid="3934"/>
   <tile gid="3935"/>
   <tile gid="3924"/>
   <tile gid="3925"/>
   <tile gid="3926"/>
   <tile gid="3927"/>
   <tile gid="3928"/>
   <tile gid="3929"/>
   <tile gid="3930"/>
   <tile gid="3931"/>
   <tile gid="3932"/>
   <tile gid="3933"/>
   <tile gid="3934"/>
   <tile gid="3935"/>
   <tile gid="3927"/>
   <tile gid="3928"/>
   <tile gid="3929"/>
   <tile gid="3930"/>
   <tile gid="3931"/>
   <tile gid="3932"/>
   <tile gid="3933"/>
   <tile gid="3934"/>
   <tile gid="3935"/>
   <tile gid="3922"/>
   <tile gid="3923"/>
   <tile gid="3924"/>
   <tile gid="3925"/>
   <tile gid="3926"/>
   <tile gid="3927"/>
   <tile gid="3928"/>
   <tile gid="3929"/>
   <tile gid="3930"/>
   <tile gid="3931"/>
   <tile gid="3932"/>
   <tile gid="3933"/>
   <tile gid="3934"/>
   <tile gid="3935"/>
   <tile gid="3933"/>
   <tile/>
   <tile/>
   <tile/>
   <tile/>
   <tile/>
   <tile/>
   <tile/>
   <tile/>
   <tile/>
   <tile/>
   <tile/>
   <tile/>
   <tile/>
   <tile/>
   <tile gid="3933"/>
   <tile gid="3922"/>
   <tile gid="3923"/>
   <tile gid="3924"/>
   <tile gid="3925"/>
   <tile gid="3926"/>
   <tile gid="3927"/>
   <tile gid="3928"/>
   <tile gid="3929"/>
   <tile gid="3930"/>
   <tile gid="3931"/>
   <tile gid="3932"/>
   <tile gid="3933"/>
   <tile gid="3934"/>
   <tile gid="3935"/>
   <tile gid="3922"/>
   <tile gid="3923"/>
   <tile gid="3924"/>
   <tile gid="3925"/>
   <tile gid="3926"/>
   <tile gid="3927"/>
   <tile gid="3928"/>
   <tile gid="3929"/>
   <tile gid="3930"/>
   <tile gid="3931"/>
   <tile gid="3932"/>
   <tile gid="3933"/>
   <tile gid="3934"/>
   <tile gid="3935"/>
   <tile gid="3922"/>
   <tile gid="3923"/>
   <tile gid="3924"/>
   <tile gid="3925"/>
   <tile gid="3926"/>
   <tile gid="3927"/>
   <tile gid="3928"/>
   <tile gid="3929"/>
   <tile gid="3930"/>
   <tile gid="3931"/>
   <tile gid="3922"/>
   <tile gid="3923"/>
   <tile gid="3924"/>
   <tile gid="3925"/>
   <tile gid="3926"/>
   <tile gid="3927"/>
   <tile gid="3928"/>
   <tile gid="3929"/>
   <tile gid="3930"/>
   <tile gid="3931"/>
   <tile gid="3932"/>
   <tile gid="3933"/>
   <tile gid="3934"/>
   <tile gid="3935"/>
   <tile gid="3987"/>
   <tile gid="3988"/>
   <tile gid="3989"/>
   <tile gid="3990"/>
   <tile gid="3991"/>
   <tile gid="3992"/>
   <tile gid="3993"/>
   <tile gid="3994"/>
   <tile gid="3995"/>
   <tile gid="3996"/>
   <tile gid="3997"/>
   <tile gid="3998"/>
   <tile gid="3999"/>
   <tile gid="3996"/>
   <tile gid="3997"/>
   <tile gid="3998"/>
   <tile gid="3999"/>
   <tile gid="3988"/>
   <tile gid="3989"/>
   <tile gid="3990"/>
   <tile gid="3991"/>
   <tile gid="3992"/>
   <tile gid="3993"/>
   <tile gid="3994"/>
   <tile gid="3995"/>
   <tile gid="3996"/>
   <tile gid="3997"/>
   <tile gid="3998"/>
   <tile gid="3999"/>
   <tile gid="3991"/>
   <tile gid="3992"/>
   <tile gid="3993"/>
   <tile gid="3994"/>
   <tile gid="3995"/>
   <tile gid="3996"/>
   <tile gid="3997"/>
   <tile gid="3998"/>
   <tile gid="3999"/>
   <tile gid="3986"/>
   <tile gid="3987"/>
   <tile gid="3988"/>
   <tile gid="3989"/>
   <tile gid="3990"/>
   <tile gid="3991"/>
   <tile gid="3992"/>
   <tile gid="3993"/>
   <tile gid="3994"/>
   <tile gid="3995"/>
   <tile gid="3996"/>
   <tile gid="3997"/>
   <tile gid="3998"/>
   <tile gid="3999"/>
   <tile gid="3997"/>
   <tile/>
   <tile/>
   <tile/>
   <tile/>
   <tile/>
   <tile/>
   <tile/>
   <tile/>
   <tile/>
   <tile/>
   <tile/>
   <tile/>
   <tile/>
   <tile/>
   <tile gid="3997"/>
   <tile gid="3986"/>
   <tile gid="3987"/>
   <tile gid="3988"/>
   <tile gid="3989"/>
   <tile gid="3990"/>
   <tile gid="3991"/>
   <tile gid="3992"/>
   <tile gid="3993"/>
   <tile gid="3994"/>
   <tile gid="3995"/>
   <tile gid="3996"/>
   <tile gid="3997"/>
   <tile gid="3998"/>
   <tile gid="3999"/>
   <tile gid="3986"/>
   <tile gid="3987"/>
   <tile gid="3988"/>
   <tile gid="3989"/>
   <tile gid="3990"/>
   <tile gid="3991"/>
   <tile gid="3992"/>
   <tile gid="3993"/>
   <tile gid="3994"/>
   <tile gid="3995"/>
   <tile gid="3996"/>
   <tile gid="3997"/>
   <tile gid="3998"/>
   <tile gid="3999"/>
   <tile gid="3986"/>
   <tile gid="3987"/>
   <tile gid="3988"/>
   <tile gid="3989"/>
   <tile gid="3990"/>
   <tile gid="3991"/>
   <tile gid="3992"/>
   <tile gid="3993"/>
   <tile gid="3994"/>
   <tile gid="3995"/>
   <tile gid="3986"/>
   <tile gid="3987"/>
   <tile gid="3988"/>
   <tile gid="3989"/>
   <tile gid="3990"/>
   <tile gid="3991"/>
   <tile gid="3992"/>
   <tile gid="3993"/>
   <tile gid="3994"/>
   <tile gid="3995"/>
   <tile gid="3996"/>
   <tile gid="3997"/>
   <tile gid="3998"/>
   <tile gid="3999"/>
   <tile gid="4051"/>
   <tile gid="4052"/>
   <tile gid="4053"/>
   <tile gid="4054"/>
   <tile gid="4055"/>
   <tile gid="4056"/>
   <tile gid="4057"/>
   <tile gid="4058"/>
   <tile gid="4059"/>
   <tile gid="4060"/>
   <tile gid="4061"/>
   <tile gid="4062"/>
   <tile gid="4063"/>
   <tile gid="4060"/>
   <tile gid="4061"/>
   <tile gid="4062"/>
   <tile gid="4063"/>
   <tile gid="4052"/>
   <tile gid="4053"/>
   <tile gid="4054"/>
   <tile gid="4055"/>
   <tile gid="4056"/>
   <tile gid="4057"/>
   <tile gid="4058"/>
   <tile gid="4059"/>
   <tile gid="4060"/>
   <tile gid="4061"/>
   <tile gid="4062"/>
   <tile gid="4063"/>
   <tile gid="4055"/>
   <tile gid="4056"/>
   <tile gid="4057"/>
   <tile gid="4058"/>
   <tile gid="4059"/>
   <tile gid="4060"/>
   <tile gid="4061"/>
   <tile gid="4062"/>
   <tile gid="4063"/>
   <tile gid="4050"/>
   <tile gid="4051"/>
   <tile gid="4052"/>
   <tile gid="4053"/>
   <tile gid="4054"/>
   <tile gid="4055"/>
   <tile gid="4056"/>
   <tile gid="4057"/>
   <tile gid="4058"/>
   <tile gid="4059"/>
   <tile gid="4060"/>
   <tile gid="4061"/>
   <tile gid="4062"/>
   <tile gid="4063"/>
   <tile gid="4061"/>
   <tile/>
   <tile/>
   <tile/>
   <tile/>
   <tile/>
   <tile/>
   <tile/>
   <tile/>
   <tile/>
   <tile/>
   <tile/>
   <tile/>
   <tile/>
   <tile/>
   <tile gid="4061"/>
   <tile gid="4050"/>
   <tile gid="4051"/>
   <tile gid="4052"/>
   <tile gid="4053"/>
   <tile gid="4054"/>
   <tile gid="4055"/>
   <tile gid="4056"/>
   <tile gid="4057"/>
   <tile gid="4058"/>
   <tile gid="4059"/>
   <tile gid="4060"/>
   <tile gid="4061"/>
   <tile gid="4062"/>
   <tile gid="4063"/>
   <tile gid="4050"/>
   <tile gid="4051"/>
   <tile gid="4052"/>
   <tile gid="4053"/>
   <tile gid="4054"/>
   <tile gid="4055"/>
   <tile gid="4056"/>
   <tile gid="4057"/>
   <tile gid="4058"/>
   <tile gid="4059"/>
   <tile gid="4060"/>
   <tile gid="4061"/>
   <tile gid="4062"/>
   <tile gid="4063"/>
   <tile gid="4050"/>
   <tile gid="4051"/>
   <tile gid="4052"/>
   <tile gid="4053"/>
   <tile gid="4054"/>
   <tile gid="4055"/>
   <tile gid="4056"/>
   <tile gid="4057"/>
   <tile gid="4058"/>
   <tile gid="4059"/>
   <tile gid="4050"/>
   <tile gid="4051"/>
   <tile gid="4052"/>
   <tile gid="4053"/>
   <tile gid="4054"/>
   <tile gid="4055"/>
   <tile gid="4056"/>
   <tile gid="4057"/>
   <tile gid="4058"/>
   <tile gid="4059"/>
   <tile gid="4060"/>
   <tile gid="4061"/>
   <tile gid="4062"/>
   <tile gid="4063"/>
   <tile/>
   <tile/>
   <tile/>
   <tile/>
   <tile/>
   <tile/>
   <tile/>
   <tile/>
   <tile/>
   <tile/>
   <tile/>
   <tile/>
   <tile/>
   <tile/>
   <tile/>
   <tile/>
   <tile/>
   <tile/>
   <tile/>
   <tile/>
   <tile/>
   <tile/>
   <tile/>
   <tile/>
   <tile/>
   <tile/>
   <tile/>
   <tile/>
   <tile/>
   <tile/>
   <tile/>
   <tile/>
   <tile/>
   <tile/>
   <tile/>
   <tile/>
   <tile/>
   <tile/>
   <tile/>
   <tile/>
   <tile/>
   <tile/>
   <tile/>
   <tile/>
   <tile/>
   <tile/>
   <tile/>
   <tile/>
   <tile/>
   <tile/>
   <tile/>
   <tile/>
   <tile/>
   <tile/>
   <tile/>
   <tile/>
   <tile/>
   <tile/>
   <tile/>
   <tile/>
   <tile/>
   <tile/>
   <tile/>
   <tile/>
   <tile/>
   <tile/>
   <tile/>
   <tile/>
   <tile/>
   <tile/>
   <tile/>
   <tile/>
   <tile/>
   <tile/>
   <tile/>
   <tile/>
   <tile/>
   <tile/>
   <tile/>
   <tile/>
   <tile/>
   <tile/>
   <tile/>
   <tile/>
   <tile/>
   <tile/>
   <tile/>
   <tile/>
   <tile/>
   <tile/>
   <tile/>
   <tile/>
   <tile/>
   <tile/>
   <tile/>
   <tile/>
   <tile/>
   <tile/>
   <tile/>
   <tile/>
   <tile/>
   <tile/>
   <tile/>
   <tile/>
   <tile/>
   <tile/>
   <tile/>
   <tile/>
   <tile/>
   <tile/>
   <tile/>
   <tile/>
   <tile/>
   <tile/>
   <tile/>
   <tile/>
   <tile/>
   <tile/>
   <tile/>
   <tile/>
   <tile/>
   <tile/>
   <tile/>
   <tile/>
   <tile/>
   <tile/>
   <tile/>
   <tile/>
   <tile/>
   <tile/>
   <tile/>
   <tile/>
   <tile/>
   <tile/>
   <tile/>
   <tile/>
   <tile/>
   <tile/>
   <tile/>
   <tile/>
   <tile/>
   <tile/>
   <tile/>
   <tile/>
   <tile/>
   <tile/>
   <tile/>
   <tile/>
   <tile/>
   <tile/>
   <tile/>
   <tile/>
   <tile/>
   <tile/>
   <tile/>
   <tile/>
   <tile/>
   <tile/>
   <tile/>
   <tile/>
   <tile/>
   <tile/>
   <tile/>
   <tile/>
   <tile/>
   <tile/>
   <tile/>
   <tile/>
   <tile/>
   <tile/>
   <tile/>
   <tile/>
   <tile/>
   <tile/>
   <tile/>
   <tile/>
   <tile/>
   <tile/>
   <tile/>
   <tile/>
   <tile/>
   <tile/>
   <tile/>
   <tile/>
   <tile/>
   <tile/>
   <tile/>
   <tile/>
   <tile/>
   <tile/>
   <tile/>
   <tile/>
   <tile/>
   <tile/>
   <tile/>
   <tile/>
   <tile/>
   <tile/>
   <tile/>
   <tile/>
   <tile/>
   <tile/>
   <tile/>
   <tile/>
   <tile/>
   <tile/>
   <tile/>
   <tile/>
   <tile/>
   <tile/>
   <tile/>
   <tile/>
   <tile/>
   <tile/>
   <tile/>
   <tile/>
   <tile/>
   <tile/>
   <tile/>
   <tile/>
   <tile/>
   <tile/>
   <tile/>
   <tile/>
   <tile/>
   <tile/>
   <tile/>
   <tile/>
   <tile/>
   <tile/>
   <tile/>
   <tile/>
   <tile/>
   <tile/>
   <tile/>
   <tile/>
   <tile/>
   <tile/>
   <tile/>
   <tile/>
   <tile/>
   <tile/>
   <tile/>
   <tile/>
   <tile/>
   <tile/>
   <tile/>
   <tile/>
   <tile/>
   <tile/>
   <tile/>
   <tile/>
   <tile/>
   <tile/>
   <tile/>
   <tile/>
   <tile/>
   <tile/>
   <tile/>
   <tile/>
   <tile/>
   <tile/>
   <tile/>
   <tile/>
   <tile/>
   <tile/>
   <tile/>
   <tile/>
   <tile/>
   <tile/>
   <tile/>
   <tile/>
   <tile/>
   <tile/>
   <tile/>
   <tile/>
   <tile/>
   <tile/>
   <tile/>
   <tile/>
   <tile/>
   <tile/>
   <tile/>
   <tile/>
   <tile/>
   <tile/>
   <tile/>
   <tile/>
   <tile/>
   <tile/>
   <tile/>
   <tile/>
   <tile/>
   <tile/>
   <tile/>
   <tile/>
   <tile/>
   <tile/>
   <tile/>
   <tile/>
   <tile/>
   <tile/>
   <tile/>
   <tile/>
   <tile/>
   <tile/>
   <tile/>
   <tile/>
   <tile/>
   <tile/>
   <tile/>
   <tile/>
   <tile/>
   <tile/>
   <tile/>
   <tile/>
   <tile/>
   <tile/>
   <tile/>
   <tile/>
   <tile/>
   <tile/>
   <tile/>
   <tile/>
   <tile/>
   <tile/>
   <tile/>
   <tile/>
   <tile/>
   <tile/>
   <tile/>
   <tile/>
   <tile/>
   <tile/>
   <tile/>
   <tile/>
   <tile/>
   <tile/>
   <tile/>
   <tile/>
   <tile/>
   <tile/>
   <tile/>
   <tile/>
   <tile/>
   <tile/>
   <tile/>
   <tile/>
   <tile/>
   <tile/>
   <tile/>
   <tile/>
   <tile/>
   <tile/>
   <tile/>
   <tile/>
   <tile/>
   <tile/>
   <tile/>
   <tile/>
   <tile/>
   <tile/>
   <tile/>
   <tile/>
   <tile/>
   <tile/>
   <tile/>
   <tile/>
   <tile/>
   <tile/>
   <tile/>
   <tile/>
   <tile/>
   <tile/>
   <tile/>
   <tile/>
   <tile/>
   <tile/>
   <tile/>
   <tile/>
   <tile/>
   <tile/>
   <tile/>
   <tile/>
   <tile/>
   <tile/>
   <tile/>
   <tile/>
   <tile/>
   <tile/>
   <tile/>
   <tile/>
   <tile/>
   <tile/>
   <tile/>
   <tile/>
   <tile/>
   <tile/>
   <tile/>
   <tile/>
   <tile/>
   <tile/>
   <tile/>
   <tile/>
   <tile/>
   <tile/>
   <tile/>
   <tile/>
   <tile/>
   <tile/>
   <tile/>
   <tile/>
   <tile/>
   <tile/>
   <tile/>
   <tile/>
   <tile/>
   <tile/>
   <tile/>
   <tile/>
   <tile/>
   <tile/>
   <tile/>
   <tile/>
   <tile/>
   <tile/>
   <tile/>
   <tile/>
   <tile/>
   <tile/>
   <tile/>
   <tile/>
   <tile/>
   <tile/>
   <tile/>
   <tile/>
   <tile/>
   <tile/>
   <tile/>
   <tile/>
   <tile/>
   <tile/>
   <tile/>
   <tile/>
   <tile/>
   <tile/>
   <tile/>
   <tile/>
   <tile/>
   <tile/>
   <tile/>
   <tile/>
   <tile/>
   <tile/>
   <tile/>
   <tile/>
   <tile/>
   <tile/>
   <tile/>
   <tile/>
   <tile/>
   <tile/>
   <tile/>
   <tile/>
   <tile/>
   <tile/>
   <tile/>
   <tile/>
   <tile/>
   <tile/>
   <tile/>
   <tile/>
   <tile/>
   <tile/>
   <tile/>
   <tile/>
   <tile/>
   <tile/>
   <tile/>
   <tile/>
   <tile/>
   <tile/>
   <tile/>
   <tile/>
   <tile/>
   <tile/>
   <tile/>
   <tile/>
   <tile/>
   <tile/>
   <tile/>
   <tile/>
   <tile/>
   <tile/>
   <tile/>
   <tile/>
   <tile/>
   <tile/>
   <tile/>
   <tile/>
   <tile/>
   <tile/>
   <tile/>
   <tile/>
   <tile/>
   <tile/>
   <tile/>
   <tile/>
   <tile/>
   <tile/>
   <tile/>
   <tile/>
   <tile/>
   <tile/>
   <tile/>
   <tile/>
   <tile/>
   <tile/>
   <tile/>
   <tile/>
   <tile/>
   <tile/>
   <tile/>
   <tile/>
   <tile/>
   <tile/>
   <tile/>
   <tile/>
   <tile/>
   <tile/>
   <tile/>
   <tile/>
   <tile/>
   <tile/>
   <tile/>
   <tile/>
   <tile/>
   <tile/>
   <tile/>
   <tile/>
   <tile/>
   <tile/>
   <tile/>
   <tile/>
   <tile/>
   <tile/>
   <tile/>
   <tile/>
   <tile/>
   <tile/>
   <tile/>
   <tile/>
   <tile/>
   <tile/>
   <tile/>
   <tile/>
   <tile/>
   <tile/>
   <tile/>
   <tile/>
   <tile/>
   <tile/>
   <tile/>
   <tile/>
   <tile/>
   <tile/>
   <tile/>
   <tile/>
   <tile/>
   <tile/>
   <tile/>
   <tile/>
   <tile/>
   <tile/>
   <tile/>
   <tile/>
   <tile/>
   <tile/>
   <tile/>
   <tile/>
   <tile/>
   <tile/>
   <tile/>
   <tile/>
   <tile/>
   <tile/>
   <tile/>
   <tile/>
   <tile/>
   <tile/>
   <tile/>
   <tile/>
   <tile/>
   <tile/>
   <tile/>
   <tile/>
   <tile/>
   <tile/>
   <tile/>
   <tile/>
   <tile/>
   <tile/>
   <tile/>
   <tile/>
   <tile/>
   <tile/>
   <tile/>
   <tile/>
   <tile/>
   <tile/>
   <tile/>
   <tile/>
   <tile/>
   <tile/>
   <tile/>
   <tile/>
   <tile/>
   <tile/>
   <tile/>
   <tile/>
   <tile/>
   <tile/>
   <tile/>
   <tile/>
   <tile/>
   <tile/>
   <tile/>
   <tile/>
   <tile/>
   <tile/>
   <tile/>
   <tile/>
   <tile/>
   <tile/>
   <tile/>
   <tile/>
   <tile/>
   <tile/>
   <tile/>
   <tile/>
   <tile/>
   <tile/>
   <tile/>
   <tile/>
   <tile/>
   <tile/>
   <tile/>
   <tile/>
   <tile/>
   <tile/>
   <tile/>
   <tile/>
   <tile/>
   <tile/>
   <tile/>
   <tile/>
   <tile/>
   <tile/>
   <tile/>
   <tile/>
   <tile/>
   <tile/>
   <tile/>
   <tile/>
   <tile/>
   <tile/>
   <tile/>
   <tile/>
   <tile/>
   <tile/>
   <tile/>
   <tile/>
   <tile/>
   <tile/>
   <tile/>
   <tile/>
   <tile/>
   <tile/>
   <tile/>
   <tile/>
   <tile/>
   <tile/>
   <tile/>
   <tile/>
   <tile/>
   <tile/>
   <tile/>
   <tile/>
   <tile/>
   <tile/>
   <tile/>
   <tile/>
   <tile/>
   <tile/>
   <tile/>
   <tile/>
   <tile/>
   <tile/>
   <tile/>
   <tile/>
   <tile/>
   <tile/>
   <tile/>
   <tile/>
   <tile/>
   <tile/>
   <tile/>
   <tile/>
   <tile/>
   <tile/>
   <tile/>
   <tile/>
   <tile/>
   <tile/>
   <tile/>
   <tile/>
   <tile/>
   <tile/>
   <tile/>
   <tile/>
   <tile/>
   <tile/>
   <tile/>
   <tile/>
   <tile/>
   <tile/>
   <tile/>
   <tile/>
   <tile/>
   <tile/>
   <tile/>
   <tile/>
   <tile/>
   <tile/>
   <tile/>
   <tile/>
   <tile/>
   <tile/>
   <tile/>
   <tile/>
   <tile/>
   <tile/>
   <tile/>
   <tile/>
   <tile/>
   <tile/>
   <tile/>
   <tile/>
   <tile/>
   <tile/>
   <tile/>
   <tile/>
   <tile/>
   <tile/>
   <tile/>
   <tile/>
   <tile/>
   <tile/>
   <tile/>
   <tile/>
   <tile/>
   <tile/>
   <tile/>
   <tile/>
   <tile/>
   <tile/>
   <tile/>
   <tile/>
   <tile/>
   <tile/>
   <tile/>
   <tile/>
   <tile/>
   <tile/>
   <tile/>
   <tile/>
   <tile/>
   <tile/>
   <tile/>
   <tile/>
   <tile/>
   <tile/>
   <tile/>
   <tile/>
   <tile/>
   <tile/>
   <tile/>
   <tile/>
   <tile/>
   <tile/>
   <tile/>
   <tile/>
   <tile/>
   <tile/>
   <tile/>
   <tile/>
   <tile/>
   <tile/>
   <tile/>
   <tile/>
   <tile/>
   <tile/>
   <tile/>
   <tile/>
   <tile/>
   <tile/>
   <tile/>
   <tile/>
   <tile/>
   <tile/>
   <tile/>
   <tile/>
   <tile/>
   <tile/>
   <tile/>
   <tile/>
   <tile/>
   <tile/>
   <tile/>
   <tile/>
   <tile/>
   <tile/>
   <tile/>
   <tile/>
   <tile/>
   <tile/>
   <tile/>
   <tile/>
   <tile/>
   <tile/>
   <tile/>
   <tile/>
   <tile/>
   <tile/>
   <tile/>
   <tile/>
   <tile/>
   <tile/>
   <tile/>
   <tile/>
   <tile/>
   <tile/>
   <tile/>
   <tile/>
   <tile/>
   <tile/>
   <tile/>
   <tile/>
   <tile/>
   <tile/>
   <tile/>
   <tile/>
   <tile/>
   <tile/>
   <tile/>
   <tile/>
   <tile/>
   <tile/>
   <tile/>
   <tile/>
   <tile/>
   <tile/>
   <tile/>
   <tile/>
   <tile/>
   <tile/>
   <tile/>
   <tile/>
   <tile/>
   <tile/>
   <tile/>
   <tile/>
   <tile/>
   <tile/>
   <tile/>
   <tile/>
   <tile/>
   <tile/>
   <tile/>
   <tile/>
   <tile/>
   <tile/>
   <tile/>
   <tile/>
   <tile/>
   <tile/>
   <tile/>
   <tile/>
   <tile/>
   <tile/>
   <tile/>
   <tile/>
   <tile/>
   <tile/>
   <tile/>
   <tile/>
   <tile/>
   <tile/>
   <tile/>
   <tile/>
   <tile/>
   <tile/>
   <tile/>
   <tile/>
   <tile/>
   <tile/>
   <tile/>
   <tile/>
   <tile/>
   <tile/>
   <tile/>
   <tile/>
   <tile/>
   <tile/>
   <tile/>
   <tile/>
   <tile/>
   <tile/>
   <tile/>
   <tile/>
   <tile/>
   <tile/>
   <tile/>
   <tile/>
   <tile/>
   <tile/>
   <tile/>
   <tile/>
   <tile/>
   <tile/>
   <tile/>
   <tile/>
   <tile/>
   <tile/>
   <tile/>
   <tile/>
   <tile/>
   <tile/>
   <tile/>
   <tile/>
   <tile/>
   <tile/>
   <tile/>
   <tile/>
   <tile/>
   <tile/>
   <tile/>
   <tile/>
   <tile/>
   <tile/>
   <tile/>
   <tile/>
   <tile/>
   <tile/>
   <tile/>
   <tile/>
   <tile/>
   <tile/>
   <tile/>
   <tile/>
   <tile/>
   <tile/>
   <tile/>
   <tile/>
   <tile/>
   <tile/>
   <tile/>
   <tile/>
   <tile/>
   <tile/>
   <tile/>
   <tile/>
   <tile/>
   <tile/>
   <tile/>
   <tile/>
   <tile/>
   <tile/>
   <tile/>
   <tile/>
   <tile/>
   <tile/>
   <tile/>
   <tile/>
   <tile/>
   <tile/>
   <tile/>
   <tile/>
   <tile/>
   <tile/>
   <tile/>
   <tile/>
   <tile/>
   <tile/>
   <tile/>
   <tile/>
   <tile/>
   <tile/>
   <tile/>
   <tile/>
   <tile/>
   <tile/>
   <tile/>
   <tile/>
   <tile/>
   <tile/>
   <tile/>
   <tile/>
   <tile/>
   <tile/>
   <tile/>
   <tile/>
   <tile/>
   <tile/>
   <tile/>
   <tile/>
   <tile/>
   <tile/>
   <tile/>
   <tile/>
   <tile/>
   <tile/>
   <tile/>
   <tile/>
   <tile/>
   <tile/>
   <tile/>
   <tile/>
   <tile/>
   <tile/>
   <tile/>
   <tile/>
   <tile/>
   <tile/>
   <tile/>
   <tile/>
   <tile/>
   <tile/>
   <tile/>
   <tile/>
   <tile/>
   <tile/>
   <tile/>
   <tile/>
   <tile/>
   <tile/>
   <tile/>
   <tile/>
   <tile/>
   <tile/>
   <tile/>
   <tile/>
   <tile/>
   <tile/>
   <tile/>
   <tile/>
   <tile/>
   <tile/>
   <tile/>
   <tile/>
   <tile/>
   <tile/>
   <tile/>
   <tile/>
   <tile/>
   <tile/>
   <tile/>
   <tile/>
   <tile/>
   <tile/>
   <tile/>
   <tile/>
   <tile/>
   <tile/>
   <tile/>
   <tile/>
   <tile/>
   <tile/>
   <tile/>
   <tile/>
   <tile/>
   <tile/>
   <tile/>
   <tile/>
   <tile/>
   <tile/>
   <tile/>
   <tile/>
   <tile/>
   <tile/>
   <tile/>
   <tile/>
   <tile/>
   <tile/>
   <tile/>
   <tile/>
   <tile/>
   <tile/>
   <tile/>
   <tile/>
   <tile/>
   <tile/>
   <tile/>
   <tile/>
   <tile/>
   <tile/>
   <tile/>
   <tile/>
   <tile/>
   <tile/>
   <tile/>
   <tile/>
   <tile/>
   <tile/>
   <tile/>
   <tile/>
   <tile/>
   <tile/>
   <tile/>
   <tile/>
   <tile/>
   <tile/>
   <tile/>
   <tile/>
   <tile/>
   <tile/>
   <tile/>
   <tile/>
   <tile/>
   <tile/>
   <tile/>
   <tile/>
   <tile/>
   <tile/>
   <tile/>
   <tile/>
   <tile/>
   <tile/>
   <tile/>
   <tile/>
   <tile/>
   <tile/>
   <tile/>
   <tile/>
   <tile/>
   <tile/>
   <tile/>
   <tile/>
   <tile/>
   <tile/>
   <tile/>
   <tile/>
   <tile/>
   <tile/>
   <tile/>
   <tile/>
   <tile/>
   <tile/>
   <tile/>
   <tile/>
   <tile/>
   <tile/>
   <tile/>
   <tile/>
   <tile/>
   <tile/>
   <tile/>
   <tile/>
   <tile/>
   <tile/>
   <tile/>
   <tile/>
   <tile/>
   <tile/>
   <tile/>
   <tile/>
   <tile/>
   <tile/>
   <tile/>
   <tile/>
   <tile/>
   <tile/>
   <tile/>
   <tile/>
   <tile/>
   <tile/>
   <tile/>
   <tile/>
   <tile/>
   <tile/>
   <tile/>
   <tile/>
   <tile/>
   <tile/>
   <tile/>
   <tile/>
   <tile/>
   <tile/>
   <tile/>
   <tile/>
   <tile/>
   <tile/>
   <tile/>
   <tile/>
   <tile/>
   <tile/>
   <tile/>
   <tile/>
   <tile/>
   <tile/>
   <tile/>
   <tile/>
   <tile/>
   <tile/>
   <tile/>
   <tile/>
   <tile/>
   <tile/>
   <tile/>
   <tile/>
   <tile/>
   <tile/>
   <tile/>
   <tile/>
   <tile/>
   <tile/>
   <tile/>
   <tile/>
   <tile/>
   <tile/>
   <tile/>
   <tile/>
   <tile/>
   <tile/>
   <tile/>
   <tile/>
   <tile/>
   <tile/>
   <tile/>
   <tile/>
   <tile/>
   <tile/>
   <tile/>
   <tile/>
   <tile/>
   <tile/>
   <tile/>
   <tile/>
   <tile/>
   <tile/>
   <tile/>
   <tile/>
   <tile/>
   <tile/>
   <tile/>
   <tile/>
   <tile/>
   <tile/>
   <tile/>
   <tile/>
   <tile/>
   <tile/>
   <tile/>
   <tile/>
   <tile/>
   <tile/>
   <tile/>
   <tile/>
   <tile/>
   <tile/>
   <tile/>
   <tile/>
   <tile/>
   <tile/>
   <tile/>
   <tile/>
   <tile/>
   <tile/>
   <tile/>
   <tile/>
   <tile/>
   <tile/>
   <tile/>
   <tile/>
   <tile/>
   <tile/>
   <tile/>
   <tile/>
   <tile/>
   <tile/>
   <tile/>
   <tile/>
   <tile/>
   <tile/>
   <tile/>
   <tile/>
   <tile/>
   <tile/>
   <tile/>
   <tile/>
   <tile/>
   <tile/>
   <tile/>
   <tile/>
   <tile/>
   <tile/>
   <tile/>
   <tile/>
   <tile/>
   <tile/>
   <tile/>
   <tile/>
   <tile/>
   <tile/>
   <tile/>
   <tile/>
   <tile/>
   <tile/>
   <tile/>
   <tile/>
   <tile/>
   <tile/>
   <tile/>
   <tile/>
   <tile/>
   <tile/>
   <tile/>
   <tile/>
   <tile/>
   <tile/>
   <tile/>
   <tile/>
   <tile/>
   <tile/>
   <tile/>
   <tile/>
   <tile/>
   <tile/>
   <tile/>
   <tile/>
   <tile/>
   <tile/>
   <tile/>
   <tile/>
   <tile/>
   <tile/>
   <tile/>
   <tile/>
   <tile/>
   <tile/>
   <tile/>
   <tile/>
   <tile/>
   <tile/>
   <tile/>
   <tile/>
   <tile/>
   <tile/>
   <tile/>
   <tile/>
   <tile/>
   <tile/>
   <tile/>
   <tile/>
   <tile/>
   <tile/>
   <tile/>
   <tile/>
   <tile/>
   <tile/>
   <tile/>
   <tile/>
   <tile/>
   <tile/>
   <tile/>
   <tile/>
   <tile/>
   <tile/>
   <tile/>
   <tile/>
   <tile/>
   <tile/>
   <tile/>
   <tile/>
   <tile/>
   <tile/>
   <tile/>
   <tile/>
   <tile/>
   <tile/>
   <tile/>
   <tile/>
   <tile/>
   <tile/>
   <tile/>
   <tile/>
   <tile/>
   <tile/>
   <tile/>
   <tile/>
   <tile/>
   <tile/>
   <tile/>
   <tile/>
   <tile/>
   <tile/>
   <tile/>
   <tile/>
   <tile/>
   <tile/>
   <tile/>
   <tile/>
   <tile/>
   <tile/>
   <tile/>
   <tile/>
   <tile/>
   <tile/>
   <tile/>
   <tile/>
   <tile/>
   <tile/>
   <tile/>
   <tile/>
   <tile/>
   <tile/>
   <tile/>
   <tile/>
   <tile/>
   <tile/>
   <tile/>
   <tile/>
   <tile/>
   <tile/>
   <tile/>
   <tile/>
   <tile/>
   <tile/>
   <tile/>
   <tile/>
   <tile/>
   <tile/>
   <tile/>
   <tile/>
   <tile/>
   <tile/>
   <tile/>
   <tile/>
   <tile/>
   <tile/>
   <tile/>
   <tile/>
   <tile/>
   <tile/>
   <tile/>
   <tile/>
   <tile/>
   <tile/>
   <tile/>
   <tile/>
   <tile/>
   <tile/>
   <tile/>
   <tile/>
   <tile/>
   <tile/>
   <tile/>
   <tile/>
   <tile/>
   <tile/>
   <tile/>
   <tile/>
   <tile/>
   <tile/>
   <tile/>
   <tile/>
   <tile/>
   <tile/>
   <tile/>
   <tile/>
   <tile/>
   <tile/>
   <tile/>
   <tile/>
   <tile/>
   <tile/>
   <tile/>
   <tile/>
   <tile/>
   <tile/>
   <tile/>
   <tile/>
   <tile/>
   <tile/>
   <tile/>
   <tile/>
   <tile/>
   <tile/>
   <tile/>
   <tile/>
   <tile/>
   <tile/>
   <tile/>
   <tile/>
   <tile/>
   <tile/>
   <tile/>
   <tile/>
   <tile/>
   <tile/>
   <tile/>
   <tile/>
   <tile/>
   <tile/>
   <tile/>
   <tile/>
   <tile/>
   <tile/>
   <tile/>
   <tile/>
   <tile/>
   <tile/>
   <tile/>
   <tile/>
   <tile/>
   <tile/>
   <tile/>
   <tile/>
   <tile/>
   <tile/>
   <tile/>
   <tile/>
   <tile/>
   <tile/>
   <tile/>
   <tile/>
   <tile/>
   <tile/>
   <tile/>
   <tile/>
   <tile/>
   <tile/>
   <tile/>
   <tile/>
   <tile/>
   <tile/>
   <tile/>
   <tile/>
   <tile/>
   <tile/>
   <tile/>
   <tile/>
   <tile/>
   <tile/>
   <tile/>
   <tile/>
   <tile/>
   <tile/>
   <tile/>
   <tile/>
   <tile/>
   <tile/>
   <tile/>
   <tile/>
   <tile/>
   <tile/>
   <tile/>
   <tile/>
   <tile/>
   <tile/>
   <tile/>
   <tile/>
   <tile/>
   <tile/>
   <tile/>
   <tile/>
   <tile/>
   <tile/>
   <tile/>
   <tile/>
   <tile/>
   <tile/>
   <tile/>
   <tile/>
   <tile/>
   <tile/>
   <tile/>
   <tile/>
   <tile/>
   <tile/>
   <tile/>
   <tile/>
   <tile/>
   <tile/>
   <tile/>
   <tile/>
   <tile/>
   <tile/>
   <tile/>
   <tile/>
   <tile/>
   <tile/>
   <tile/>
   <tile/>
   <tile/>
   <tile/>
   <tile/>
   <tile/>
   <tile/>
   <tile/>
   <tile/>
   <tile/>
   <tile/>
   <tile/>
   <tile/>
   <tile/>
   <tile/>
   <tile/>
   <tile/>
   <tile/>
   <tile/>
   <tile/>
   <tile/>
   <tile/>
   <tile/>
   <tile/>
   <tile/>
   <tile/>
   <tile/>
   <tile/>
   <tile/>
   <tile/>
   <tile/>
   <tile/>
   <tile/>
   <tile/>
   <tile/>
   <tile/>
   <tile/>
   <tile/>
   <tile/>
   <tile/>
   <tile/>
   <tile/>
   <tile/>
   <tile/>
   <tile/>
   <tile/>
   <tile/>
   <tile/>
   <tile/>
   <tile/>
   <tile/>
   <tile/>
   <tile/>
   <tile/>
   <tile/>
   <tile/>
   <tile/>
   <tile/>
   <tile/>
   <tile/>
   <tile/>
   <tile/>
   <tile/>
   <tile/>
   <tile/>
   <tile/>
   <tile/>
   <tile/>
   <tile/>
   <tile/>
   <tile/>
   <tile/>
   <tile/>
   <tile/>
   <tile/>
   <tile/>
   <tile/>
   <tile/>
   <tile/>
   <tile/>
   <tile/>
   <tile/>
   <tile/>
   <tile/>
   <tile/>
   <tile/>
   <tile/>
   <tile/>
   <tile/>
   <tile/>
   <tile/>
   <tile/>
   <tile/>
   <tile/>
   <tile/>
   <tile/>
   <tile/>
   <tile/>
   <tile/>
   <tile/>
   <tile/>
   <tile/>
   <tile/>
   <tile/>
   <tile/>
   <tile/>
   <tile/>
   <tile/>
   <tile/>
   <tile/>
   <tile/>
   <tile/>
   <tile/>
   <tile/>
   <tile/>
   <tile/>
   <tile/>
   <tile/>
   <tile/>
   <tile/>
   <tile/>
   <tile/>
   <tile/>
   <tile/>
   <tile/>
   <tile/>
   <tile/>
   <tile/>
   <tile/>
   <tile/>
   <tile/>
   <tile/>
   <tile/>
   <tile/>
   <tile/>
   <tile/>
   <tile/>
   <tile/>
   <tile/>
   <tile/>
   <tile/>
   <tile/>
   <tile/>
   <tile/>
   <tile/>
   <tile/>
   <tile/>
   <tile/>
   <tile/>
   <tile/>
   <tile/>
   <tile/>
   <tile/>
   <tile/>
   <tile/>
   <tile/>
   <tile/>
   <tile/>
   <tile/>
   <tile/>
   <tile/>
   <tile/>
   <tile/>
   <tile/>
   <tile/>
   <tile/>
   <tile/>
   <tile/>
   <tile/>
   <tile/>
   <tile/>
   <tile/>
   <tile/>
   <tile/>
   <tile/>
   <tile/>
   <tile/>
   <tile/>
   <tile/>
   <tile/>
   <tile/>
   <tile/>
   <tile/>
   <tile/>
   <tile/>
   <tile/>
   <tile/>
   <tile/>
   <tile/>
   <tile/>
   <tile/>
   <tile/>
   <tile/>
   <tile/>
   <tile/>
   <tile/>
   <tile/>
   <tile/>
   <tile/>
   <tile/>
   <tile/>
   <tile/>
   <tile/>
   <tile/>
   <tile/>
   <tile/>
   <tile/>
   <tile/>
   <tile/>
   <tile/>
   <tile/>
   <tile/>
   <tile/>
   <tile/>
   <tile/>
   <tile/>
   <tile/>
   <tile/>
   <tile/>
   <tile/>
   <tile/>
   <tile/>
   <tile/>
   <tile/>
   <tile/>
   <tile/>
   <tile/>
   <tile/>
   <tile/>
   <tile/>
   <tile/>
   <tile/>
   <tile/>
   <tile/>
   <tile/>
   <tile/>
   <tile/>
   <tile/>
   <tile/>
   <tile/>
   <tile/>
   <tile/>
   <tile/>
   <tile/>
   <tile/>
   <tile/>
   <tile/>
   <tile/>
   <tile/>
   <tile/>
   <tile/>
   <tile/>
   <tile/>
   <tile/>
   <tile/>
   <tile/>
   <tile/>
   <tile/>
   <tile/>
   <tile/>
   <tile/>
   <tile/>
   <tile/>
   <tile/>
   <tile/>
   <tile/>
   <tile/>
   <tile/>
   <tile/>
   <tile/>
   <tile/>
   <tile/>
   <tile/>
   <tile/>
   <tile/>
   <tile/>
   <tile/>
   <tile/>
   <tile/>
   <tile/>
   <tile/>
   <tile/>
   <tile/>
   <tile/>
   <tile/>
   <tile/>
   <tile/>
   <tile/>
   <tile/>
   <tile/>
   <tile/>
   <tile/>
   <tile/>
   <tile/>
   <tile/>
   <tile/>
   <tile/>
   <tile/>
   <tile/>
   <tile/>
   <tile/>
   <tile/>
   <tile/>
   <tile/>
   <tile/>
   <tile/>
   <tile/>
   <tile/>
   <tile/>
   <tile/>
   <tile/>
   <tile/>
   <tile/>
   <tile/>
   <tile/>
   <tile/>
   <tile/>
   <tile/>
   <tile/>
   <tile/>
   <tile/>
   <tile/>
   <tile/>
   <tile/>
   <tile/>
   <tile/>
   <tile/>
   <tile/>
   <tile/>
   <tile/>
   <tile/>
   <tile/>
   <tile/>
   <tile/>
   <tile/>
   <tile/>
   <tile/>
   <tile/>
   <tile/>
   <tile/>
   <tile/>
   <tile/>
   <tile/>
   <tile/>
   <tile/>
   <tile/>
   <tile/>
   <tile/>
   <tile/>
   <tile/>
   <tile/>
   <tile/>
   <tile/>
   <tile/>
   <tile/>
   <tile/>
   <tile/>
   <tile/>
   <tile/>
   <tile/>
   <tile/>
   <tile/>
   <tile/>
   <tile/>
   <tile/>
   <tile/>
   <tile/>
   <tile/>
   <tile/>
   <tile/>
   <tile/>
   <tile/>
   <tile/>
   <tile/>
   <tile/>
   <tile/>
   <tile/>
   <tile/>
   <tile/>
   <tile/>
   <tile/>
   <tile/>
   <tile/>
   <tile/>
   <tile/>
   <tile/>
   <tile/>
   <tile/>
   <tile/>
   <tile/>
   <tile/>
   <tile/>
   <tile/>
   <tile/>
   <tile/>
   <tile/>
   <tile/>
   <tile/>
   <tile/>
   <tile/>
   <tile/>
   <tile/>
   <tile/>
   <tile/>
   <tile/>
   <tile/>
   <tile/>
   <tile/>
   <tile/>
   <tile/>
   <tile/>
   <tile/>
   <tile/>
   <tile/>
   <tile/>
   <tile/>
   <tile/>
   <tile/>
   <tile/>
   <tile/>
   <tile/>
   <tile/>
   <tile/>
   <tile/>
   <tile/>
   <tile/>
   <tile/>
   <tile/>
   <tile/>
   <tile/>
   <tile/>
   <tile/>
   <tile/>
   <tile/>
   <tile/>
   <tile/>
   <tile/>
   <tile/>
   <tile/>
   <tile/>
   <tile/>
   <tile/>
   <tile/>
   <tile/>
   <tile/>
   <tile/>
   <tile/>
   <tile/>
   <tile/>
   <tile/>
   <tile/>
   <tile/>
   <tile/>
   <tile/>
   <tile/>
   <tile/>
   <tile/>
   <tile/>
   <tile/>
   <tile/>
   <tile/>
   <tile/>
   <tile/>
   <tile/>
   <tile/>
   <tile/>
   <tile/>
   <tile/>
   <tile/>
   <tile/>
   <tile/>
   <tile/>
   <tile/>
   <tile/>
   <tile/>
   <tile/>
   <tile/>
   <tile/>
   <tile/>
   <tile/>
   <tile/>
   <tile/>
   <tile/>
   <tile/>
   <tile/>
   <tile/>
   <tile/>
   <tile/>
   <tile/>
   <tile/>
   <tile/>
   <tile/>
   <tile/>
   <tile/>
   <tile/>
   <tile/>
   <tile/>
   <tile/>
   <tile/>
   <tile/>
   <tile/>
   <tile/>
   <tile/>
   <tile/>
   <tile/>
   <tile/>
   <tile/>
   <tile/>
   <tile/>
   <tile/>
   <tile/>
   <tile/>
   <tile/>
   <tile/>
   <tile/>
   <tile/>
   <tile/>
   <tile/>
   <tile/>
   <tile/>
   <tile/>
   <tile/>
   <tile/>
   <tile/>
   <tile/>
   <tile/>
   <tile/>
   <tile/>
   <tile/>
   <tile/>
   <tile/>
   <tile/>
   <tile/>
   <tile/>
   <tile/>
   <tile/>
   <tile/>
   <tile/>
   <tile/>
   <tile/>
   <tile/>
   <tile/>
   <tile/>
   <tile/>
   <tile/>
   <tile/>
   <tile/>
   <tile/>
   <tile/>
   <tile/>
   <tile/>
   <tile/>
   <tile/>
   <tile/>
   <tile/>
   <tile/>
   <tile/>
   <tile/>
   <tile/>
   <tile/>
   <tile/>
   <tile/>
   <tile/>
   <tile/>
   <tile/>
   <tile/>
   <tile/>
   <tile/>
   <tile/>
   <tile/>
   <tile/>
   <tile/>
   <tile/>
   <tile/>
   <tile/>
   <tile/>
   <tile/>
   <tile/>
   <tile/>
   <tile/>
   <tile/>
   <tile/>
   <tile/>
   <tile/>
   <tile/>
   <tile/>
   <tile/>
   <tile/>
   <tile/>
   <tile/>
   <tile/>
   <tile/>
   <tile/>
   <tile/>
   <tile/>
   <tile/>
   <tile/>
   <tile/>
   <tile/>
   <tile/>
   <tile/>
   <tile/>
   <tile/>
   <tile/>
   <tile/>
   <tile/>
   <tile/>
   <tile/>
   <tile/>
   <tile/>
   <tile/>
   <tile/>
   <tile/>
   <tile/>
   <tile/>
   <tile/>
   <tile/>
   <tile/>
   <tile/>
   <tile/>
   <tile/>
   <tile/>
   <tile/>
   <tile/>
   <tile/>
   <tile/>
   <tile/>
   <tile/>
   <tile/>
   <tile/>
   <tile/>
   <tile/>
   <tile/>
   <tile/>
   <tile/>
   <tile/>
   <tile/>
   <tile/>
   <tile/>
   <tile/>
   <tile/>
   <tile/>
   <tile/>
   <tile/>
   <tile/>
   <tile/>
   <tile/>
   <tile/>
   <tile/>
   <tile/>
   <tile/>
   <tile/>
   <tile/>
   <tile/>
   <tile/>
   <tile/>
   <tile/>
   <tile/>
   <tile/>
   <tile/>
   <tile/>
   <tile/>
   <tile/>
   <tile/>
   <tile/>
   <tile/>
   <tile/>
   <tile/>
   <tile/>
   <tile/>
   <tile/>
   <tile/>
   <tile/>
   <tile/>
   <tile/>
   <tile/>
   <tile/>
   <tile/>
   <tile/>
   <tile/>
   <tile/>
   <tile/>
   <tile/>
   <tile/>
   <tile/>
   <tile/>
   <tile/>
   <tile/>
   <tile/>
   <tile/>
   <tile/>
   <tile/>
   <tile/>
   <tile/>
   <tile/>
   <tile/>
   <tile/>
   <tile/>
   <tile/>
   <tile/>
   <tile/>
   <tile/>
   <tile/>
   <tile/>
   <tile/>
   <tile/>
   <tile/>
   <tile/>
   <tile/>
   <tile/>
   <tile/>
   <tile/>
   <tile/>
   <tile/>
   <tile/>
   <tile/>
   <tile/>
   <tile/>
   <tile/>
   <tile/>
   <tile/>
   <tile/>
   <tile/>
   <tile/>
   <tile/>
   <tile/>
   <tile/>
   <tile/>
   <tile/>
   <tile/>
   <tile/>
   <tile/>
   <tile/>
   <tile/>
   <tile/>
   <tile/>
   <tile/>
   <tile/>
   <tile/>
   <tile/>
   <tile/>
   <tile/>
   <tile/>
   <tile/>
   <tile/>
   <tile/>
   <tile/>
   <tile/>
   <tile/>
   <tile/>
   <tile/>
   <tile/>
   <tile/>
   <tile/>
   <tile/>
   <tile/>
   <tile/>
   <tile/>
   <tile/>
   <tile/>
   <tile/>
   <tile/>
   <tile/>
   <tile/>
   <tile/>
   <tile/>
   <tile/>
   <tile/>
   <tile/>
   <tile/>
   <tile/>
   <tile/>
   <tile/>
   <tile/>
   <tile/>
   <tile/>
   <tile/>
   <tile/>
   <tile/>
   <tile/>
   <tile/>
   <tile/>
   <tile/>
   <tile/>
   <tile/>
   <tile/>
   <tile/>
   <tile/>
   <tile/>
   <tile/>
   <tile/>
   <tile/>
   <tile/>
   <tile/>
   <tile/>
   <tile/>
   <tile/>
   <tile/>
   <tile/>
   <tile/>
   <tile/>
   <tile/>
   <tile/>
   <tile/>
   <tile/>
   <tile/>
   <tile/>
   <tile/>
   <tile/>
   <tile/>
   <tile/>
   <tile/>
   <tile/>
   <tile/>
   <tile/>
   <tile/>
   <tile/>
   <tile/>
   <tile/>
   <tile/>
   <tile/>
   <tile/>
   <tile/>
   <tile/>
   <tile/>
   <tile/>
   <tile/>
   <tile/>
   <tile/>
   <tile/>
   <tile/>
   <tile/>
   <tile/>
   <tile/>
   <tile/>
   <tile/>
   <tile/>
   <tile/>
   <tile/>
   <tile/>
   <tile/>
   <tile/>
   <tile/>
   <tile/>
   <tile/>
   <tile/>
   <tile/>
   <tile/>
   <tile/>
   <tile/>
   <tile/>
   <tile/>
   <tile/>
   <tile/>
   <tile/>
   <tile/>
   <tile/>
   <tile/>
   <tile/>
   <tile/>
   <tile/>
   <tile/>
   <tile/>
   <tile/>
   <tile/>
   <tile/>
   <tile/>
   <tile/>
   <tile/>
   <tile/>
   <tile/>
   <tile/>
   <tile/>
   <tile/>
   <tile/>
   <tile/>
   <tile/>
   <tile/>
   <tile/>
   <tile/>
   <tile/>
   <tile/>
   <tile/>
   <tile/>
   <tile/>
   <tile/>
   <tile/>
   <tile/>
   <tile/>
   <tile/>
   <tile/>
   <tile/>
   <tile/>
   <tile/>
   <tile/>
   <tile/>
   <tile/>
   <tile/>
   <tile/>
   <tile/>
   <tile/>
   <tile/>
   <tile/>
   <tile/>
   <tile/>
   <tile/>
   <tile/>
   <tile/>
   <tile/>
   <tile/>
   <tile/>
   <tile/>
   <tile/>
   <tile/>
   <tile/>
   <tile/>
   <tile/>
   <tile/>
   <tile/>
   <tile/>
   <tile/>
   <tile/>
   <tile/>
   <tile/>
   <tile/>
   <tile/>
   <tile/>
   <tile/>
   <tile/>
   <tile/>
   <tile/>
   <tile/>
   <tile/>
   <tile/>
   <tile/>
   <tile/>
   <tile/>
   <tile/>
   <tile/>
   <tile/>
   <tile/>
   <tile/>
   <tile/>
   <tile/>
   <tile/>
   <tile/>
   <tile/>
   <tile/>
   <tile/>
   <tile/>
   <tile/>
   <tile/>
   <tile/>
   <tile/>
   <tile/>
   <tile/>
   <tile/>
   <tile/>
   <tile/>
   <tile/>
   <tile/>
   <tile/>
   <tile/>
   <tile/>
   <tile/>
   <tile/>
   <tile/>
   <tile/>
   <tile/>
   <tile/>
   <tile/>
   <tile/>
   <tile/>
   <tile/>
   <tile/>
   <tile/>
   <tile/>
   <tile/>
   <tile/>
   <tile/>
   <tile/>
   <tile/>
   <tile/>
   <tile/>
   <tile/>
   <tile/>
   <tile/>
   <tile/>
   <tile/>
   <tile/>
   <tile/>
   <tile/>
   <tile/>
   <tile/>
   <tile/>
   <tile/>
   <tile/>
   <tile/>
   <tile/>
   <tile/>
   <tile/>
   <tile/>
   <tile/>
   <tile/>
   <tile/>
   <tile/>
   <tile/>
   <tile/>
   <tile/>
   <tile/>
   <tile/>
   <tile/>
   <tile/>
   <tile/>
   <tile/>
   <tile/>
   <tile/>
   <tile/>
   <tile/>
   <tile/>
   <tile/>
   <tile/>
   <tile/>
   <tile/>
   <tile/>
   <tile/>
   <tile/>
   <tile/>
   <tile/>
   <tile/>
   <tile/>
   <tile/>
   <tile/>
   <tile/>
   <tile/>
   <tile/>
   <tile/>
   <tile/>
   <tile/>
   <tile/>
   <tile/>
   <tile/>
   <tile/>
   <tile/>
   <tile/>
   <tile/>
   <tile/>
   <tile/>
   <tile/>
   <tile/>
   <tile/>
   <tile/>
   <tile/>
   <tile/>
   <tile/>
   <tile/>
   <tile/>
   <tile/>
   <tile/>
   <tile/>
   <tile/>
   <tile/>
   <tile/>
   <tile/>
   <tile/>
   <tile/>
   <tile/>
   <tile/>
   <tile/>
   <tile/>
   <tile/>
   <tile/>
   <tile/>
   <tile/>
   <tile/>
   <tile/>
   <tile/>
   <tile/>
   <tile/>
   <tile/>
   <tile/>
   <tile/>
   <tile/>
   <tile/>
   <tile/>
   <tile/>
   <tile/>
   <tile/>
   <tile/>
   <tile/>
   <tile/>
   <tile/>
   <tile/>
   <tile/>
   <tile/>
   <tile/>
   <tile/>
   <tile/>
   <tile/>
   <tile/>
   <tile/>
   <tile/>
   <tile/>
   <tile/>
   <tile/>
   <tile/>
   <tile/>
   <tile/>
   <tile/>
   <tile/>
   <tile/>
   <tile/>
   <tile/>
   <tile/>
   <tile/>
   <tile/>
   <tile/>
   <tile/>
   <tile/>
   <tile/>
   <tile/>
   <tile/>
   <tile/>
   <tile/>
   <tile/>
   <tile/>
   <tile/>
   <tile/>
   <tile/>
   <tile/>
   <tile/>
   <tile/>
   <tile/>
   <tile/>
   <tile/>
   <tile/>
   <tile/>
   <tile/>
   <tile/>
   <tile/>
   <tile/>
   <tile/>
   <tile/>
   <tile/>
   <tile/>
   <tile/>
   <tile/>
   <tile/>
   <tile/>
   <tile/>
   <tile/>
   <tile/>
   <tile/>
   <tile/>
   <tile/>
   <tile/>
   <tile/>
   <tile/>
   <tile/>
   <tile/>
   <tile/>
   <tile/>
   <tile/>
   <tile/>
   <tile/>
   <tile/>
   <tile/>
   <tile/>
   <tile/>
   <tile/>
   <tile/>
   <tile/>
   <tile/>
   <tile/>
   <tile/>
   <tile/>
   <tile/>
   <tile/>
   <tile/>
   <tile/>
   <tile/>
   <tile/>
   <tile/>
   <tile/>
   <tile/>
   <tile/>
   <tile/>
   <tile/>
   <tile/>
   <tile/>
   <tile/>
   <tile/>
   <tile/>
   <tile/>
   <tile/>
   <tile/>
   <tile/>
   <tile/>
   <tile/>
   <tile/>
   <tile/>
   <tile/>
   <tile/>
   <tile/>
   <tile/>
   <tile/>
   <tile/>
   <tile/>
   <tile/>
   <tile/>
   <tile/>
   <tile/>
   <tile/>
   <tile/>
   <tile/>
   <tile/>
   <tile/>
   <tile/>
   <tile/>
   <tile/>
   <tile/>
   <tile/>
   <tile/>
   <tile/>
   <tile/>
   <tile/>
   <tile/>
   <tile/>
   <tile/>
   <tile/>
   <tile/>
   <tile/>
   <tile/>
   <tile/>
   <tile/>
   <tile/>
   <tile/>
   <tile/>
   <tile/>
   <tile/>
   <tile/>
   <tile/>
   <tile/>
   <tile/>
   <tile/>
   <tile/>
   <tile/>
   <tile/>
   <tile/>
   <tile/>
   <tile/>
   <tile/>
   <tile/>
   <tile/>
   <tile/>
   <tile/>
   <tile/>
   <tile/>
   <tile/>
   <tile/>
   <tile/>
   <tile/>
   <tile/>
   <tile/>
   <tile/>
   <tile/>
   <tile/>
   <tile/>
   <tile/>
   <tile/>
   <tile/>
   <tile/>
   <tile/>
   <tile/>
   <tile/>
   <tile/>
   <tile/>
   <tile/>
   <tile/>
   <tile/>
   <tile/>
   <tile/>
   <tile/>
   <tile/>
   <tile/>
   <tile/>
   <tile/>
   <tile/>
   <tile/>
   <tile/>
   <tile/>
   <tile/>
   <tile/>
   <tile/>
   <tile/>
   <tile/>
   <tile/>
   <tile/>
   <tile/>
   <tile/>
   <tile/>
   <tile/>
   <tile/>
   <tile/>
   <tile/>
   <tile/>
   <tile/>
   <tile/>
   <tile/>
   <tile/>
   <tile/>
   <tile/>
   <tile/>
   <tile/>
   <tile/>
   <tile/>
   <tile/>
   <tile/>
   <tile/>
   <tile/>
   <tile/>
   <tile/>
   <tile/>
   <tile/>
   <tile/>
   <tile/>
   <tile/>
   <tile/>
   <tile/>
   <tile/>
   <tile/>
   <tile/>
   <tile/>
   <tile/>
   <tile/>
   <tile/>
   <tile/>
   <tile/>
   <tile/>
   <tile/>
   <tile/>
   <tile/>
   <tile/>
   <tile/>
   <tile/>
   <tile/>
   <tile/>
   <tile/>
   <tile/>
   <tile/>
   <tile/>
   <tile/>
   <tile/>
   <tile/>
   <tile/>
   <tile/>
   <tile/>
   <tile/>
   <tile/>
   <tile/>
   <tile/>
   <tile/>
   <tile/>
   <tile/>
   <tile/>
   <tile/>
   <tile/>
   <tile/>
   <tile/>
   <tile/>
   <tile/>
   <tile/>
   <tile/>
   <tile/>
   <tile/>
   <tile/>
   <tile/>
   <tile/>
   <tile/>
   <tile/>
   <tile/>
   <tile/>
   <tile/>
   <tile/>
   <tile/>
   <tile/>
   <tile/>
   <tile/>
   <tile/>
   <tile/>
   <tile/>
   <tile/>
   <tile/>
   <tile/>
   <tile/>
   <tile/>
   <tile/>
   <tile/>
   <tile/>
   <tile/>
   <tile/>
   <tile/>
   <tile/>
   <tile/>
   <tile/>
   <tile/>
   <tile/>
   <tile/>
   <tile/>
   <tile/>
   <tile/>
   <tile/>
   <tile/>
   <tile/>
   <tile/>
   <tile/>
   <tile/>
   <tile/>
   <tile/>
   <tile/>
   <tile/>
   <tile/>
   <tile/>
   <tile/>
   <tile/>
   <tile/>
   <tile/>
   <tile/>
   <tile/>
   <tile/>
   <tile/>
   <tile/>
   <tile/>
   <tile/>
   <tile/>
   <tile/>
   <tile/>
   <tile/>
   <tile/>
   <tile/>
   <tile/>
   <tile/>
   <tile/>
   <tile/>
   <tile/>
   <tile/>
   <tile/>
   <tile/>
   <tile/>
   <tile/>
   <tile/>
   <tile/>
   <tile/>
   <tile/>
   <tile/>
   <tile/>
   <tile/>
   <tile/>
   <tile/>
   <tile/>
   <tile/>
   <tile/>
   <tile/>
   <tile/>
   <tile/>
   <tile/>
   <tile/>
   <tile/>
   <tile/>
   <tile/>
   <tile/>
   <tile/>
   <tile/>
   <tile/>
   <tile/>
   <tile/>
   <tile/>
   <tile/>
   <tile/>
   <tile/>
   <tile/>
   <tile/>
   <tile/>
   <tile/>
   <tile/>
   <tile/>
   <tile/>
   <tile/>
   <tile/>
   <tile/>
   <tile/>
   <tile/>
   <tile/>
   <tile/>
   <tile/>
   <tile/>
   <tile/>
   <tile/>
   <tile/>
   <tile/>
   <tile/>
   <tile/>
   <tile/>
   <tile/>
   <tile/>
   <tile/>
   <tile/>
   <tile/>
   <tile/>
   <tile/>
   <tile/>
   <tile/>
   <tile/>
   <tile/>
   <tile/>
   <tile/>
   <tile/>
   <tile/>
   <tile/>
   <tile/>
   <tile/>
   <tile/>
   <tile/>
   <tile/>
   <tile/>
   <tile/>
   <tile/>
   <tile/>
   <tile/>
   <tile/>
   <tile/>
   <tile/>
   <tile/>
   <tile/>
   <tile/>
   <tile/>
   <tile/>
   <tile/>
   <tile/>
   <tile/>
   <tile/>
   <tile/>
   <tile/>
   <tile/>
   <tile/>
   <tile/>
   <tile/>
   <tile/>
   <tile/>
   <tile/>
   <tile/>
   <tile/>
   <tile/>
   <tile/>
   <tile/>
   <tile/>
   <tile/>
   <tile/>
   <tile/>
   <tile/>
   <tile/>
   <tile/>
   <tile/>
   <tile/>
   <tile/>
   <tile/>
   <tile/>
   <tile/>
   <tile/>
   <tile/>
   <tile/>
   <tile/>
   <tile/>
   <tile/>
   <tile/>
   <tile/>
   <tile/>
   <tile/>
   <tile/>
   <tile/>
   <tile/>
   <tile/>
   <tile/>
   <tile/>
   <tile/>
   <tile/>
   <tile/>
   <tile/>
   <tile/>
   <tile/>
   <tile/>
   <tile/>
   <tile/>
   <tile/>
   <tile/>
   <tile/>
   <tile/>
   <tile/>
   <tile/>
   <tile/>
   <tile/>
   <tile/>
   <tile/>
   <tile/>
   <tile/>
   <tile/>
   <tile/>
   <tile/>
   <tile/>
   <tile/>
   <tile/>
   <tile/>
   <tile/>
   <tile/>
   <tile/>
   <tile/>
   <tile/>
   <tile/>
   <tile/>
   <tile/>
   <tile/>
   <tile/>
   <tile/>
   <tile/>
   <tile/>
   <tile/>
   <tile/>
   <tile/>
   <tile/>
   <tile/>
   <tile/>
   <tile/>
   <tile/>
   <tile/>
   <tile/>
   <tile/>
   <tile/>
   <tile/>
   <tile/>
   <tile/>
   <tile/>
   <tile/>
   <tile/>
   <tile/>
   <tile/>
   <tile/>
   <tile/>
   <tile/>
   <tile/>
   <tile/>
   <tile/>
   <tile/>
   <tile/>
   <tile/>
   <tile/>
   <tile/>
   <tile/>
   <tile/>
   <tile/>
   <tile/>
   <tile/>
   <tile/>
   <tile/>
   <tile/>
   <tile/>
   <tile/>
   <tile/>
   <tile/>
   <tile/>
   <tile/>
   <tile/>
   <tile/>
   <tile/>
   <tile/>
   <tile/>
   <tile/>
   <tile/>
   <tile/>
   <tile/>
   <tile/>
   <tile/>
   <tile/>
   <tile/>
   <tile/>
   <tile/>
   <tile/>
   <tile/>
   <tile/>
   <tile/>
   <tile/>
   <tile/>
   <tile/>
   <tile/>
   <tile/>
   <tile/>
   <tile/>
   <tile/>
   <tile/>
   <tile/>
   <tile/>
   <tile/>
   <tile/>
   <tile/>
   <tile/>
   <tile/>
   <tile/>
   <tile/>
   <tile/>
   <tile/>
   <tile/>
   <tile/>
   <tile/>
   <tile/>
   <tile/>
   <tile/>
   <tile/>
   <tile/>
   <tile/>
   <tile/>
   <tile/>
   <tile/>
   <tile/>
   <tile/>
   <tile/>
   <tile/>
   <tile/>
   <tile/>
   <tile/>
   <tile/>
   <tile/>
   <tile/>
   <tile/>
   <tile/>
   <tile/>
   <tile/>
   <tile/>
   <tile/>
   <tile/>
   <tile/>
   <tile/>
   <tile/>
   <tile/>
   <tile/>
   <tile/>
   <tile/>
   <tile/>
   <tile/>
   <tile/>
   <tile/>
   <tile/>
   <tile/>
   <tile/>
   <tile/>
   <tile/>
   <tile/>
   <tile/>
   <tile/>
   <tile/>
   <tile/>
   <tile/>
   <tile/>
   <tile/>
   <tile/>
   <tile/>
   <tile/>
   <tile/>
   <tile/>
   <tile/>
   <tile/>
   <tile/>
   <tile/>
   <tile/>
   <tile/>
   <tile/>
   <tile/>
   <tile/>
   <tile/>
   <tile/>
   <tile/>
   <tile/>
   <tile/>
   <tile/>
   <tile/>
   <tile/>
   <tile/>
   <tile/>
   <tile/>
   <tile/>
   <tile/>
   <tile/>
   <tile/>
   <tile/>
   <tile/>
   <tile/>
   <tile/>
   <tile/>
   <tile/>
   <tile/>
   <tile/>
   <tile/>
   <tile/>
   <tile/>
   <tile/>
   <tile/>
   <tile/>
   <tile/>
   <tile/>
   <tile/>
   <tile/>
   <tile/>
   <tile/>
   <tile/>
   <tile/>
   <tile/>
   <tile/>
   <tile/>
   <tile/>
   <tile/>
   <tile/>
   <tile/>
   <tile/>
   <tile/>
   <tile/>
   <tile/>
   <tile/>
   <tile/>
   <tile/>
   <tile/>
   <tile/>
   <tile/>
   <tile/>
   <tile/>
   <tile/>
   <tile/>
   <tile/>
   <tile/>
   <tile/>
   <tile/>
   <tile/>
   <tile/>
   <tile/>
   <tile/>
   <tile/>
   <tile/>
   <tile/>
   <tile/>
   <tile/>
   <tile/>
   <tile/>
   <tile/>
   <tile/>
   <tile/>
   <tile/>
   <tile/>
   <tile/>
   <tile/>
   <tile/>
   <tile/>
   <tile/>
   <tile/>
   <tile/>
   <tile/>
   <tile/>
   <tile/>
   <tile/>
   <tile/>
   <tile/>
   <tile/>
   <tile/>
   <tile/>
   <tile/>
   <tile/>
   <tile/>
   <tile/>
   <tile/>
   <tile/>
   <tile/>
   <tile/>
   <tile/>
   <tile/>
   <tile/>
   <tile/>
   <tile/>
   <tile/>
   <tile/>
   <tile/>
   <tile/>
   <tile/>
   <tile/>
   <tile/>
   <tile/>
   <tile/>
   <tile/>
   <tile/>
   <tile/>
   <tile/>
   <tile/>
   <tile/>
   <tile/>
   <tile/>
   <tile/>
   <tile/>
   <tile/>
   <tile/>
   <tile/>
   <tile/>
   <tile/>
   <tile/>
   <tile/>
   <tile/>
   <tile/>
   <tile/>
   <tile/>
   <tile/>
   <tile/>
   <tile/>
   <tile/>
   <tile/>
   <tile/>
   <tile/>
   <tile/>
   <tile/>
   <tile/>
   <tile/>
   <tile/>
   <tile/>
   <tile/>
   <tile/>
   <tile/>
   <tile/>
   <tile/>
   <tile/>
   <tile/>
   <tile/>
   <tile/>
   <tile/>
   <tile/>
   <tile/>
   <tile/>
   <tile/>
   <tile/>
   <tile/>
   <tile/>
   <tile/>
   <tile/>
   <tile/>
   <tile/>
   <tile/>
   <tile/>
   <tile/>
   <tile/>
   <tile/>
   <tile/>
   <tile/>
   <tile/>
   <tile/>
   <tile/>
   <tile/>
   <tile/>
   <tile/>
   <tile/>
   <tile/>
   <tile/>
   <tile/>
   <tile/>
   <tile/>
   <tile/>
   <tile/>
   <tile/>
   <tile/>
   <tile/>
   <tile/>
   <tile/>
   <tile/>
   <tile/>
   <tile/>
   <tile/>
   <tile/>
   <tile/>
   <tile/>
   <tile/>
   <tile/>
   <tile/>
   <tile/>
   <tile/>
   <tile/>
   <tile/>
   <tile/>
   <tile/>
   <tile/>
   <tile/>
   <tile/>
   <tile/>
   <tile/>
   <tile/>
   <tile/>
   <tile/>
   <tile/>
   <tile/>
   <tile/>
   <tile/>
   <tile/>
   <tile/>
   <tile/>
   <tile/>
   <tile/>
   <tile/>
   <tile/>
   <tile/>
   <tile/>
   <tile/>
   <tile/>
   <tile/>
   <tile/>
   <tile/>
   <tile/>
   <tile/>
   <tile/>
   <tile/>
   <tile/>
   <tile/>
   <tile/>
   <tile/>
   <tile/>
   <tile/>
   <tile/>
   <tile/>
   <tile/>
   <tile/>
   <tile/>
   <tile/>
   <tile/>
   <tile/>
   <tile/>
   <tile/>
   <tile/>
   <tile/>
   <tile/>
   <tile/>
   <tile/>
   <tile/>
   <tile/>
   <tile/>
   <tile/>
   <tile/>
   <tile/>
   <tile/>
   <tile/>
   <tile/>
   <tile/>
   <tile/>
   <tile/>
   <tile/>
   <tile/>
   <tile/>
   <tile/>
   <tile/>
   <tile/>
   <tile/>
   <tile/>
   <tile/>
   <tile/>
   <tile/>
   <tile/>
   <tile/>
   <tile/>
   <tile/>
   <tile/>
   <tile/>
   <tile/>
   <tile/>
   <tile/>
   <tile/>
   <tile/>
   <tile/>
   <tile/>
   <tile/>
   <tile/>
   <tile/>
   <tile/>
   <tile/>
   <tile/>
   <tile/>
   <tile/>
   <tile/>
   <tile/>
   <tile/>
   <tile/>
   <tile/>
   <tile/>
   <tile/>
   <tile/>
   <tile/>
   <tile/>
   <tile/>
   <tile/>
   <tile/>
   <tile/>
   <tile/>
   <tile/>
   <tile/>
   <tile/>
   <tile/>
   <tile/>
   <tile/>
   <tile/>
   <tile/>
   <tile/>
   <tile/>
   <tile/>
   <tile/>
   <tile/>
   <tile/>
   <tile/>
   <tile/>
   <tile/>
   <tile/>
   <tile/>
   <tile/>
   <tile/>
   <tile/>
   <tile/>
   <tile/>
   <tile/>
   <tile/>
   <tile/>
   <tile/>
   <tile/>
   <tile/>
   <tile/>
   <tile/>
   <tile/>
   <tile/>
   <tile/>
   <tile/>
   <tile/>
   <tile/>
   <tile/>
   <tile/>
   <tile/>
   <tile/>
   <tile/>
   <tile/>
   <tile/>
   <tile/>
   <tile/>
   <tile/>
   <tile/>
   <tile/>
   <tile/>
   <tile/>
   <tile/>
   <tile/>
   <tile/>
   <tile/>
   <tile/>
   <tile/>
   <tile/>
   <tile/>
   <tile/>
   <tile/>
   <tile/>
   <tile/>
   <tile/>
   <tile/>
   <tile/>
   <tile/>
   <tile/>
   <tile/>
   <tile/>
   <tile/>
   <tile/>
   <tile/>
   <tile/>
   <tile/>
   <tile/>
   <tile/>
   <tile/>
   <tile/>
   <tile/>
   <tile/>
   <tile/>
   <tile/>
   <tile/>
   <tile/>
   <tile/>
   <tile/>
   <tile/>
   <tile/>
   <tile/>
   <tile/>
   <tile/>
   <tile/>
   <tile/>
   <tile/>
   <tile/>
   <tile/>
   <tile/>
   <tile/>
   <tile/>
   <tile/>
   <tile/>
   <tile/>
   <tile/>
   <tile/>
   <tile/>
   <tile/>
   <tile/>
   <tile/>
   <tile/>
   <tile/>
   <tile/>
   <tile/>
   <tile/>
   <tile/>
   <tile/>
   <tile/>
   <tile/>
   <tile/>
   <tile/>
   <tile/>
   <tile/>
   <tile/>
   <tile/>
   <tile/>
   <tile/>
   <tile/>
   <tile/>
   <tile/>
   <tile/>
   <tile/>
   <tile/>
   <tile/>
   <tile/>
   <tile/>
   <tile/>
   <tile/>
   <tile/>
   <tile/>
   <tile/>
   <tile/>
   <tile/>
   <tile/>
   <tile/>
   <tile/>
   <tile/>
   <tile/>
   <tile/>
   <tile/>
   <tile/>
   <tile/>
   <tile/>
   <tile/>
   <tile/>
   <tile/>
   <tile/>
   <tile/>
   <tile/>
   <tile/>
   <tile/>
   <tile/>
   <tile/>
   <tile/>
   <tile/>
   <tile/>
   <tile/>
   <tile/>
   <tile/>
   <tile/>
   <tile/>
   <tile/>
   <tile/>
   <tile/>
   <tile/>
   <tile/>
   <tile/>
   <tile/>
   <tile/>
   <tile/>
   <tile/>
   <tile/>
   <tile/>
   <tile/>
   <tile/>
   <tile/>
   <tile/>
   <tile/>
   <tile/>
   <tile/>
   <tile/>
   <tile/>
   <tile/>
   <tile/>
   <tile/>
   <tile/>
   <tile/>
   <tile/>
   <tile/>
   <tile/>
   <tile/>
   <tile/>
   <tile/>
   <tile/>
   <tile/>
   <tile/>
   <tile/>
   <tile/>
   <tile/>
   <tile/>
   <tile/>
   <tile/>
   <tile/>
   <tile/>
   <tile/>
   <tile/>
   <tile/>
   <tile/>
   <tile/>
   <tile/>
   <tile/>
   <tile/>
   <tile/>
   <tile/>
   <tile/>
   <tile/>
   <tile/>
   <tile/>
   <tile/>
   <tile/>
   <tile/>
   <tile/>
   <tile/>
   <tile/>
   <tile/>
   <tile/>
   <tile/>
   <tile/>
   <tile/>
   <tile/>
   <tile/>
   <tile/>
   <tile/>
   <tile/>
   <tile/>
   <tile/>
   <tile/>
   <tile/>
   <tile/>
   <tile/>
   <tile/>
   <tile/>
   <tile/>
   <tile/>
   <tile/>
   <tile/>
   <tile/>
   <tile/>
   <tile/>
   <tile/>
   <tile/>
   <tile/>
   <tile/>
   <tile/>
   <tile/>
   <tile/>
   <tile/>
   <tile/>
   <tile/>
   <tile/>
   <tile/>
   <tile/>
   <tile/>
   <tile/>
   <tile/>
   <tile/>
   <tile/>
   <tile/>
   <tile/>
   <tile/>
   <tile/>
   <tile/>
   <tile/>
   <tile/>
   <tile/>
   <tile/>
   <tile/>
   <tile/>
   <tile/>
   <tile/>
   <tile/>
   <tile/>
   <tile/>
   <tile/>
   <tile/>
   <tile/>
   <tile/>
   <tile/>
   <tile/>
   <tile/>
   <tile/>
   <tile/>
   <tile/>
   <tile/>
   <tile/>
   <tile/>
   <tile/>
   <tile/>
   <tile/>
   <tile/>
   <tile/>
   <tile/>
   <tile/>
   <tile/>
   <tile/>
   <tile/>
   <tile/>
   <tile/>
   <tile/>
   <tile/>
   <tile/>
   <tile/>
   <tile/>
   <tile/>
   <tile/>
   <tile/>
   <tile/>
   <tile/>
   <tile/>
   <tile/>
   <tile/>
   <tile/>
   <tile/>
   <tile/>
   <tile/>
   <tile/>
   <tile/>
   <tile/>
   <tile/>
   <tile/>
   <tile/>
   <tile/>
   <tile/>
   <tile/>
   <tile/>
   <tile/>
   <tile/>
   <tile/>
   <tile/>
   <tile/>
   <tile/>
   <tile/>
   <tile/>
   <tile/>
   <tile/>
   <tile/>
   <tile/>
   <tile/>
   <tile/>
   <tile/>
   <tile/>
   <tile/>
   <tile/>
   <tile/>
   <tile/>
   <tile/>
   <tile/>
   <tile/>
   <tile/>
   <tile/>
   <tile/>
   <tile/>
   <tile/>
   <tile/>
   <tile/>
   <tile/>
   <tile/>
   <tile/>
   <tile/>
   <tile/>
   <tile/>
   <tile/>
   <tile/>
   <tile/>
   <tile/>
   <tile/>
   <tile/>
   <tile/>
   <tile/>
   <tile/>
   <tile/>
   <tile/>
   <tile/>
   <tile/>
   <tile/>
   <tile/>
   <tile/>
   <tile/>
   <tile/>
   <tile/>
   <tile/>
   <tile/>
   <tile/>
   <tile/>
   <tile/>
   <tile/>
   <tile/>
   <tile/>
   <tile/>
   <tile/>
   <tile/>
   <tile/>
   <tile/>
   <tile/>
   <tile/>
   <tile/>
   <tile/>
   <tile/>
   <tile/>
   <tile/>
   <tile/>
   <tile/>
   <tile/>
   <tile/>
   <tile/>
   <tile/>
   <tile/>
   <tile/>
   <tile/>
   <tile/>
   <tile/>
   <tile/>
   <tile/>
   <tile/>
   <tile/>
   <tile/>
   <tile/>
   <tile/>
   <tile/>
   <tile/>
   <tile/>
   <tile/>
   <tile/>
   <tile/>
   <tile/>
   <tile/>
   <tile/>
   <tile/>
   <tile/>
   <tile/>
   <tile/>
   <tile/>
   <tile/>
   <tile/>
   <tile/>
   <tile/>
   <tile/>
   <tile/>
   <tile/>
   <tile/>
   <tile/>
   <tile/>
   <tile/>
   <tile/>
   <tile/>
   <tile/>
   <tile/>
   <tile/>
   <tile/>
   <tile/>
   <tile/>
   <tile/>
   <tile/>
   <tile/>
   <tile/>
   <tile/>
   <tile/>
   <tile/>
   <tile/>
   <tile/>
   <tile/>
   <tile/>
   <tile/>
   <tile/>
   <tile/>
   <tile/>
   <tile/>
   <tile/>
   <tile/>
   <tile/>
   <tile/>
   <tile/>
   <tile/>
   <tile/>
   <tile/>
   <tile/>
   <tile/>
   <tile/>
   <tile/>
   <tile/>
   <tile/>
   <tile/>
   <tile/>
   <tile/>
   <tile/>
   <tile/>
   <tile/>
   <tile/>
   <tile/>
   <tile/>
   <tile/>
   <tile/>
   <tile/>
   <tile/>
   <tile/>
   <tile/>
   <tile/>
   <tile/>
   <tile/>
   <tile/>
   <tile/>
   <tile/>
   <tile/>
   <tile/>
   <tile/>
   <tile/>
   <tile/>
   <tile/>
   <tile/>
   <tile/>
   <tile/>
   <tile/>
   <tile/>
   <tile/>
   <tile/>
   <tile/>
   <tile/>
   <tile/>
   <tile/>
   <tile/>
   <tile/>
   <tile/>
   <tile/>
   <tile/>
   <tile/>
   <tile/>
   <tile/>
   <tile/>
   <tile/>
   <tile/>
   <tile/>
   <tile/>
   <tile/>
   <tile/>
   <tile/>
   <tile/>
   <tile/>
   <tile/>
   <tile/>
   <tile/>
   <tile/>
   <tile/>
   <tile/>
   <tile/>
   <tile/>
   <tile/>
   <tile/>
   <tile/>
   <tile/>
   <tile/>
   <tile/>
   <tile/>
   <tile/>
   <tile/>
   <tile/>
   <tile/>
   <tile/>
   <tile/>
   <tile/>
   <tile/>
   <tile/>
   <tile/>
   <tile/>
   <tile/>
   <tile/>
   <tile/>
   <tile/>
   <tile/>
   <tile/>
   <tile/>
   <tile/>
   <tile/>
   <tile/>
   <tile/>
   <tile/>
   <tile/>
   <tile/>
   <tile/>
   <tile/>
   <tile/>
   <tile/>
   <tile/>
   <tile/>
   <tile/>
   <tile/>
   <tile/>
   <tile/>
   <tile/>
   <tile/>
   <tile/>
   <tile/>
   <tile/>
   <tile/>
   <tile/>
   <tile/>
   <tile/>
   <tile/>
   <tile/>
   <tile/>
   <tile/>
   <tile/>
   <tile/>
   <tile/>
   <tile/>
   <tile/>
   <tile/>
   <tile/>
   <tile/>
   <tile/>
   <tile/>
   <tile/>
   <tile/>
   <tile/>
   <tile/>
   <tile/>
   <tile/>
   <tile/>
   <tile/>
   <tile/>
   <tile/>
   <tile/>
   <tile/>
   <tile/>
   <tile/>
   <tile/>
   <tile/>
   <tile/>
   <tile/>
   <tile/>
   <tile/>
   <tile/>
   <tile/>
   <tile/>
   <tile/>
   <tile/>
   <tile/>
   <tile/>
   <tile/>
   <tile/>
   <tile/>
   <tile/>
   <tile/>
   <tile/>
   <tile/>
   <tile/>
   <tile/>
   <tile/>
   <tile/>
   <tile/>
   <tile/>
   <tile/>
   <tile/>
   <tile/>
   <tile/>
   <tile/>
   <tile/>
   <tile/>
   <tile/>
   <tile/>
   <tile/>
   <tile/>
   <tile/>
   <tile/>
   <tile/>
   <tile/>
   <tile/>
   <tile/>
   <tile/>
   <tile/>
   <tile/>
   <tile/>
   <tile/>
   <tile/>
   <tile/>
   <tile/>
   <tile/>
   <tile/>
   <tile/>
   <tile/>
   <tile/>
   <tile/>
   <tile/>
   <tile/>
   <tile/>
   <tile/>
   <tile/>
   <tile/>
   <tile/>
   <tile/>
   <tile/>
   <tile/>
   <tile/>
   <tile/>
   <tile/>
   <tile/>
   <tile/>
   <tile/>
   <tile/>
   <tile/>
   <tile/>
   <tile/>
   <tile/>
   <tile/>
   <tile/>
   <tile/>
   <tile/>
   <tile/>
   <tile/>
   <tile/>
   <tile/>
   <tile/>
   <tile/>
   <tile/>
   <tile/>
   <tile/>
   <tile/>
   <tile/>
   <tile/>
   <tile/>
   <tile/>
   <tile/>
   <tile/>
   <tile/>
   <tile/>
   <tile/>
   <tile/>
   <tile/>
   <tile/>
   <tile/>
   <tile/>
   <tile/>
   <tile/>
   <tile/>
   <tile/>
   <tile/>
   <tile/>
   <tile/>
   <tile/>
   <tile/>
   <tile/>
   <tile/>
   <tile/>
   <tile/>
   <tile/>
   <tile/>
   <tile/>
   <tile/>
   <tile/>
   <tile/>
   <tile/>
   <tile/>
   <tile/>
   <tile/>
   <tile/>
   <tile/>
   <tile/>
   <tile/>
   <tile/>
   <tile/>
   <tile/>
   <tile/>
   <tile/>
   <tile/>
   <tile/>
   <tile/>
   <tile/>
   <tile/>
   <tile/>
   <tile/>
   <tile/>
   <tile/>
   <tile/>
   <tile/>
   <tile/>
   <tile/>
   <tile/>
   <tile/>
   <tile/>
   <tile/>
   <tile/>
   <tile/>
   <tile/>
   <tile/>
   <tile/>
   <tile/>
   <tile/>
   <tile/>
   <tile/>
   <tile/>
   <tile/>
   <tile/>
   <tile/>
   <tile/>
   <tile/>
   <tile/>
   <tile/>
   <tile/>
   <tile/>
   <tile/>
   <tile/>
   <tile/>
   <tile/>
   <tile/>
   <tile/>
   <tile/>
   <tile/>
   <tile/>
   <tile/>
   <tile/>
   <tile/>
   <tile/>
   <tile/>
   <tile/>
   <tile/>
   <tile/>
   <tile/>
   <tile/>
   <tile/>
   <tile/>
   <tile/>
   <tile/>
   <tile/>
   <tile/>
   <tile/>
   <tile/>
   <tile/>
   <tile/>
   <tile/>
   <tile/>
   <tile/>
   <tile/>
   <tile/>
   <tile/>
   <tile/>
   <tile/>
   <tile/>
   <tile/>
   <tile/>
   <tile/>
   <tile/>
   <tile/>
   <tile/>
   <tile/>
   <tile/>
   <tile/>
   <tile/>
   <tile/>
   <tile/>
   <tile/>
   <tile/>
   <tile/>
   <tile/>
   <tile/>
   <tile/>
   <tile/>
   <tile/>
   <tile/>
   <tile/>
   <tile/>
   <tile/>
   <tile/>
   <tile/>
   <tile/>
   <tile/>
   <tile/>
   <tile/>
   <tile/>
   <tile/>
   <tile/>
   <tile/>
   <tile/>
   <tile/>
   <tile/>
   <tile/>
   <tile/>
   <tile/>
   <tile/>
   <tile/>
   <tile/>
   <tile/>
   <tile/>
   <tile/>
   <tile/>
   <tile/>
   <tile/>
   <tile/>
   <tile/>
   <tile/>
   <tile/>
   <tile/>
   <tile/>
   <tile/>
   <tile/>
   <tile/>
   <tile/>
   <tile/>
   <tile/>
   <tile/>
   <tile/>
   <tile/>
   <tile/>
   <tile/>
   <tile/>
   <tile/>
   <tile/>
   <tile/>
   <tile/>
   <tile/>
   <tile/>
   <tile/>
   <tile/>
   <tile/>
   <tile/>
   <tile/>
   <tile/>
   <tile/>
   <tile/>
   <tile/>
   <tile/>
   <tile/>
   <tile/>
   <tile/>
   <tile/>
   <tile/>
   <tile/>
   <tile/>
   <tile/>
   <tile/>
   <tile/>
   <tile/>
   <tile/>
   <tile/>
   <tile/>
   <tile/>
   <tile/>
   <tile/>
   <tile/>
   <tile/>
   <tile/>
   <tile/>
   <tile/>
   <tile/>
   <tile/>
   <tile/>
   <tile/>
   <tile/>
   <tile/>
   <tile/>
   <tile/>
   <tile/>
   <tile/>
   <tile/>
   <tile/>
   <tile/>
   <tile/>
   <tile/>
   <tile/>
   <tile/>
   <tile/>
   <tile/>
   <tile/>
   <tile/>
   <tile/>
   <tile/>
   <tile/>
   <tile/>
   <tile/>
   <tile/>
   <tile/>
   <tile/>
   <tile/>
   <tile/>
   <tile/>
   <tile/>
   <tile/>
   <tile/>
   <tile/>
   <tile/>
   <tile/>
   <tile/>
   <tile/>
   <tile/>
   <tile/>
   <tile/>
   <tile/>
   <tile/>
   <tile/>
   <tile/>
   <tile/>
   <tile/>
   <tile/>
   <tile/>
   <tile/>
   <tile/>
   <tile/>
   <tile/>
   <tile/>
   <tile/>
   <tile/>
   <tile/>
   <tile/>
   <tile/>
   <tile/>
   <tile/>
   <tile/>
   <tile/>
   <tile/>
   <tile/>
   <tile/>
   <tile/>
   <tile/>
   <tile/>
   <tile/>
   <tile/>
   <tile/>
   <tile/>
   <tile/>
   <tile/>
   <tile/>
   <tile/>
   <tile/>
   <tile/>
   <tile/>
   <tile/>
   <tile/>
   <tile/>
   <tile/>
   <tile/>
   <tile/>
   <tile/>
   <tile/>
   <tile/>
   <tile/>
   <tile/>
   <tile/>
   <tile/>
   <tile/>
   <tile/>
   <tile/>
   <tile/>
   <tile/>
   <tile/>
   <tile/>
   <tile/>
   <tile/>
   <tile/>
   <tile/>
   <tile/>
   <tile/>
   <tile/>
   <tile/>
   <tile/>
   <tile/>
   <tile/>
   <tile/>
   <tile/>
   <tile/>
   <tile/>
   <tile/>
   <tile/>
   <tile/>
   <tile/>
   <tile/>
   <tile/>
   <tile/>
   <tile/>
   <tile/>
   <tile/>
   <tile/>
   <tile/>
   <tile/>
   <tile/>
   <tile/>
   <tile/>
   <tile/>
   <tile/>
   <tile/>
   <tile/>
   <tile/>
   <tile/>
   <tile/>
   <tile/>
   <tile/>
   <tile/>
   <tile/>
   <tile/>
   <tile/>
   <tile/>
   <tile/>
   <tile/>
   <tile/>
   <tile/>
   <tile/>
   <tile/>
   <tile/>
   <tile/>
   <tile/>
   <tile/>
   <tile/>
   <tile/>
   <tile/>
   <tile/>
   <tile/>
   <tile/>
   <tile/>
   <tile/>
   <tile/>
   <tile/>
   <tile/>
   <tile/>
   <tile/>
   <tile/>
   <tile/>
   <tile/>
   <tile/>
   <tile/>
   <tile/>
   <tile/>
   <tile/>
   <tile/>
   <tile/>
   <tile/>
   <tile/>
   <tile/>
   <tile/>
   <tile/>
   <tile/>
   <tile/>
   <tile/>
   <tile/>
   <tile/>
   <tile/>
   <tile/>
   <tile/>
   <tile/>
   <tile/>
   <tile/>
   <tile/>
   <tile/>
   <tile/>
   <tile/>
   <tile/>
   <tile/>
   <tile/>
   <tile/>
   <tile/>
   <tile/>
   <tile/>
   <tile/>
   <tile/>
   <tile/>
   <tile/>
   <tile/>
   <tile/>
   <tile/>
   <tile/>
   <tile/>
   <tile/>
   <tile/>
   <tile/>
   <tile/>
   <tile/>
   <tile/>
   <tile/>
   <tile/>
   <tile/>
   <tile/>
   <tile/>
   <tile/>
   <tile/>
   <tile/>
   <tile/>
   <tile/>
   <tile/>
   <tile/>
   <tile/>
   <tile/>
   <tile/>
   <tile/>
   <tile/>
   <tile/>
   <tile/>
   <tile/>
   <tile/>
   <tile/>
   <tile/>
   <tile/>
   <tile/>
   <tile/>
   <tile/>
   <tile/>
   <tile/>
   <tile/>
   <tile/>
   <tile/>
   <tile/>
   <tile/>
   <tile/>
   <tile/>
   <tile/>
   <tile/>
   <tile/>
   <tile/>
   <tile/>
   <tile/>
   <tile/>
   <tile/>
   <tile/>
   <tile/>
   <tile/>
   <tile/>
   <tile/>
   <tile/>
   <tile/>
   <tile/>
   <tile/>
   <tile/>
   <tile/>
   <tile/>
   <tile/>
   <tile/>
   <tile/>
   <tile/>
   <tile/>
   <tile/>
   <tile/>
   <tile/>
   <tile/>
   <tile/>
   <tile/>
   <tile/>
   <tile/>
   <tile/>
   <tile/>
   <tile/>
   <tile/>
   <tile/>
   <tile/>
   <tile/>
   <tile/>
   <tile/>
   <tile/>
   <tile/>
   <tile/>
   <tile/>
   <tile/>
   <tile/>
   <tile/>
   <tile/>
   <tile/>
   <tile/>
   <tile/>
   <tile/>
   <tile/>
   <tile/>
   <tile/>
   <tile/>
   <tile/>
   <tile/>
   <tile/>
   <tile/>
   <tile/>
   <tile/>
   <tile/>
   <tile/>
   <tile/>
   <tile/>
   <tile/>
   <tile/>
   <tile/>
   <tile/>
   <tile/>
   <tile/>
   <tile/>
   <tile/>
   <tile/>
   <tile/>
   <tile/>
   <tile/>
   <tile/>
   <tile/>
   <tile/>
   <tile/>
   <tile/>
   <tile/>
   <tile/>
   <tile/>
   <tile/>
   <tile/>
   <tile/>
   <tile/>
   <tile/>
   <tile/>
   <tile/>
   <tile/>
   <tile/>
   <tile/>
   <tile/>
   <tile/>
   <tile/>
   <tile/>
   <tile/>
   <tile/>
   <tile/>
   <tile/>
   <tile/>
   <tile/>
   <tile/>
   <tile/>
   <tile/>
   <tile/>
   <tile/>
   <tile/>
   <tile/>
   <tile/>
   <tile/>
   <tile/>
   <tile/>
   <tile/>
   <tile/>
   <tile/>
   <tile/>
   <tile/>
   <tile/>
   <tile/>
   <tile/>
   <tile/>
   <tile/>
   <tile/>
   <tile/>
   <tile/>
   <tile/>
   <tile/>
   <tile/>
   <tile/>
   <tile/>
   <tile/>
   <tile/>
   <tile/>
   <tile/>
   <tile/>
   <tile/>
   <tile/>
   <tile/>
   <tile/>
   <tile/>
   <tile/>
   <tile/>
   <tile/>
   <tile/>
   <tile/>
   <tile/>
   <tile/>
   <tile/>
   <tile/>
   <tile/>
   <tile/>
   <tile/>
   <tile/>
   <tile/>
   <tile/>
   <tile/>
   <tile/>
   <tile/>
   <tile/>
   <tile/>
   <tile/>
   <tile/>
   <tile/>
   <tile/>
   <tile/>
   <tile/>
   <tile/>
   <tile/>
   <tile/>
   <tile/>
   <tile/>
   <tile/>
   <tile/>
   <tile/>
   <tile/>
   <tile/>
   <tile/>
   <tile/>
   <tile/>
   <tile/>
   <tile/>
   <tile/>
   <tile/>
   <tile/>
   <tile/>
   <tile/>
   <tile/>
   <tile/>
   <tile/>
   <tile/>
   <tile/>
   <tile/>
   <tile/>
   <tile/>
   <tile/>
   <tile/>
   <tile/>
   <tile/>
   <tile/>
   <tile/>
   <tile/>
   <tile/>
   <tile/>
   <tile/>
   <tile/>
   <tile/>
   <tile/>
   <tile/>
   <tile/>
   <tile/>
   <tile/>
   <tile/>
   <tile/>
   <tile/>
   <tile/>
   <tile/>
   <tile/>
   <tile/>
   <tile/>
   <tile/>
   <tile/>
   <tile/>
   <tile/>
   <tile/>
   <tile/>
   <tile/>
   <tile/>
   <tile/>
   <tile/>
   <tile/>
   <tile/>
   <tile/>
   <tile/>
   <tile/>
   <tile/>
   <tile/>
   <tile/>
   <tile/>
   <tile/>
   <tile/>
   <tile/>
   <tile/>
   <tile/>
   <tile/>
   <tile/>
   <tile/>
   <tile/>
   <tile/>
   <tile/>
   <tile/>
   <tile/>
   <tile/>
   <tile/>
   <tile/>
   <tile/>
   <tile/>
   <tile/>
   <tile/>
   <tile/>
   <tile/>
   <tile/>
   <tile/>
   <tile/>
   <tile/>
   <tile/>
   <tile/>
   <tile/>
   <tile/>
   <tile/>
   <tile/>
   <tile/>
   <tile/>
   <tile/>
   <tile/>
   <tile/>
   <tile/>
   <tile/>
   <tile/>
   <tile/>
   <tile/>
   <tile/>
   <tile/>
   <tile/>
   <tile/>
   <tile/>
   <tile/>
   <tile/>
   <tile/>
   <tile/>
   <tile/>
   <tile/>
   <tile/>
   <tile/>
   <tile/>
   <tile/>
   <tile/>
   <tile/>
   <tile/>
   <tile/>
   <tile/>
   <tile/>
   <tile/>
   <tile/>
   <tile/>
   <tile/>
   <tile/>
   <tile/>
   <tile/>
   <tile/>
   <tile/>
   <tile/>
   <tile/>
   <tile/>
   <tile/>
   <tile/>
   <tile/>
   <tile/>
   <tile/>
   <tile/>
   <tile/>
   <tile/>
   <tile/>
   <tile/>
   <tile/>
   <tile/>
   <tile/>
   <tile/>
   <tile/>
   <tile/>
   <tile/>
   <tile/>
   <tile/>
   <tile/>
   <tile/>
   <tile/>
   <tile/>
   <tile/>
   <tile/>
   <tile/>
   <tile/>
   <tile/>
   <tile/>
   <tile/>
   <tile/>
   <tile/>
   <tile/>
   <tile/>
   <tile/>
   <tile/>
   <tile/>
   <tile/>
   <tile/>
   <tile/>
   <tile/>
   <tile/>
   <tile/>
   <tile/>
   <tile/>
   <tile/>
   <tile/>
   <tile/>
   <tile/>
   <tile/>
   <tile/>
   <tile/>
   <tile/>
   <tile/>
   <tile/>
   <tile/>
   <tile/>
   <tile/>
   <tile/>
   <tile/>
   <tile/>
   <tile/>
   <tile/>
   <tile/>
   <tile/>
   <tile/>
   <tile/>
   <tile/>
   <tile/>
   <tile/>
   <tile/>
   <tile/>
   <tile/>
   <tile/>
   <tile/>
   <tile/>
   <tile/>
   <tile/>
   <tile/>
   <tile/>
   <tile/>
   <tile/>
   <tile/>
   <tile/>
   <tile/>
   <tile/>
   <tile/>
   <tile/>
   <tile/>
   <tile/>
   <tile/>
   <tile/>
   <tile/>
   <tile/>
   <tile/>
   <tile/>
   <tile/>
   <tile/>
   <tile/>
   <tile/>
   <tile/>
   <tile/>
   <tile/>
   <tile/>
   <tile/>
   <tile/>
   <tile/>
   <tile/>
   <tile/>
   <tile/>
   <tile/>
   <tile/>
   <tile/>
   <tile/>
   <tile/>
   <tile/>
   <tile/>
   <tile/>
   <tile/>
   <tile/>
   <tile/>
   <tile/>
   <tile/>
   <tile/>
   <tile/>
   <tile/>
   <tile/>
   <tile/>
   <tile/>
   <tile/>
   <tile/>
   <tile/>
   <tile/>
   <tile/>
   <tile/>
   <tile/>
   <tile/>
   <tile/>
   <tile/>
   <tile/>
   <tile/>
   <tile/>
   <tile/>
   <tile/>
   <tile/>
   <tile/>
   <tile/>
   <tile/>
   <tile/>
   <tile/>
   <tile/>
   <tile/>
   <tile/>
   <tile/>
   <tile/>
   <tile/>
   <tile/>
   <tile/>
   <tile/>
   <tile/>
   <tile/>
   <tile/>
   <tile/>
   <tile/>
   <tile/>
   <tile/>
   <tile/>
   <tile/>
   <tile/>
   <tile/>
   <tile/>
   <tile/>
   <tile/>
   <tile/>
   <tile/>
   <tile/>
   <tile/>
   <tile/>
   <tile/>
   <tile/>
   <tile/>
   <tile/>
   <tile/>
   <tile/>
   <tile/>
   <tile/>
   <tile/>
   <tile/>
   <tile/>
   <tile/>
   <tile/>
   <tile/>
   <tile/>
   <tile/>
   <tile/>
   <tile/>
   <tile/>
   <tile/>
   <tile/>
   <tile/>
   <tile/>
   <tile/>
   <tile/>
   <tile/>
   <tile/>
   <tile/>
   <tile/>
   <tile/>
   <tile/>
   <tile/>
   <tile/>
   <tile/>
   <tile/>
   <tile/>
   <tile/>
   <tile/>
   <tile/>
   <tile/>
   <tile/>
   <tile/>
   <tile/>
   <tile/>
   <tile/>
   <tile/>
   <tile/>
   <tile/>
   <tile/>
   <tile/>
   <tile/>
   <tile/>
   <tile/>
   <tile/>
   <tile/>
   <tile/>
   <tile/>
   <tile/>
   <tile/>
   <tile/>
   <tile/>
   <tile/>
   <tile/>
   <tile/>
   <tile/>
   <tile/>
   <tile/>
   <tile/>
   <tile/>
   <tile/>
   <tile/>
   <tile/>
   <tile/>
   <tile/>
   <tile/>
   <tile/>
   <tile/>
   <tile/>
   <tile/>
   <tile/>
   <tile/>
   <tile/>
   <tile/>
   <tile/>
   <tile/>
   <tile/>
   <tile/>
   <tile/>
   <tile/>
   <tile/>
   <tile/>
   <tile/>
   <tile/>
   <tile/>
   <tile/>
   <tile/>
   <tile/>
   <tile/>
   <tile/>
   <tile/>
   <tile/>
   <tile/>
   <tile/>
   <tile/>
   <tile/>
   <tile/>
   <tile/>
   <tile/>
   <tile/>
   <tile/>
   <tile/>
   <tile/>
   <tile/>
   <tile/>
   <tile/>
   <tile/>
   <tile/>
   <tile/>
   <tile/>
   <tile/>
   <tile/>
   <tile/>
   <tile/>
   <tile/>
   <tile/>
   <tile/>
   <tile/>
   <tile/>
   <tile/>
   <tile/>
   <tile/>
   <tile/>
   <tile/>
   <tile/>
   <tile/>
   <tile/>
   <tile/>
   <tile/>
   <tile/>
   <tile/>
   <tile/>
   <tile/>
   <tile/>
   <tile/>
   <tile/>
   <tile/>
   <tile/>
   <tile/>
   <tile/>
   <tile/>
   <tile/>
   <tile/>
   <tile/>
   <tile/>
   <tile/>
   <tile/>
   <tile/>
   <tile/>
   <tile/>
   <tile/>
   <tile/>
   <tile/>
   <tile/>
   <tile/>
   <tile/>
   <tile/>
   <tile/>
   <tile/>
   <tile/>
   <tile/>
   <tile/>
   <tile/>
   <tile/>
   <tile/>
   <tile/>
   <tile/>
   <tile/>
   <tile/>
   <tile/>
   <tile/>
   <tile/>
   <tile/>
   <tile/>
   <tile/>
   <tile/>
   <tile/>
   <tile/>
   <tile/>
   <tile/>
   <tile/>
   <tile/>
   <tile/>
   <tile/>
   <tile/>
   <tile/>
   <tile/>
   <tile/>
   <tile/>
   <tile/>
   <tile/>
   <tile/>
   <tile/>
   <tile/>
   <tile/>
   <tile/>
   <tile/>
   <tile/>
   <tile/>
   <tile/>
   <tile/>
   <tile/>
   <tile/>
   <tile/>
   <tile/>
   <tile/>
   <tile/>
   <tile/>
   <tile/>
   <tile/>
   <tile/>
   <tile/>
   <tile/>
   <tile/>
   <tile/>
   <tile/>
   <tile/>
   <tile/>
   <tile/>
   <tile/>
   <tile/>
   <tile/>
   <tile/>
   <tile/>
   <tile/>
   <tile/>
   <tile/>
   <tile/>
   <tile/>
   <tile/>
   <tile/>
   <tile/>
   <tile/>
   <tile/>
   <tile/>
   <tile/>
   <tile/>
   <tile/>
   <tile/>
   <tile/>
   <tile/>
   <tile/>
   <tile/>
   <tile/>
   <tile/>
   <tile/>
   <tile/>
   <tile/>
   <tile/>
   <tile/>
   <tile/>
   <tile/>
   <tile/>
   <tile/>
   <tile/>
   <tile/>
   <tile/>
   <tile/>
   <tile/>
   <tile/>
   <tile/>
   <tile/>
   <tile/>
   <tile/>
   <tile/>
   <tile/>
   <tile/>
   <tile/>
   <tile/>
   <tile/>
   <tile/>
   <tile/>
   <tile/>
   <tile/>
   <tile/>
   <tile/>
   <tile/>
   <tile/>
   <tile/>
   <tile/>
   <tile/>
   <tile/>
   <tile/>
   <tile/>
   <tile/>
   <tile/>
   <tile/>
   <tile/>
   <tile/>
   <tile/>
   <tile/>
   <tile/>
   <tile/>
   <tile/>
   <tile/>
   <tile/>
   <tile/>
   <tile/>
   <tile/>
   <tile/>
   <tile/>
   <tile/>
   <tile/>
   <tile/>
   <tile/>
   <tile/>
   <tile/>
   <tile/>
   <tile/>
   <tile/>
   <tile/>
   <tile/>
   <tile/>
   <tile/>
   <tile/>
   <tile/>
   <tile/>
   <tile/>
   <tile/>
   <tile/>
   <tile/>
   <tile/>
   <tile/>
   <tile/>
   <tile/>
   <tile/>
   <tile/>
   <tile/>
   <tile/>
   <tile/>
   <tile/>
   <tile/>
   <tile/>
   <tile/>
   <tile/>
   <tile/>
   <tile/>
   <tile/>
   <tile/>
   <tile/>
   <tile/>
   <tile/>
   <tile/>
   <tile/>
   <tile/>
   <tile/>
   <tile/>
   <tile/>
   <tile/>
   <tile/>
   <tile/>
   <tile/>
   <tile/>
   <tile/>
   <tile/>
   <tile/>
   <tile/>
   <tile/>
   <tile/>
   <tile/>
   <tile/>
   <tile/>
   <tile/>
   <tile/>
   <tile/>
   <tile/>
   <tile/>
   <tile/>
   <tile/>
   <tile/>
   <tile/>
   <tile/>
   <tile/>
   <tile/>
   <tile/>
   <tile/>
   <tile/>
   <tile/>
   <tile/>
   <tile/>
   <tile/>
   <tile/>
   <tile/>
   <tile/>
   <tile/>
   <tile/>
   <tile/>
   <tile/>
   <tile/>
   <tile/>
   <tile/>
   <tile/>
   <tile/>
   <tile/>
   <tile/>
   <tile/>
   <tile/>
   <tile/>
   <tile/>
   <tile/>
   <tile/>
   <tile/>
   <tile/>
   <tile/>
   <tile/>
   <tile/>
   <tile/>
   <tile/>
   <tile/>
   <tile/>
   <tile/>
   <tile/>
   <tile/>
   <tile/>
   <tile/>
   <tile/>
   <tile/>
   <tile/>
   <tile/>
   <tile/>
   <tile/>
   <tile/>
   <tile/>
   <tile/>
   <tile/>
   <tile/>
   <tile/>
   <tile/>
   <tile/>
   <tile/>
   <tile/>
   <tile/>
   <tile/>
   <tile/>
   <tile/>
   <tile/>
   <tile/>
   <tile/>
   <tile/>
   <tile/>
   <tile/>
   <tile/>
   <tile/>
   <tile/>
   <tile/>
   <tile/>
   <tile/>
   <tile/>
   <tile/>
   <tile/>
   <tile/>
   <tile/>
   <tile/>
   <tile/>
   <tile/>
   <tile/>
   <tile/>
   <tile/>
   <tile/>
   <tile/>
   <tile/>
   <tile/>
   <tile/>
   <tile/>
   <tile/>
   <tile/>
   <tile/>
   <tile/>
   <tile/>
   <tile/>
   <tile/>
   <tile/>
   <tile/>
   <tile/>
   <tile/>
   <tile/>
   <tile/>
   <tile/>
   <tile/>
   <tile/>
   <tile/>
   <tile/>
   <tile/>
   <tile/>
   <tile/>
   <tile/>
   <tile/>
   <tile/>
   <tile/>
   <tile/>
   <tile/>
   <tile/>
   <tile/>
   <tile/>
   <tile/>
   <tile/>
   <tile/>
   <tile/>
   <tile/>
   <tile/>
   <tile/>
   <tile/>
   <tile/>
   <tile/>
   <tile/>
   <tile/>
   <tile/>
   <tile/>
   <tile/>
   <tile/>
   <tile/>
   <tile/>
   <tile/>
   <tile/>
   <tile/>
   <tile/>
   <tile/>
   <tile/>
   <tile/>
   <tile/>
   <tile/>
   <tile/>
   <tile/>
   <tile/>
   <tile/>
   <tile/>
   <tile/>
   <tile/>
   <tile/>
   <tile/>
   <tile/>
   <tile/>
   <tile/>
   <tile/>
   <tile/>
   <tile/>
   <tile/>
   <tile/>
   <tile/>
   <tile/>
   <tile/>
   <tile/>
   <tile/>
   <tile/>
   <tile/>
   <tile/>
   <tile/>
   <tile/>
   <tile/>
   <tile/>
   <tile/>
   <tile/>
   <tile/>
   <tile/>
   <tile/>
   <tile/>
   <tile/>
   <tile/>
   <tile/>
   <tile/>
   <tile/>
   <tile/>
   <tile/>
   <tile/>
   <tile/>
   <tile/>
   <tile/>
   <tile/>
   <tile/>
   <tile/>
   <tile/>
   <tile/>
   <tile/>
   <tile/>
   <tile/>
   <tile/>
   <tile/>
   <tile/>
   <tile/>
   <tile/>
   <tile/>
   <tile/>
   <tile/>
   <tile/>
   <tile/>
   <tile/>
   <tile/>
   <tile/>
   <tile/>
   <tile/>
   <tile/>
   <tile/>
   <tile/>
   <tile/>
   <tile/>
   <tile/>
   <tile/>
   <tile/>
   <tile/>
   <tile/>
   <tile/>
   <tile/>
   <tile/>
   <tile/>
   <tile/>
   <tile/>
   <tile/>
   <tile/>
   <tile/>
   <tile/>
   <tile/>
   <tile/>
   <tile/>
   <tile/>
   <tile/>
   <tile/>
   <tile/>
   <tile/>
   <tile/>
   <tile/>
   <tile/>
   <tile/>
   <tile/>
   <tile/>
   <tile/>
   <tile/>
   <tile/>
   <tile/>
   <tile/>
   <tile/>
   <tile/>
   <tile/>
   <tile/>
   <tile/>
   <tile/>
   <tile/>
   <tile/>
   <tile/>
   <tile/>
   <tile/>
   <tile/>
   <tile/>
   <tile/>
   <tile/>
   <tile/>
   <tile/>
   <tile/>
   <tile/>
   <tile/>
   <tile/>
   <tile/>
   <tile/>
   <tile/>
   <tile/>
   <tile/>
   <tile/>
   <tile/>
   <tile/>
   <tile/>
   <tile/>
   <tile/>
   <tile/>
   <tile/>
   <tile/>
   <tile/>
   <tile/>
   <tile/>
   <tile/>
   <tile/>
   <tile/>
   <tile/>
   <tile/>
   <tile/>
   <tile/>
   <tile/>
   <tile/>
   <tile/>
   <tile/>
   <tile/>
   <tile/>
   <tile/>
   <tile/>
   <tile/>
   <tile/>
   <tile/>
   <tile/>
   <tile/>
   <tile/>
   <tile/>
   <tile/>
   <tile/>
   <tile/>
   <tile/>
   <tile/>
   <tile/>
   <tile/>
   <tile/>
   <tile/>
   <tile/>
   <tile/>
   <tile/>
   <tile/>
   <tile/>
   <tile/>
   <tile/>
   <tile/>
   <tile/>
   <tile/>
   <tile/>
   <tile/>
   <tile/>
   <tile/>
   <tile/>
   <tile/>
   <tile/>
   <tile/>
   <tile/>
   <tile/>
   <tile/>
   <tile/>
   <tile/>
   <tile/>
   <tile/>
   <tile/>
   <tile/>
   <tile/>
   <tile/>
   <tile/>
   <tile/>
   <tile/>
   <tile/>
   <tile/>
   <tile/>
   <tile/>
   <tile/>
   <tile/>
   <tile/>
   <tile/>
   <tile/>
   <tile/>
   <tile/>
   <tile/>
   <tile/>
   <tile/>
   <tile/>
   <tile/>
   <tile/>
   <tile/>
   <tile/>
   <tile/>
   <tile/>
   <tile/>
   <tile/>
   <tile/>
   <tile/>
   <tile/>
   <tile/>
   <tile/>
   <tile/>
   <tile/>
   <tile/>
   <tile/>
   <tile/>
   <tile/>
   <tile/>
   <tile/>
   <tile/>
   <tile/>
   <tile/>
   <tile/>
   <tile/>
   <tile/>
   <tile/>
   <tile/>
   <tile/>
   <tile/>
   <tile/>
   <tile/>
   <tile/>
   <tile/>
   <tile/>
   <tile/>
   <tile/>
   <tile/>
   <tile/>
   <tile/>
   <tile/>
   <tile/>
   <tile/>
   <tile/>
   <tile/>
   <tile/>
   <tile/>
   <tile/>
   <tile/>
   <tile/>
   <tile/>
   <tile/>
   <tile/>
   <tile/>
   <tile/>
   <tile/>
   <tile/>
   <tile/>
   <tile/>
   <tile/>
   <tile/>
   <tile/>
   <tile/>
   <tile/>
   <tile/>
   <tile/>
   <tile/>
   <tile/>
   <tile/>
   <tile/>
   <tile/>
   <tile/>
   <tile/>
   <tile/>
   <tile/>
   <tile/>
   <tile/>
   <tile/>
   <tile/>
   <tile/>
   <tile/>
   <tile/>
   <tile/>
   <tile/>
   <tile/>
   <tile/>
   <tile/>
   <tile/>
   <tile/>
   <tile/>
   <tile/>
   <tile/>
   <tile/>
   <tile/>
   <tile/>
   <tile/>
   <tile/>
   <tile/>
   <tile/>
   <tile/>
   <tile/>
   <tile/>
   <tile/>
   <tile/>
   <tile/>
   <tile/>
   <tile/>
   <tile/>
   <tile/>
   <tile/>
   <tile/>
   <tile/>
   <tile/>
   <tile/>
   <tile/>
   <tile/>
   <tile/>
   <tile/>
   <tile/>
   <tile/>
   <tile/>
   <tile/>
   <tile/>
   <tile/>
   <tile/>
   <tile/>
   <tile/>
   <tile/>
   <tile/>
   <tile/>
   <tile/>
   <tile/>
   <tile/>
   <tile/>
   <tile/>
   <tile/>
   <tile/>
   <tile/>
   <tile/>
   <tile/>
   <tile/>
   <tile/>
   <tile/>
   <tile/>
   <tile/>
   <tile/>
   <tile/>
   <tile/>
   <tile/>
   <tile/>
   <tile/>
   <tile/>
   <tile/>
   <tile/>
   <tile/>
   <tile/>
   <tile/>
   <tile/>
   <tile/>
   <tile/>
   <tile/>
   <tile/>
   <tile/>
   <tile/>
   <tile/>
   <tile/>
   <tile/>
   <tile/>
   <tile/>
   <tile/>
   <tile/>
   <tile/>
   <tile/>
   <tile/>
   <tile/>
   <tile/>
   <tile/>
   <tile/>
   <tile/>
   <tile/>
   <tile/>
   <tile/>
   <tile/>
   <tile/>
   <tile/>
   <tile/>
   <tile/>
   <tile/>
   <tile/>
   <tile/>
   <tile/>
   <tile/>
   <tile/>
   <tile/>
   <tile/>
   <tile/>
   <tile/>
   <tile/>
   <tile/>
   <tile/>
   <tile/>
   <tile/>
   <tile/>
   <tile/>
   <tile/>
   <tile/>
   <tile/>
   <tile/>
   <tile/>
   <tile/>
   <tile/>
   <tile/>
   <tile/>
   <tile/>
   <tile/>
   <tile/>
   <tile/>
   <tile/>
   <tile/>
   <tile/>
   <tile/>
   <tile/>
   <tile/>
   <tile/>
   <tile/>
   <tile/>
   <tile/>
   <tile/>
   <tile/>
   <tile/>
   <tile/>
   <tile/>
   <tile/>
   <tile/>
   <tile/>
   <tile/>
   <tile/>
   <tile/>
   <tile/>
   <tile/>
   <tile/>
   <tile/>
   <tile/>
   <tile/>
   <tile/>
   <tile/>
   <tile/>
   <tile/>
   <tile/>
   <tile/>
   <tile/>
   <tile/>
   <tile/>
   <tile/>
   <tile/>
   <tile/>
   <tile/>
   <tile/>
   <tile/>
   <tile/>
   <tile/>
   <tile/>
   <tile/>
   <tile/>
   <tile/>
   <tile/>
   <tile/>
   <tile/>
   <tile/>
   <tile/>
   <tile/>
   <tile/>
   <tile/>
   <tile/>
   <tile/>
   <tile/>
   <tile/>
   <tile/>
   <tile/>
   <tile/>
   <tile/>
   <tile/>
   <tile/>
   <tile/>
   <tile/>
   <tile/>
   <tile/>
   <tile/>
   <tile/>
   <tile/>
   <tile/>
   <tile/>
   <tile/>
   <tile/>
   <tile/>
   <tile/>
   <tile/>
   <tile/>
   <tile/>
   <tile/>
   <tile/>
   <tile/>
   <tile/>
   <tile/>
   <tile/>
   <tile/>
   <tile/>
   <tile gid="4690"/>
   <tile gid="4691"/>
   <tile gid="4692"/>
   <tile gid="4693"/>
   <tile gid="4694"/>
   <tile gid="4695"/>
   <tile gid="4696"/>
   <tile gid="4697"/>
   <tile gid="4698"/>
   <tile gid="4699"/>
   <tile gid="4700"/>
   <tile gid="4701"/>
   <tile gid="4702"/>
   <tile gid="4703"/>
   <tile gid="4689"/>
   <tile gid="4690"/>
   <tile gid="4691"/>
   <tile gid="4692"/>
   <tile gid="4693"/>
   <tile gid="4694"/>
   <tile gid="4695"/>
   <tile gid="4696"/>
   <tile gid="4697"/>
   <tile gid="4698"/>
   <tile gid="4699"/>
   <tile gid="4700"/>
   <tile gid="4701"/>
   <tile gid="4702"/>
   <tile gid="4703"/>
   <tile gid="4689"/>
   <tile gid="4690"/>
   <tile gid="4691"/>
   <tile gid="4692"/>
   <tile gid="4693"/>
   <tile gid="4694"/>
   <tile gid="4695"/>
   <tile gid="4696"/>
   <tile gid="4697"/>
   <tile gid="4698"/>
   <tile gid="4699"/>
   <tile gid="4700"/>
   <tile gid="4701"/>
   <tile gid="4702"/>
   <tile gid="4703"/>
   <tile gid="4689"/>
   <tile gid="4690"/>
   <tile gid="4691"/>
   <tile gid="4692"/>
   <tile gid="4693"/>
   <tile gid="4694"/>
   <tile gid="4695"/>
   <tile gid="4696"/>
   <tile gid="4697"/>
   <tile gid="4698"/>
   <tile gid="4699"/>
   <tile gid="4700"/>
   <tile gid="4701"/>
   <tile gid="4702"/>
   <tile gid="4703"/>
   <tile gid="4689"/>
   <tile gid="4690"/>
   <tile gid="4691"/>
   <tile gid="4692"/>
   <tile gid="4693"/>
   <tile gid="4694"/>
   <tile gid="4695"/>
   <tile gid="4696"/>
   <tile gid="4697"/>
   <tile gid="4698"/>
   <tile gid="4699"/>
   <tile gid="4700"/>
   <tile gid="4701"/>
   <tile gid="4702"/>
   <tile gid="4703"/>
   <tile gid="4689"/>
   <tile gid="4690"/>
   <tile gid="4691"/>
   <tile gid="4692"/>
   <tile gid="4693"/>
   <tile gid="4694"/>
   <tile gid="4695"/>
   <tile gid="4696"/>
   <tile gid="4697"/>
   <tile gid="4698"/>
   <tile gid="4699"/>
   <tile gid="4700"/>
   <tile gid="4701"/>
   <tile gid="4702"/>
   <tile gid="4703"/>
   <tile gid="4689"/>
   <tile gid="4690"/>
   <tile gid="4691"/>
   <tile gid="4692"/>
   <tile gid="4693"/>
   <tile gid="4694"/>
   <tile gid="4695"/>
   <tile gid="4696"/>
   <tile gid="4697"/>
   <tile gid="4698"/>
   <tile gid="4699"/>
   <tile gid="4700"/>
   <tile gid="4701"/>
   <tile gid="4702"/>
   <tile gid="4703"/>
   <tile gid="4689"/>
   <tile gid="4690"/>
   <tile gid="4691"/>
   <tile gid="4692"/>
   <tile gid="4693"/>
   <tile gid="4694"/>
   <tile gid="4695"/>
   <tile gid="4696"/>
   <tile gid="4697"/>
   <tile gid="4689"/>
   <tile gid="4690"/>
   <tile gid="4691"/>
   <tile gid="4692"/>
   <tile gid="4693"/>
   <tile gid="4694"/>
   <tile gid="4695"/>
   <tile gid="4754"/>
   <tile gid="4755"/>
   <tile gid="4756"/>
   <tile gid="4757"/>
   <tile gid="4758"/>
   <tile gid="4759"/>
   <tile gid="4760"/>
   <tile gid="4761"/>
   <tile gid="4762"/>
   <tile gid="4763"/>
   <tile gid="4764"/>
   <tile gid="4765"/>
   <tile gid="4766"/>
   <tile gid="4767"/>
   <tile gid="4753"/>
   <tile gid="4754"/>
   <tile gid="4755"/>
   <tile gid="4756"/>
   <tile gid="4757"/>
   <tile gid="4758"/>
   <tile gid="4759"/>
   <tile gid="4760"/>
   <tile gid="4761"/>
   <tile gid="4762"/>
   <tile gid="4763"/>
   <tile gid="4764"/>
   <tile gid="4765"/>
   <tile gid="4766"/>
   <tile gid="4767"/>
   <tile gid="4753"/>
   <tile gid="4754"/>
   <tile gid="4755"/>
   <tile gid="4756"/>
   <tile gid="4757"/>
   <tile gid="4758"/>
   <tile gid="4759"/>
   <tile gid="4760"/>
   <tile gid="4761"/>
   <tile gid="4762"/>
   <tile gid="4763"/>
   <tile gid="4764"/>
   <tile gid="4765"/>
   <tile gid="4766"/>
   <tile gid="4767"/>
   <tile gid="4753"/>
   <tile gid="4754"/>
   <tile gid="4755"/>
   <tile gid="4756"/>
   <tile gid="4757"/>
   <tile gid="4758"/>
   <tile gid="4759"/>
   <tile gid="4760"/>
   <tile gid="4761"/>
   <tile gid="4762"/>
   <tile gid="4763"/>
   <tile gid="4764"/>
   <tile gid="4765"/>
   <tile gid="4766"/>
   <tile gid="4767"/>
   <tile gid="4753"/>
   <tile gid="4754"/>
   <tile gid="4755"/>
   <tile gid="4756"/>
   <tile gid="4757"/>
   <tile gid="4758"/>
   <tile gid="4759"/>
   <tile gid="4760"/>
   <tile gid="4761"/>
   <tile gid="4762"/>
   <tile gid="4763"/>
   <tile gid="4764"/>
   <tile gid="4765"/>
   <tile gid="4766"/>
   <tile gid="4767"/>
   <tile gid="4753"/>
   <tile gid="4754"/>
   <tile gid="4755"/>
   <tile gid="4756"/>
   <tile gid="4757"/>
   <tile gid="4758"/>
   <tile gid="4759"/>
   <tile gid="4760"/>
   <tile gid="4761"/>
   <tile gid="4762"/>
   <tile gid="4763"/>
   <tile gid="4764"/>
   <tile gid="4765"/>
   <tile gid="4766"/>
   <tile gid="4767"/>
   <tile gid="4753"/>
   <tile gid="4754"/>
   <tile gid="4755"/>
   <tile gid="4756"/>
   <tile gid="4757"/>
   <tile gid="4758"/>
   <tile gid="4759"/>
   <tile gid="4760"/>
   <tile gid="4761"/>
   <tile gid="4762"/>
   <tile gid="4763"/>
   <tile gid="4764"/>
   <tile gid="4765"/>
   <tile gid="4766"/>
   <tile gid="4767"/>
   <tile gid="4753"/>
   <tile gid="4754"/>
   <tile gid="4755"/>
   <tile gid="4756"/>
   <tile gid="4757"/>
   <tile gid="4758"/>
   <tile gid="4759"/>
   <tile gid="4760"/>
   <tile gid="4761"/>
   <tile gid="4753"/>
   <tile gid="4754"/>
   <tile gid="4755"/>
   <tile gid="4756"/>
   <tile gid="4757"/>
   <tile gid="4758"/>
   <tile gid="4759"/>
   <tile gid="4818"/>
   <tile gid="4819"/>
   <tile gid="4820"/>
   <tile gid="4821"/>
   <tile gid="4822"/>
   <tile gid="4823"/>
   <tile gid="4824"/>
   <tile gid="4825"/>
   <tile gid="4826"/>
   <tile gid="4827"/>
   <tile gid="4828"/>
   <tile gid="4829"/>
   <tile gid="4830"/>
   <tile gid="4831"/>
   <tile gid="4817"/>
   <tile gid="4818"/>
   <tile gid="4819"/>
   <tile gid="4820"/>
   <tile gid="4821"/>
   <tile gid="4822"/>
   <tile gid="4823"/>
   <tile gid="4824"/>
   <tile gid="4825"/>
   <tile gid="4826"/>
   <tile gid="4827"/>
   <tile gid="4828"/>
   <tile gid="4829"/>
   <tile gid="4830"/>
   <tile gid="4831"/>
   <tile gid="4817"/>
   <tile gid="4818"/>
   <tile gid="4819"/>
   <tile gid="4820"/>
   <tile gid="4821"/>
   <tile gid="4822"/>
   <tile gid="4823"/>
   <tile gid="4824"/>
   <tile gid="4825"/>
   <tile gid="4826"/>
   <tile gid="4827"/>
   <tile gid="4828"/>
   <tile gid="4829"/>
   <tile gid="4830"/>
   <tile gid="4831"/>
   <tile gid="4817"/>
   <tile gid="4818"/>
   <tile gid="4819"/>
   <tile gid="4820"/>
   <tile gid="4821"/>
   <tile gid="4822"/>
   <tile gid="4823"/>
   <tile gid="4824"/>
   <tile gid="4825"/>
   <tile gid="4826"/>
   <tile gid="4827"/>
   <tile gid="4828"/>
   <tile gid="4829"/>
   <tile gid="4830"/>
   <tile gid="4831"/>
   <tile gid="4817"/>
   <tile gid="4818"/>
   <tile gid="4819"/>
   <tile gid="4820"/>
   <tile gid="4821"/>
   <tile gid="4822"/>
   <tile gid="4823"/>
   <tile gid="4824"/>
   <tile gid="4825"/>
   <tile gid="4826"/>
   <tile gid="4827"/>
   <tile gid="4828"/>
   <tile gid="4829"/>
   <tile gid="4830"/>
   <tile gid="4831"/>
   <tile gid="4817"/>
   <tile gid="4818"/>
   <tile gid="4819"/>
   <tile gid="4820"/>
   <tile gid="4821"/>
   <tile gid="4822"/>
   <tile gid="4823"/>
   <tile gid="4824"/>
   <tile gid="4825"/>
   <tile gid="4826"/>
   <tile gid="4827"/>
   <tile gid="4828"/>
   <tile gid="4829"/>
   <tile gid="4830"/>
   <tile gid="4831"/>
   <tile gid="4817"/>
   <tile gid="4818"/>
   <tile gid="4819"/>
   <tile gid="4820"/>
   <tile gid="4821"/>
   <tile gid="4822"/>
   <tile gid="4823"/>
   <tile gid="4824"/>
   <tile gid="4825"/>
   <tile gid="4826"/>
   <tile gid="4827"/>
   <tile gid="4828"/>
   <tile gid="4829"/>
   <tile gid="4830"/>
   <tile gid="4831"/>
   <tile gid="4817"/>
   <tile gid="4818"/>
   <tile gid="4819"/>
   <tile gid="4820"/>
   <tile gid="4821"/>
   <tile gid="4822"/>
   <tile gid="4823"/>
   <tile gid="4824"/>
   <tile gid="4825"/>
   <tile gid="4817"/>
   <tile gid="4818"/>
   <tile gid="4819"/>
   <tile gid="4820"/>
   <tile gid="4821"/>
   <tile gid="4822"/>
   <tile gid="4823"/>
   <tile gid="4882"/>
   <tile gid="4883"/>
   <tile gid="4884"/>
   <tile gid="4885"/>
   <tile gid="4886"/>
   <tile gid="4887"/>
   <tile gid="4888"/>
   <tile gid="4889"/>
   <tile gid="4890"/>
   <tile gid="4891"/>
   <tile gid="4892"/>
   <tile gid="4893"/>
   <tile gid="4894"/>
   <tile gid="4895"/>
   <tile gid="4881"/>
   <tile gid="4882"/>
   <tile gid="4883"/>
   <tile gid="4884"/>
   <tile gid="4885"/>
   <tile gid="4886"/>
   <tile gid="4887"/>
   <tile gid="4888"/>
   <tile gid="4889"/>
   <tile gid="4890"/>
   <tile gid="4891"/>
   <tile gid="4892"/>
   <tile gid="4893"/>
   <tile gid="4894"/>
   <tile gid="4895"/>
   <tile gid="4881"/>
   <tile gid="4882"/>
   <tile gid="4883"/>
   <tile gid="4884"/>
   <tile gid="4885"/>
   <tile gid="4886"/>
   <tile gid="4887"/>
   <tile gid="4888"/>
   <tile gid="4889"/>
   <tile gid="4890"/>
   <tile gid="4891"/>
   <tile gid="4892"/>
   <tile gid="4893"/>
   <tile gid="4894"/>
   <tile gid="4895"/>
   <tile gid="4881"/>
   <tile gid="4882"/>
   <tile gid="4883"/>
   <tile gid="4884"/>
   <tile gid="4885"/>
   <tile gid="4886"/>
   <tile gid="4887"/>
   <tile gid="4888"/>
   <tile gid="4889"/>
   <tile gid="4890"/>
   <tile gid="4891"/>
   <tile gid="4892"/>
   <tile gid="4893"/>
   <tile gid="4894"/>
   <tile gid="4895"/>
   <tile gid="4881"/>
   <tile gid="4882"/>
   <tile gid="4883"/>
   <tile gid="4884"/>
   <tile gid="4885"/>
   <tile gid="4886"/>
   <tile gid="4887"/>
   <tile gid="4888"/>
   <tile gid="4889"/>
   <tile gid="4890"/>
   <tile gid="4891"/>
   <tile gid="4892"/>
   <tile gid="4893"/>
   <tile gid="4894"/>
   <tile gid="4895"/>
   <tile gid="4881"/>
   <tile gid="4882"/>
   <tile gid="4883"/>
   <tile gid="4884"/>
   <tile gid="4885"/>
   <tile gid="4886"/>
   <tile gid="4887"/>
   <tile gid="4888"/>
   <tile gid="4889"/>
   <tile gid="4890"/>
   <tile gid="4891"/>
   <tile gid="4892"/>
   <tile gid="4893"/>
   <tile gid="4894"/>
   <tile gid="4895"/>
   <tile gid="4881"/>
   <tile gid="4882"/>
   <tile gid="4883"/>
   <tile gid="4884"/>
   <tile gid="4885"/>
   <tile gid="4886"/>
   <tile gid="4887"/>
   <tile gid="4888"/>
   <tile gid="4889"/>
   <tile gid="4890"/>
   <tile gid="4891"/>
   <tile gid="4892"/>
   <tile gid="4893"/>
   <tile gid="4894"/>
   <tile gid="4895"/>
   <tile gid="4881"/>
   <tile gid="4882"/>
   <tile gid="4883"/>
   <tile gid="4884"/>
   <tile gid="4885"/>
   <tile gid="4886"/>
   <tile gid="4887"/>
   <tile gid="4888"/>
   <tile gid="4889"/>
   <tile gid="4881"/>
   <tile gid="4882"/>
   <tile gid="4883"/>
   <tile gid="4884"/>
   <tile gid="4885"/>
   <tile gid="4886"/>
   <tile gid="4887"/>
   <tile gid="4946"/>
   <tile gid="4947"/>
   <tile gid="4948"/>
   <tile gid="4949"/>
   <tile gid="4950"/>
   <tile gid="4951"/>
   <tile gid="4952"/>
   <tile gid="4953"/>
   <tile gid="4954"/>
   <tile gid="4955"/>
   <tile gid="4956"/>
   <tile gid="4957"/>
   <tile gid="4958"/>
   <tile gid="4959"/>
   <tile gid="4945"/>
   <tile gid="4946"/>
   <tile gid="4947"/>
   <tile gid="4948"/>
   <tile gid="4949"/>
   <tile gid="4950"/>
   <tile gid="4951"/>
   <tile gid="4952"/>
   <tile gid="4953"/>
   <tile gid="4954"/>
   <tile gid="4955"/>
   <tile gid="4956"/>
   <tile gid="4957"/>
   <tile gid="4958"/>
   <tile gid="4959"/>
   <tile gid="4945"/>
   <tile gid="4946"/>
   <tile gid="4947"/>
   <tile gid="4948"/>
   <tile gid="4949"/>
   <tile gid="4950"/>
   <tile gid="4951"/>
   <tile gid="4952"/>
   <tile gid="4953"/>
   <tile gid="4954"/>
   <tile gid="4955"/>
   <tile gid="4956"/>
   <tile gid="4957"/>
   <tile gid="4958"/>
   <tile gid="4959"/>
   <tile gid="4945"/>
   <tile gid="4946"/>
   <tile gid="4947"/>
   <tile gid="4948"/>
   <tile gid="4949"/>
   <tile gid="4950"/>
   <tile gid="4951"/>
   <tile gid="4952"/>
   <tile gid="4953"/>
   <tile gid="4954"/>
   <tile gid="4955"/>
   <tile gid="4956"/>
   <tile gid="4957"/>
   <tile gid="4958"/>
   <tile gid="4959"/>
   <tile gid="4945"/>
   <tile gid="4946"/>
   <tile gid="4947"/>
   <tile gid="4948"/>
   <tile gid="4949"/>
   <tile gid="4950"/>
   <tile gid="4951"/>
   <tile gid="4952"/>
   <tile gid="4953"/>
   <tile gid="4954"/>
   <tile gid="4955"/>
   <tile gid="4956"/>
   <tile gid="4957"/>
   <tile gid="4958"/>
   <tile gid="4959"/>
   <tile gid="4945"/>
   <tile gid="4946"/>
   <tile gid="4947"/>
   <tile gid="4948"/>
   <tile gid="4949"/>
   <tile gid="4950"/>
   <tile gid="4951"/>
   <tile gid="4952"/>
   <tile gid="4953"/>
   <tile gid="4954"/>
   <tile gid="4955"/>
   <tile gid="4956"/>
   <tile gid="4957"/>
   <tile gid="4958"/>
   <tile gid="4959"/>
   <tile gid="4945"/>
   <tile gid="4946"/>
   <tile gid="4947"/>
   <tile gid="4948"/>
   <tile gid="4949"/>
   <tile gid="4950"/>
   <tile gid="4951"/>
   <tile gid="4952"/>
   <tile gid="4953"/>
   <tile gid="4954"/>
   <tile gid="4955"/>
   <tile gid="4956"/>
   <tile gid="4957"/>
   <tile gid="4958"/>
   <tile gid="4959"/>
   <tile gid="4945"/>
   <tile gid="4946"/>
   <tile gid="4947"/>
   <tile gid="4948"/>
   <tile gid="4949"/>
   <tile gid="4950"/>
   <tile gid="4951"/>
   <tile gid="4952"/>
   <tile gid="4953"/>
   <tile gid="4945"/>
   <tile gid="4946"/>
   <tile gid="4947"/>
   <tile gid="4948"/>
   <tile gid="4949"/>
   <tile gid="4950"/>
   <tile gid="4951"/>
   <tile gid="5010"/>
   <tile gid="5011"/>
   <tile gid="5012"/>
   <tile gid="5013"/>
   <tile gid="5014"/>
   <tile gid="5015"/>
   <tile gid="5016"/>
   <tile gid="5017"/>
   <tile gid="5018"/>
   <tile gid="5019"/>
   <tile gid="5020"/>
   <tile gid="5021"/>
   <tile gid="5022"/>
   <tile gid="5023"/>
   <tile gid="5009"/>
   <tile gid="5010"/>
   <tile gid="5011"/>
   <tile gid="5012"/>
   <tile gid="5013"/>
   <tile gid="5014"/>
   <tile gid="5015"/>
   <tile gid="5016"/>
   <tile gid="5017"/>
   <tile gid="5018"/>
   <tile gid="5019"/>
   <tile gid="5020"/>
   <tile gid="5021"/>
   <tile gid="5022"/>
   <tile gid="5023"/>
   <tile gid="5009"/>
   <tile gid="5010"/>
   <tile gid="5011"/>
   <tile gid="5012"/>
   <tile gid="5013"/>
   <tile gid="5014"/>
   <tile gid="5015"/>
   <tile gid="5016"/>
   <tile gid="5017"/>
   <tile gid="5018"/>
   <tile gid="5019"/>
   <tile gid="5020"/>
   <tile gid="5021"/>
   <tile gid="5022"/>
   <tile gid="5023"/>
   <tile gid="5009"/>
   <tile gid="5010"/>
   <tile gid="5011"/>
   <tile gid="5012"/>
   <tile gid="5013"/>
   <tile gid="5014"/>
   <tile gid="5015"/>
   <tile gid="5016"/>
   <tile gid="5017"/>
   <tile gid="5018"/>
   <tile gid="5019"/>
   <tile gid="5020"/>
   <tile gid="5021"/>
   <tile gid="5022"/>
   <tile gid="5023"/>
   <tile gid="5009"/>
   <tile gid="5010"/>
   <tile gid="5011"/>
   <tile gid="5012"/>
   <tile gid="5013"/>
   <tile gid="5014"/>
   <tile gid="5015"/>
   <tile gid="5016"/>
   <tile gid="5017"/>
   <tile gid="5018"/>
   <tile gid="5019"/>
   <tile gid="5020"/>
   <tile gid="5021"/>
   <tile gid="5022"/>
   <tile gid="5023"/>
   <tile gid="5009"/>
   <tile gid="5010"/>
   <tile gid="5011"/>
   <tile gid="5012"/>
   <tile gid="5013"/>
   <tile gid="5014"/>
   <tile gid="5015"/>
   <tile gid="5016"/>
   <tile gid="5017"/>
   <tile gid="5018"/>
   <tile gid="5019"/>
   <tile gid="5020"/>
   <tile gid="5021"/>
   <tile gid="5022"/>
   <tile gid="5023"/>
   <tile gid="5009"/>
   <tile gid="5010"/>
   <tile gid="5011"/>
   <tile gid="5012"/>
   <tile gid="5013"/>
   <tile gid="5014"/>
   <tile gid="5015"/>
   <tile gid="5016"/>
   <tile gid="5017"/>
   <tile gid="5018"/>
   <tile gid="5019"/>
   <tile gid="5020"/>
   <tile gid="5021"/>
   <tile gid="5022"/>
   <tile gid="5023"/>
   <tile gid="5009"/>
   <tile gid="5010"/>
   <tile gid="5011"/>
   <tile gid="5012"/>
   <tile gid="5013"/>
   <tile gid="5014"/>
   <tile gid="5015"/>
   <tile gid="5016"/>
   <tile gid="5017"/>
   <tile gid="5009"/>
   <tile gid="5010"/>
   <tile gid="5011"/>
   <tile gid="5012"/>
   <tile gid="5013"/>
   <tile gid="5014"/>
   <tile gid="5015"/>
   <tile gid="5074"/>
   <tile gid="5075"/>
   <tile gid="5076"/>
   <tile gid="5077"/>
   <tile gid="5078"/>
   <tile gid="5079"/>
   <tile gid="5080"/>
   <tile gid="5081"/>
   <tile gid="5082"/>
   <tile gid="5083"/>
   <tile gid="5084"/>
   <tile gid="5085"/>
   <tile gid="5086"/>
   <tile gid="5087"/>
   <tile gid="5073"/>
   <tile gid="5074"/>
   <tile gid="5075"/>
   <tile gid="5076"/>
   <tile gid="5077"/>
   <tile gid="5078"/>
   <tile gid="5079"/>
   <tile gid="5080"/>
   <tile gid="5081"/>
   <tile gid="5082"/>
   <tile gid="5083"/>
   <tile gid="5084"/>
   <tile gid="5085"/>
   <tile gid="5086"/>
   <tile gid="5087"/>
   <tile gid="5073"/>
   <tile gid="5074"/>
   <tile gid="5075"/>
   <tile gid="5076"/>
   <tile gid="5077"/>
   <tile gid="5078"/>
   <tile gid="5079"/>
   <tile gid="5080"/>
   <tile gid="5081"/>
   <tile gid="5082"/>
   <tile gid="5083"/>
   <tile gid="5084"/>
   <tile gid="5085"/>
   <tile gid="5086"/>
   <tile gid="5087"/>
   <tile gid="5073"/>
   <tile gid="5074"/>
   <tile gid="5075"/>
   <tile gid="5076"/>
   <tile gid="5077"/>
   <tile gid="5078"/>
   <tile gid="5079"/>
   <tile gid="5080"/>
   <tile gid="5081"/>
   <tile gid="5082"/>
   <tile gid="5083"/>
   <tile gid="5084"/>
   <tile gid="5085"/>
   <tile gid="5086"/>
   <tile gid="5087"/>
   <tile gid="5073"/>
   <tile gid="5074"/>
   <tile gid="5075"/>
   <tile gid="5076"/>
   <tile gid="5077"/>
   <tile gid="5078"/>
   <tile gid="5079"/>
   <tile gid="5080"/>
   <tile gid="5081"/>
   <tile gid="5082"/>
   <tile gid="5083"/>
   <tile gid="5084"/>
   <tile gid="5085"/>
   <tile gid="5086"/>
   <tile gid="5087"/>
   <tile gid="5073"/>
   <tile gid="5074"/>
   <tile gid="5075"/>
   <tile gid="5076"/>
   <tile gid="5077"/>
   <tile gid="5078"/>
   <tile gid="5079"/>
   <tile gid="5080"/>
   <tile gid="5081"/>
   <tile gid="5082"/>
   <tile gid="5083"/>
   <tile gid="5084"/>
   <tile gid="5085"/>
   <tile gid="5086"/>
   <tile gid="5087"/>
   <tile gid="5073"/>
   <tile gid="5074"/>
   <tile gid="5075"/>
   <tile gid="5076"/>
   <tile gid="5077"/>
   <tile gid="5078"/>
   <tile gid="5079"/>
   <tile gid="5080"/>
   <tile gid="5081"/>
   <tile gid="5082"/>
   <tile gid="5083"/>
   <tile gid="5084"/>
   <tile gid="5085"/>
   <tile gid="5086"/>
   <tile gid="5087"/>
   <tile gid="5073"/>
   <tile gid="5074"/>
   <tile gid="5075"/>
   <tile gid="5076"/>
   <tile gid="5077"/>
   <tile gid="5078"/>
   <tile gid="5079"/>
   <tile gid="5080"/>
   <tile gid="5081"/>
   <tile gid="5073"/>
   <tile gid="5074"/>
   <tile gid="5075"/>
   <tile gid="5076"/>
   <tile gid="5077"/>
   <tile gid="5078"/>
   <tile gid="5079"/>
   <tile gid="5138"/>
   <tile gid="5139"/>
   <tile gid="5140"/>
   <tile gid="5141"/>
   <tile gid="5142"/>
   <tile gid="5143"/>
   <tile gid="5144"/>
   <tile gid="5145"/>
   <tile gid="5146"/>
   <tile gid="5147"/>
   <tile gid="5148"/>
   <tile gid="5149"/>
   <tile gid="5150"/>
   <tile gid="5151"/>
   <tile gid="5137"/>
   <tile gid="5138"/>
   <tile gid="5139"/>
   <tile gid="5140"/>
   <tile gid="5141"/>
   <tile gid="5142"/>
   <tile gid="5143"/>
   <tile gid="5144"/>
   <tile gid="5145"/>
   <tile gid="5146"/>
   <tile gid="5147"/>
   <tile gid="5148"/>
   <tile gid="5149"/>
   <tile gid="5150"/>
   <tile gid="5151"/>
   <tile gid="5137"/>
   <tile gid="5138"/>
   <tile gid="5139"/>
   <tile gid="5140"/>
   <tile gid="5141"/>
   <tile gid="5142"/>
   <tile gid="5143"/>
   <tile gid="5144"/>
   <tile gid="5145"/>
   <tile gid="5146"/>
   <tile gid="5147"/>
   <tile gid="5148"/>
   <tile gid="5149"/>
   <tile gid="5150"/>
   <tile gid="5151"/>
   <tile gid="5137"/>
   <tile gid="5138"/>
   <tile gid="5139"/>
   <tile gid="5140"/>
   <tile gid="5141"/>
   <tile gid="5142"/>
   <tile gid="5143"/>
   <tile gid="5144"/>
   <tile gid="5145"/>
   <tile gid="5146"/>
   <tile gid="5147"/>
   <tile gid="5148"/>
   <tile gid="5149"/>
   <tile gid="5150"/>
   <tile gid="5151"/>
   <tile gid="5137"/>
   <tile gid="5138"/>
   <tile gid="5139"/>
   <tile gid="5140"/>
   <tile gid="5141"/>
   <tile gid="5142"/>
   <tile gid="5143"/>
   <tile gid="5144"/>
   <tile gid="5145"/>
   <tile gid="5146"/>
   <tile gid="5147"/>
   <tile gid="5148"/>
   <tile gid="5149"/>
   <tile gid="5150"/>
   <tile gid="5151"/>
   <tile gid="5137"/>
   <tile gid="5138"/>
   <tile gid="5139"/>
   <tile gid="5140"/>
   <tile gid="5141"/>
   <tile gid="5142"/>
   <tile gid="5143"/>
   <tile gid="5144"/>
   <tile gid="5145"/>
   <tile gid="5146"/>
   <tile gid="5147"/>
   <tile gid="5148"/>
   <tile gid="5149"/>
   <tile gid="5150"/>
   <tile gid="5151"/>
   <tile gid="5137"/>
   <tile gid="5138"/>
   <tile gid="5139"/>
   <tile gid="5140"/>
   <tile gid="5141"/>
   <tile gid="5142"/>
   <tile gid="5143"/>
   <tile gid="5144"/>
   <tile gid="5145"/>
   <tile gid="5146"/>
   <tile gid="5147"/>
   <tile gid="5148"/>
   <tile gid="5149"/>
   <tile gid="5150"/>
   <tile gid="5151"/>
   <tile gid="5137"/>
   <tile gid="5138"/>
   <tile gid="5139"/>
   <tile gid="5140"/>
   <tile gid="5141"/>
   <tile gid="5142"/>
   <tile gid="5143"/>
   <tile gid="5144"/>
   <tile gid="5145"/>
   <tile gid="5137"/>
   <tile gid="5138"/>
   <tile gid="5139"/>
   <tile gid="5140"/>
   <tile gid="5141"/>
   <tile gid="5142"/>
   <tile gid="5143"/>
   <tile gid="5202"/>
   <tile gid="5203"/>
   <tile gid="5204"/>
   <tile gid="5205"/>
   <tile gid="5206"/>
   <tile gid="5207"/>
   <tile gid="5208"/>
   <tile gid="5209"/>
   <tile gid="5210"/>
   <tile gid="5211"/>
   <tile gid="5212"/>
   <tile gid="5213"/>
   <tile gid="5214"/>
   <tile gid="5215"/>
   <tile gid="5201"/>
   <tile gid="5202"/>
   <tile gid="5203"/>
   <tile gid="5204"/>
   <tile gid="5205"/>
   <tile gid="5206"/>
   <tile gid="5207"/>
   <tile gid="5208"/>
   <tile gid="5209"/>
   <tile gid="5210"/>
   <tile gid="5211"/>
   <tile gid="5212"/>
   <tile gid="5213"/>
   <tile gid="5214"/>
   <tile gid="5215"/>
   <tile gid="5201"/>
   <tile gid="5202"/>
   <tile gid="5203"/>
   <tile gid="5204"/>
   <tile gid="5205"/>
   <tile gid="5206"/>
   <tile gid="5207"/>
   <tile gid="5208"/>
   <tile gid="5209"/>
   <tile gid="5210"/>
   <tile gid="5211"/>
   <tile gid="5212"/>
   <tile gid="5213"/>
   <tile gid="5214"/>
   <tile gid="5215"/>
   <tile gid="5201"/>
   <tile gid="5202"/>
   <tile gid="5203"/>
   <tile gid="5204"/>
   <tile gid="5205"/>
   <tile gid="5206"/>
   <tile gid="5207"/>
   <tile gid="5208"/>
   <tile gid="5209"/>
   <tile gid="5210"/>
   <tile gid="5211"/>
   <tile gid="5212"/>
   <tile gid="5213"/>
   <tile gid="5214"/>
   <tile gid="5215"/>
   <tile gid="5201"/>
   <tile gid="5202"/>
   <tile gid="5203"/>
   <tile gid="5204"/>
   <tile gid="5205"/>
   <tile gid="5206"/>
   <tile gid="5207"/>
   <tile gid="5208"/>
   <tile gid="5209"/>
   <tile gid="5210"/>
   <tile gid="5211"/>
   <tile gid="5212"/>
   <tile gid="5213"/>
   <tile gid="5214"/>
   <tile gid="5215"/>
   <tile gid="5201"/>
   <tile gid="5202"/>
   <tile gid="5203"/>
   <tile gid="5204"/>
   <tile gid="5205"/>
   <tile gid="5206"/>
   <tile gid="5207"/>
   <tile gid="5208"/>
   <tile gid="5209"/>
   <tile gid="5210"/>
   <tile gid="5211"/>
   <tile gid="5212"/>
   <tile gid="5213"/>
   <tile gid="5214"/>
   <tile gid="5215"/>
   <tile gid="5201"/>
   <tile gid="5202"/>
   <tile gid="5203"/>
   <tile gid="5204"/>
   <tile gid="5205"/>
   <tile gid="5206"/>
   <tile gid="5207"/>
   <tile gid="5208"/>
   <tile gid="5209"/>
   <tile gid="5210"/>
   <tile gid="5211"/>
   <tile gid="5212"/>
   <tile gid="5213"/>
   <tile gid="5214"/>
   <tile gid="5215"/>
   <tile gid="5201"/>
   <tile gid="5202"/>
   <tile gid="5203"/>
   <tile gid="5204"/>
   <tile gid="5205"/>
   <tile gid="5206"/>
   <tile gid="5207"/>
   <tile gid="5208"/>
   <tile gid="5209"/>
   <tile gid="5201"/>
   <tile gid="5202"/>
   <tile gid="5203"/>
   <tile gid="5204"/>
   <tile gid="5205"/>
   <tile gid="5206"/>
   <tile gid="5207"/>
   <tile gid="5266"/>
   <tile gid="5267"/>
   <tile gid="5268"/>
   <tile gid="5269"/>
   <tile gid="5270"/>
   <tile gid="5271"/>
   <tile gid="5272"/>
   <tile gid="5273"/>
   <tile gid="5274"/>
   <tile gid="5275"/>
   <tile gid="5276"/>
   <tile gid="5277"/>
   <tile gid="5278"/>
   <tile gid="5279"/>
   <tile gid="5265"/>
   <tile gid="5266"/>
   <tile gid="5267"/>
   <tile gid="5268"/>
   <tile gid="5269"/>
   <tile gid="5270"/>
   <tile gid="5271"/>
   <tile gid="5272"/>
   <tile gid="5273"/>
   <tile gid="5274"/>
   <tile gid="5275"/>
   <tile gid="5276"/>
   <tile gid="5277"/>
   <tile gid="5278"/>
   <tile gid="5279"/>
   <tile gid="5265"/>
   <tile gid="5266"/>
   <tile gid="5267"/>
   <tile gid="5268"/>
   <tile gid="5269"/>
   <tile gid="5270"/>
   <tile gid="5271"/>
   <tile gid="5272"/>
   <tile gid="5273"/>
   <tile gid="5274"/>
   <tile gid="5275"/>
   <tile gid="5276"/>
   <tile gid="5277"/>
   <tile gid="5278"/>
   <tile gid="5279"/>
   <tile gid="5265"/>
   <tile gid="5266"/>
   <tile gid="5267"/>
   <tile gid="5268"/>
   <tile gid="5269"/>
   <tile gid="5270"/>
   <tile gid="5271"/>
   <tile gid="5272"/>
   <tile gid="5273"/>
   <tile gid="5274"/>
   <tile gid="5275"/>
   <tile gid="5276"/>
   <tile gid="5277"/>
   <tile gid="5278"/>
   <tile gid="5279"/>
   <tile gid="5265"/>
   <tile gid="5266"/>
   <tile gid="5267"/>
   <tile gid="5268"/>
   <tile gid="5269"/>
   <tile gid="5270"/>
   <tile gid="5271"/>
   <tile gid="5272"/>
   <tile gid="5273"/>
   <tile gid="5274"/>
   <tile gid="5275"/>
   <tile gid="5276"/>
   <tile gid="5277"/>
   <tile gid="5278"/>
   <tile gid="5279"/>
   <tile gid="5265"/>
   <tile gid="5266"/>
   <tile gid="5267"/>
   <tile gid="5268"/>
   <tile gid="5269"/>
   <tile gid="5270"/>
   <tile gid="5271"/>
   <tile gid="5272"/>
   <tile gid="5273"/>
   <tile gid="5274"/>
   <tile gid="5275"/>
   <tile gid="5276"/>
   <tile gid="5277"/>
   <tile gid="5278"/>
   <tile gid="5279"/>
   <tile gid="5265"/>
   <tile gid="5266"/>
   <tile gid="5267"/>
   <tile gid="5268"/>
   <tile gid="5269"/>
   <tile gid="5270"/>
   <tile gid="5271"/>
   <tile gid="5272"/>
   <tile gid="5273"/>
   <tile gid="5274"/>
   <tile gid="5275"/>
   <tile gid="5276"/>
   <tile gid="5277"/>
   <tile gid="5278"/>
   <tile gid="5279"/>
   <tile gid="5265"/>
   <tile gid="5266"/>
   <tile gid="5267"/>
   <tile gid="5268"/>
   <tile gid="5269"/>
   <tile gid="5270"/>
   <tile gid="5271"/>
   <tile gid="5272"/>
   <tile gid="5273"/>
   <tile gid="5265"/>
   <tile gid="5266"/>
   <tile gid="5267"/>
   <tile gid="5268"/>
   <tile gid="5269"/>
   <tile gid="5270"/>
   <tile gid="5271"/>
   <tile gid="5330"/>
   <tile gid="5331"/>
   <tile gid="5332"/>
   <tile gid="5333"/>
   <tile gid="5334"/>
   <tile gid="5335"/>
   <tile gid="5336"/>
   <tile gid="5337"/>
   <tile gid="5338"/>
   <tile gid="5339"/>
   <tile gid="5340"/>
   <tile gid="5341"/>
   <tile gid="5342"/>
   <tile gid="5343"/>
   <tile gid="5329"/>
   <tile gid="5330"/>
   <tile gid="5331"/>
   <tile gid="5332"/>
   <tile gid="5333"/>
   <tile gid="5334"/>
   <tile gid="5335"/>
   <tile gid="5336"/>
   <tile gid="5337"/>
   <tile gid="5338"/>
   <tile gid="5339"/>
   <tile gid="5340"/>
   <tile gid="5341"/>
   <tile gid="5342"/>
   <tile gid="5343"/>
   <tile gid="5329"/>
   <tile gid="5330"/>
   <tile gid="5331"/>
   <tile gid="5332"/>
   <tile gid="5333"/>
   <tile gid="5334"/>
   <tile gid="5335"/>
   <tile gid="5336"/>
   <tile gid="5337"/>
   <tile gid="5338"/>
   <tile gid="5339"/>
   <tile gid="5340"/>
   <tile gid="5341"/>
   <tile gid="5342"/>
   <tile gid="5343"/>
   <tile gid="5329"/>
   <tile gid="5330"/>
   <tile gid="5331"/>
   <tile gid="5332"/>
   <tile gid="5333"/>
   <tile gid="5334"/>
   <tile gid="5335"/>
   <tile gid="5336"/>
   <tile gid="5337"/>
   <tile gid="5338"/>
   <tile gid="5339"/>
   <tile gid="5340"/>
   <tile gid="5341"/>
   <tile gid="5342"/>
   <tile gid="5343"/>
   <tile gid="5329"/>
   <tile gid="5330"/>
   <tile gid="5331"/>
   <tile gid="5332"/>
   <tile gid="5333"/>
   <tile gid="5334"/>
   <tile gid="5335"/>
   <tile gid="5336"/>
   <tile gid="5337"/>
   <tile gid="5338"/>
   <tile gid="5339"/>
   <tile gid="5340"/>
   <tile gid="5341"/>
   <tile gid="5342"/>
   <tile gid="5343"/>
   <tile gid="5329"/>
   <tile gid="5330"/>
   <tile gid="5331"/>
   <tile gid="5332"/>
   <tile gid="5333"/>
   <tile gid="5334"/>
   <tile gid="5335"/>
   <tile gid="5336"/>
   <tile gid="5337"/>
   <tile gid="5338"/>
   <tile gid="5339"/>
   <tile gid="5340"/>
   <tile gid="5341"/>
   <tile gid="5342"/>
   <tile gid="5343"/>
   <tile gid="5329"/>
   <tile gid="5330"/>
   <tile gid="5331"/>
   <tile gid="5332"/>
   <tile gid="5333"/>
   <tile gid="5334"/>
   <tile gid="5335"/>
   <tile gid="5336"/>
   <tile gid="5337"/>
   <tile gid="5338"/>
   <tile gid="5339"/>
   <tile gid="5340"/>
   <tile gid="5341"/>
   <tile gid="5342"/>
   <tile gid="5343"/>
   <tile gid="5329"/>
   <tile gid="5330"/>
   <tile gid="5331"/>
   <tile gid="5332"/>
   <tile gid="5333"/>
   <tile gid="5334"/>
   <tile gid="5335"/>
   <tile gid="5336"/>
   <tile gid="5337"/>
   <tile gid="5329"/>
   <tile gid="5330"/>
   <tile gid="5331"/>
   <tile gid="5332"/>
   <tile gid="5333"/>
   <tile gid="5334"/>
   <tile gid="5335"/>
   <tile gid="5394"/>
   <tile gid="5395"/>
   <tile gid="5396"/>
   <tile gid="5397"/>
   <tile gid="5398"/>
   <tile gid="5399"/>
   <tile gid="5400"/>
   <tile gid="5401"/>
   <tile gid="5402"/>
   <tile gid="5403"/>
   <tile gid="5404"/>
   <tile gid="5405"/>
   <tile gid="5406"/>
   <tile gid="5407"/>
   <tile gid="5393"/>
   <tile gid="5394"/>
   <tile gid="5395"/>
   <tile gid="5396"/>
   <tile gid="5397"/>
   <tile gid="5398"/>
   <tile gid="5399"/>
   <tile gid="5400"/>
   <tile gid="5401"/>
   <tile gid="5402"/>
   <tile gid="5403"/>
   <tile gid="5404"/>
   <tile gid="5405"/>
   <tile gid="5406"/>
   <tile gid="5407"/>
   <tile gid="5393"/>
   <tile gid="5394"/>
   <tile gid="5395"/>
   <tile gid="5396"/>
   <tile gid="5397"/>
   <tile gid="5398"/>
   <tile gid="5399"/>
   <tile gid="5400"/>
   <tile gid="5401"/>
   <tile gid="5402"/>
   <tile gid="5403"/>
   <tile gid="5404"/>
   <tile gid="5405"/>
   <tile gid="5406"/>
   <tile gid="5407"/>
   <tile gid="5393"/>
   <tile gid="5394"/>
   <tile gid="5395"/>
   <tile gid="5396"/>
   <tile gid="5397"/>
   <tile gid="5398"/>
   <tile gid="5399"/>
   <tile gid="5400"/>
   <tile gid="5401"/>
   <tile gid="5402"/>
   <tile gid="5403"/>
   <tile gid="5404"/>
   <tile gid="5405"/>
   <tile gid="5406"/>
   <tile gid="5407"/>
   <tile gid="5393"/>
   <tile gid="5394"/>
   <tile gid="5395"/>
   <tile gid="5396"/>
   <tile gid="5397"/>
   <tile gid="5398"/>
   <tile gid="5399"/>
   <tile gid="5400"/>
   <tile gid="5401"/>
   <tile gid="5402"/>
   <tile gid="5403"/>
   <tile gid="5404"/>
   <tile gid="5405"/>
   <tile gid="5406"/>
   <tile gid="5407"/>
   <tile gid="5393"/>
   <tile gid="5394"/>
   <tile gid="5395"/>
   <tile gid="5396"/>
   <tile gid="5397"/>
   <tile gid="5398"/>
   <tile gid="5399"/>
   <tile gid="5400"/>
   <tile gid="5401"/>
   <tile gid="5402"/>
   <tile gid="5403"/>
   <tile gid="5404"/>
   <tile gid="5405"/>
   <tile gid="5406"/>
   <tile gid="5407"/>
   <tile gid="5393"/>
   <tile gid="5394"/>
   <tile gid="5395"/>
   <tile gid="5396"/>
   <tile gid="5397"/>
   <tile gid="5398"/>
   <tile gid="5399"/>
   <tile gid="5400"/>
   <tile gid="5401"/>
   <tile gid="5402"/>
   <tile gid="5403"/>
   <tile gid="5404"/>
   <tile gid="5405"/>
   <tile gid="5406"/>
   <tile gid="5407"/>
   <tile gid="5393"/>
   <tile gid="5394"/>
   <tile gid="5395"/>
   <tile gid="5396"/>
   <tile gid="5397"/>
   <tile gid="5398"/>
   <tile gid="5399"/>
   <tile gid="5400"/>
   <tile gid="5401"/>
   <tile gid="5393"/>
   <tile gid="5394"/>
   <tile gid="5395"/>
   <tile gid="5396"/>
   <tile gid="5397"/>
   <tile gid="5398"/>
   <tile gid="5399"/>
  </data>
 </layer>
 <layer id="4" name="objetos" width="120" height="90">
  <data>
   <tile/>
   <tile/>
   <tile/>
   <tile/>
   <tile/>
   <tile/>
   <tile/>
   <tile/>
   <tile/>
   <tile/>
   <tile/>
   <tile/>
   <tile/>
   <tile/>
   <tile/>
   <tile/>
   <tile/>
   <tile/>
   <tile/>
   <tile/>
   <tile/>
   <tile/>
   <tile/>
   <tile/>
   <tile/>
   <tile/>
   <tile/>
   <tile/>
   <tile/>
   <tile/>
   <tile/>
   <tile/>
   <tile/>
   <tile/>
   <tile/>
   <tile/>
   <tile/>
   <tile/>
   <tile/>
   <tile/>
   <tile/>
   <tile/>
   <tile/>
   <tile/>
   <tile/>
   <tile/>
   <tile/>
   <tile/>
   <tile/>
   <tile/>
   <tile/>
   <tile/>
   <tile/>
   <tile/>
   <tile/>
   <tile/>
   <tile/>
   <tile/>
   <tile/>
   <tile/>
   <tile/>
   <tile/>
   <tile/>
   <tile/>
   <tile/>
   <tile/>
   <tile/>
   <tile/>
   <tile/>
   <tile/>
   <tile/>
   <tile/>
   <tile/>
   <tile/>
   <tile/>
   <tile/>
   <tile/>
   <tile/>
   <tile/>
   <tile/>
   <tile/>
   <tile/>
   <tile/>
   <tile/>
   <tile/>
   <tile/>
   <tile/>
   <tile/>
   <tile/>
   <tile/>
   <tile/>
   <tile/>
   <tile/>
   <tile/>
   <tile/>
   <tile/>
   <tile/>
   <tile/>
   <tile/>
   <tile/>
   <tile/>
   <tile/>
   <tile/>
   <tile/>
   <tile/>
   <tile/>
   <tile/>
   <tile/>
   <tile/>
   <tile/>
   <tile/>
   <tile/>
   <tile/>
   <tile/>
   <tile/>
   <tile/>
   <tile/>
   <tile/>
   <tile/>
   <tile/>
   <tile/>
   <tile/>
   <tile/>
   <tile/>
   <tile/>
   <tile/>
   <tile/>
   <tile/>
   <tile/>
   <tile/>
   <tile/>
   <tile/>
   <tile/>
   <tile/>
   <tile/>
   <tile/>
   <tile/>
   <tile/>
   <tile/>
   <tile/>
   <tile/>
   <tile/>
   <tile/>
   <tile/>
   <tile/>
   <tile/>
   <tile/>
   <tile/>
   <tile/>
   <tile/>
   <tile/>
   <tile/>
   <tile/>
   <tile/>
   <tile/>
   <tile/>
   <tile/>
   <tile/>
   <tile/>
   <tile/>
   <tile/>
   <tile/>
   <tile/>
   <tile/>
   <tile/>
   <tile/>
   <tile/>
   <tile/>
   <tile/>
   <tile/>
   <tile/>
   <tile/>
   <tile/>
   <tile/>
   <tile/>
   <tile/>
   <tile/>
   <tile/>
   <tile/>
   <tile/>
   <tile/>
   <tile/>
   <tile/>
   <tile/>
   <tile/>
   <tile/>
   <tile/>
   <tile/>
   <tile/>
   <tile/>
   <tile/>
   <tile/>
   <tile/>
   <tile/>
   <tile/>
   <tile/>
   <tile/>
   <tile/>
   <tile/>
   <tile/>
   <tile/>
   <tile/>
   <tile/>
   <tile/>
   <tile/>
   <tile/>
   <tile/>
   <tile/>
   <tile/>
   <tile/>
   <tile/>
   <tile/>
   <tile/>
   <tile/>
   <tile/>
   <tile/>
   <tile/>
   <tile/>
   <tile/>
   <tile/>
   <tile/>
   <tile/>
   <tile/>
   <tile/>
   <tile/>
   <tile/>
   <tile/>
   <tile/>
   <tile/>
   <tile/>
   <tile/>
   <tile/>
   <tile/>
   <tile/>
   <tile/>
   <tile/>
   <tile/>
   <tile/>
   <tile/>
   <tile/>
   <tile/>
   <tile/>
   <tile/>
   <tile/>
   <tile/>
   <tile/>
   <tile/>
   <tile/>
   <tile/>
   <tile/>
   <tile/>
   <tile/>
   <tile/>
   <tile/>
   <tile/>
   <tile/>
   <tile/>
   <tile/>
   <tile/>
   <tile/>
   <tile/>
   <tile/>
   <tile/>
   <tile/>
   <tile/>
   <tile/>
   <tile/>
   <tile/>
   <tile/>
   <tile/>
   <tile/>
   <tile/>
   <tile/>
   <tile/>
   <tile/>
   <tile/>
   <tile/>
   <tile/>
   <tile/>
   <tile/>
   <tile/>
   <tile/>
   <tile/>
   <tile/>
   <tile/>
   <tile/>
   <tile/>
   <tile/>
   <tile/>
   <tile/>
   <tile/>
   <tile/>
   <tile/>
   <tile/>
   <tile/>
   <tile/>
   <tile/>
   <tile/>
   <tile/>
   <tile/>
   <tile/>
   <tile/>
   <tile/>
   <tile/>
   <tile/>
   <tile/>
   <tile/>
   <tile/>
   <tile/>
   <tile/>
   <tile/>
   <tile/>
   <tile/>
   <tile/>
   <tile/>
   <tile/>
   <tile/>
   <tile/>
   <tile/>
   <tile/>
   <tile/>
   <tile/>
   <tile/>
   <tile/>
   <tile/>
   <tile/>
   <tile/>
   <tile/>
   <tile/>
   <tile/>
   <tile/>
   <tile/>
   <tile/>
   <tile/>
   <tile/>
   <tile/>
   <tile/>
   <tile/>
   <tile/>
   <tile/>
   <tile/>
   <tile/>
   <tile/>
   <tile/>
   <tile/>
   <tile/>
   <tile/>
   <tile/>
   <tile/>
   <tile/>
   <tile/>
   <tile/>
   <tile/>
   <tile/>
   <tile/>
   <tile/>
   <tile/>
   <tile/>
   <tile/>
   <tile/>
   <tile/>
   <tile/>
   <tile/>
   <tile/>
   <tile/>
   <tile/>
   <tile/>
   <tile/>
   <tile/>
   <tile/>
   <tile/>
   <tile/>
   <tile/>
   <tile/>
   <tile/>
   <tile/>
   <tile/>
   <tile/>
   <tile/>
   <tile/>
   <tile/>
   <tile/>
   <tile/>
   <tile/>
   <tile/>
   <tile/>
   <tile/>
   <tile/>
   <tile/>
   <tile/>
   <tile/>
   <tile/>
   <tile/>
   <tile/>
   <tile/>
   <tile/>
   <tile/>
   <tile/>
   <tile/>
   <tile/>
   <tile/>
   <tile/>
   <tile/>
   <tile/>
   <tile/>
   <tile/>
   <tile/>
   <tile/>
   <tile/>
   <tile/>
   <tile/>
   <tile/>
   <tile/>
   <tile/>
   <tile/>
   <tile/>
   <tile/>
   <tile/>
   <tile/>
   <tile/>
   <tile/>
   <tile/>
   <tile/>
   <tile/>
   <tile/>
   <tile/>
   <tile/>
   <tile/>
   <tile/>
   <tile/>
   <tile/>
   <tile/>
   <tile/>
   <tile/>
   <tile/>
   <tile/>
   <tile/>
   <tile/>
   <tile/>
   <tile/>
   <tile/>
   <tile/>
   <tile/>
   <tile/>
   <tile/>
   <tile/>
   <tile/>
   <tile/>
   <tile/>
   <tile/>
   <tile/>
   <tile/>
   <tile/>
   <tile/>
   <tile/>
   <tile/>
   <tile/>
   <tile/>
   <tile/>
   <tile/>
   <tile/>
   <tile/>
   <tile/>
   <tile/>
   <tile/>
   <tile/>
   <tile/>
   <tile/>
   <tile/>
   <tile/>
   <tile/>
   <tile/>
   <tile/>
   <tile/>
   <tile/>
   <tile/>
   <tile/>
   <tile/>
   <tile/>
   <tile/>
   <tile/>
   <tile/>
   <tile/>
   <tile/>
   <tile/>
   <tile/>
   <tile/>
   <tile/>
   <tile/>
   <tile/>
   <tile/>
   <tile/>
   <tile/>
   <tile/>
   <tile/>
   <tile/>
   <tile/>
   <tile/>
   <tile/>
   <tile/>
   <tile/>
   <tile/>
   <tile/>
   <tile/>
   <tile/>
   <tile/>
   <tile/>
   <tile/>
   <tile/>
   <tile/>
   <tile/>
   <tile/>
   <tile/>
   <tile/>
   <tile/>
   <tile/>
   <tile/>
   <tile/>
   <tile/>
   <tile/>
   <tile/>
   <tile/>
   <tile/>
   <tile/>
   <tile/>
   <tile/>
   <tile/>
   <tile/>
   <tile/>
   <tile/>
   <tile/>
   <tile/>
   <tile/>
   <tile/>
   <tile/>
   <tile/>
   <tile/>
   <tile/>
   <tile/>
   <tile/>
   <tile/>
   <tile/>
   <tile/>
   <tile/>
   <tile/>
   <tile/>
   <tile/>
   <tile/>
   <tile/>
   <tile/>
   <tile/>
   <tile/>
   <tile/>
   <tile/>
   <tile/>
   <tile/>
   <tile/>
   <tile/>
   <tile/>
   <tile/>
   <tile/>
   <tile/>
   <tile/>
   <tile/>
   <tile/>
   <tile/>
   <tile/>
   <tile/>
   <tile/>
   <tile/>
   <tile/>
   <tile/>
   <tile/>
   <tile/>
   <tile/>
   <tile/>
   <tile/>
   <tile/>
   <tile/>
   <tile/>
   <tile/>
   <tile/>
   <tile/>
   <tile/>
   <tile/>
   <tile/>
   <tile/>
   <tile/>
   <tile/>
   <tile/>
   <tile/>
   <tile/>
   <tile/>
   <tile/>
   <tile/>
   <tile/>
   <tile/>
   <tile/>
   <tile/>
   <tile/>
   <tile/>
   <tile/>
   <tile/>
   <tile/>
   <tile/>
   <tile/>
   <tile/>
   <tile/>
   <tile/>
   <tile/>
   <tile/>
   <tile/>
   <tile/>
   <tile/>
   <tile/>
   <tile/>
   <tile/>
   <tile/>
   <tile/>
   <tile/>
   <tile/>
   <tile/>
   <tile/>
   <tile/>
   <tile/>
   <tile/>
   <tile/>
   <tile/>
   <tile/>
   <tile/>
   <tile/>
   <tile/>
   <tile/>
   <tile/>
   <tile/>
   <tile/>
   <tile/>
   <tile/>
   <tile/>
   <tile/>
   <tile/>
   <tile/>
   <tile/>
   <tile/>
   <tile/>
   <tile/>
   <tile/>
   <tile/>
   <tile/>
   <tile/>
   <tile/>
   <tile/>
   <tile/>
   <tile/>
   <tile/>
   <tile/>
   <tile/>
   <tile/>
   <tile/>
   <tile/>
   <tile/>
   <tile/>
   <tile/>
   <tile/>
   <tile/>
   <tile/>
   <tile/>
   <tile/>
   <tile/>
   <tile/>
   <tile/>
   <tile/>
   <tile/>
   <tile/>
   <tile/>
   <tile/>
   <tile/>
   <tile/>
   <tile/>
   <tile/>
   <tile/>
   <tile/>
   <tile/>
   <tile/>
   <tile/>
   <tile/>
   <tile/>
   <tile/>
   <tile/>
   <tile/>
   <tile/>
   <tile/>
   <tile/>
   <tile/>
   <tile/>
   <tile/>
   <tile/>
   <tile/>
   <tile/>
   <tile/>
   <tile/>
   <tile/>
   <tile/>
   <tile/>
   <tile/>
   <tile/>
   <tile/>
   <tile/>
   <tile/>
   <tile/>
   <tile/>
   <tile/>
   <tile/>
   <tile/>
   <tile/>
   <tile/>
   <tile/>
   <tile/>
   <tile/>
   <tile/>
   <tile/>
   <tile/>
   <tile/>
   <tile/>
   <tile/>
   <tile/>
   <tile/>
   <tile/>
   <tile/>
   <tile/>
   <tile/>
   <tile/>
   <tile/>
   <tile/>
   <tile/>
   <tile/>
   <tile/>
   <tile/>
   <tile/>
   <tile/>
   <tile/>
   <tile/>
   <tile/>
   <tile/>
   <tile/>
   <tile/>
   <tile/>
   <tile/>
   <tile/>
   <tile/>
   <tile/>
   <tile/>
   <tile/>
   <tile/>
   <tile/>
   <tile/>
   <tile/>
   <tile/>
   <tile/>
   <tile/>
   <tile/>
   <tile/>
   <tile/>
   <tile/>
   <tile/>
   <tile/>
   <tile/>
   <tile/>
   <tile/>
   <tile/>
   <tile/>
   <tile/>
   <tile/>
   <tile/>
   <tile/>
   <tile/>
   <tile/>
   <tile/>
   <tile/>
   <tile/>
   <tile/>
   <tile/>
   <tile/>
   <tile/>
   <tile/>
   <tile/>
   <tile/>
   <tile/>
   <tile/>
   <tile/>
   <tile/>
   <tile/>
   <tile/>
   <tile/>
   <tile/>
   <tile/>
   <tile/>
   <tile/>
   <tile/>
   <tile/>
   <tile/>
   <tile/>
   <tile/>
   <tile/>
   <tile/>
   <tile/>
   <tile/>
   <tile/>
   <tile/>
   <tile/>
   <tile/>
   <tile/>
   <tile/>
   <tile/>
   <tile/>
   <tile/>
   <tile/>
   <tile/>
   <tile/>
   <tile/>
   <tile/>
   <tile/>
   <tile/>
   <tile/>
   <tile/>
   <tile/>
   <tile/>
   <tile/>
   <tile/>
   <tile/>
   <tile/>
   <tile/>
   <tile/>
   <tile/>
   <tile/>
   <tile/>
   <tile/>
   <tile/>
   <tile/>
   <tile/>
   <tile/>
   <tile/>
   <tile/>
   <tile/>
   <tile/>
   <tile/>
   <tile/>
   <tile/>
   <tile/>
   <tile/>
   <tile/>
   <tile/>
   <tile/>
   <tile/>
   <tile/>
   <tile/>
   <tile/>
   <tile/>
   <tile/>
   <tile/>
   <tile/>
   <tile/>
   <tile/>
   <tile/>
   <tile/>
   <tile/>
   <tile/>
   <tile/>
   <tile/>
   <tile/>
   <tile/>
   <tile/>
   <tile/>
   <tile/>
   <tile/>
   <tile/>
   <tile/>
   <tile/>
   <tile/>
   <tile/>
   <tile/>
   <tile/>
   <tile/>
   <tile/>
   <tile/>
   <tile/>
   <tile/>
   <tile/>
   <tile/>
   <tile/>
   <tile/>
   <tile/>
   <tile/>
   <tile/>
   <tile/>
   <tile/>
   <tile/>
   <tile/>
   <tile/>
   <tile/>
   <tile/>
   <tile/>
   <tile/>
   <tile/>
   <tile/>
   <tile/>
   <tile/>
   <tile/>
   <tile/>
   <tile/>
   <tile/>
   <tile/>
   <tile/>
   <tile/>
   <tile/>
   <tile/>
   <tile/>
   <tile/>
   <tile/>
   <tile/>
   <tile/>
   <tile/>
   <tile/>
   <tile/>
   <tile/>
   <tile/>
   <tile/>
   <tile/>
   <tile/>
   <tile/>
   <tile/>
   <tile/>
   <tile/>
   <tile/>
   <tile/>
   <tile/>
   <tile/>
   <tile/>
   <tile/>
   <tile/>
   <tile/>
   <tile/>
   <tile/>
   <tile/>
   <tile/>
   <tile/>
   <tile/>
   <tile/>
   <tile/>
   <tile/>
   <tile/>
   <tile/>
   <tile/>
   <tile/>
   <tile/>
   <tile/>
   <tile/>
   <tile/>
   <tile/>
   <tile/>
   <tile/>
   <tile/>
   <tile/>
   <tile/>
   <tile/>
   <tile/>
   <tile/>
   <tile/>
   <tile/>
   <tile/>
   <tile/>
   <tile/>
   <tile/>
   <tile/>
   <tile/>
   <tile/>
   <tile/>
   <tile/>
   <tile/>
   <tile/>
   <tile/>
   <tile/>
   <tile/>
   <tile/>
   <tile/>
   <tile/>
   <tile/>
   <tile/>
   <tile/>
   <tile/>
   <tile/>
   <tile/>
   <tile/>
   <tile/>
   <tile/>
   <tile/>
   <tile/>
   <tile/>
   <tile/>
   <tile/>
   <tile/>
   <tile/>
   <tile/>
   <tile/>
   <tile/>
   <tile/>
   <tile/>
   <tile/>
   <tile/>
   <tile/>
   <tile/>
   <tile/>
   <tile/>
   <tile/>
   <tile/>
   <tile/>
   <tile/>
   <tile/>
   <tile/>
   <tile/>
   <tile/>
   <tile/>
   <tile/>
   <tile/>
   <tile/>
   <tile/>
   <tile/>
   <tile/>
   <tile/>
   <tile/>
   <tile/>
   <tile/>
   <tile/>
   <tile/>
   <tile/>
   <tile/>
   <tile/>
   <tile/>
   <tile/>
   <tile/>
   <tile/>
   <tile/>
   <tile/>
   <tile/>
   <tile/>
   <tile/>
   <tile/>
   <tile/>
   <tile/>
   <tile/>
   <tile/>
   <tile/>
   <tile/>
   <tile/>
   <tile/>
   <tile/>
   <tile/>
   <tile/>
   <tile/>
   <tile/>
   <tile/>
   <tile/>
   <tile/>
   <tile/>
   <tile/>
   <tile/>
   <tile/>
   <tile/>
   <tile/>
   <tile/>
   <tile/>
   <tile/>
   <tile/>
   <tile/>
   <tile/>
   <tile/>
   <tile/>
   <tile/>
   <tile/>
   <tile/>
   <tile/>
   <tile/>
   <tile/>
   <tile/>
   <tile/>
   <tile/>
   <tile/>
   <tile/>
   <tile/>
   <tile/>
   <tile/>
   <tile/>
   <tile/>
   <tile/>
   <tile/>
   <tile/>
   <tile/>
   <tile/>
   <tile/>
   <tile/>
   <tile/>
   <tile/>
   <tile/>
   <tile/>
   <tile/>
   <tile/>
   <tile/>
   <tile/>
   <tile/>
   <tile/>
   <tile/>
   <tile/>
   <tile/>
   <tile/>
   <tile/>
   <tile/>
   <tile/>
   <tile/>
   <tile/>
   <tile/>
   <tile/>
   <tile/>
   <tile/>
   <tile/>
   <tile/>
   <tile/>
   <tile/>
   <tile/>
   <tile/>
   <tile/>
   <tile/>
   <tile/>
   <tile/>
   <tile/>
   <tile/>
   <tile/>
   <tile/>
   <tile/>
   <tile/>
   <tile/>
   <tile/>
   <tile/>
   <tile/>
   <tile/>
   <tile/>
   <tile/>
   <tile/>
   <tile/>
   <tile/>
   <tile/>
   <tile/>
   <tile/>
   <tile/>
   <tile/>
   <tile/>
   <tile/>
   <tile/>
   <tile/>
   <tile/>
   <tile/>
   <tile/>
   <tile/>
   <tile/>
   <tile/>
   <tile/>
   <tile/>
   <tile/>
   <tile/>
   <tile/>
   <tile/>
   <tile/>
   <tile/>
   <tile/>
   <tile/>
   <tile/>
   <tile/>
   <tile/>
   <tile/>
   <tile/>
   <tile/>
   <tile/>
   <tile/>
   <tile/>
   <tile/>
   <tile/>
   <tile/>
   <tile/>
   <tile/>
   <tile/>
   <tile/>
   <tile/>
   <tile/>
   <tile/>
   <tile/>
   <tile/>
   <tile/>
   <tile/>
   <tile/>
   <tile/>
   <tile/>
   <tile/>
   <tile/>
   <tile/>
   <tile/>
   <tile/>
   <tile/>
   <tile/>
   <tile/>
   <tile/>
   <tile/>
   <tile/>
   <tile/>
   <tile/>
   <tile/>
   <tile/>
   <tile/>
   <tile/>
   <tile/>
   <tile/>
   <tile/>
   <tile/>
   <tile/>
   <tile/>
   <tile/>
   <tile/>
   <tile/>
   <tile/>
   <tile/>
   <tile/>
   <tile/>
   <tile/>
   <tile/>
   <tile/>
   <tile/>
   <tile/>
   <tile/>
   <tile/>
   <tile/>
   <tile/>
   <tile/>
   <tile/>
   <tile/>
   <tile/>
   <tile/>
   <tile/>
   <tile/>
   <tile/>
   <tile/>
   <tile/>
   <tile/>
   <tile/>
   <tile/>
   <tile/>
   <tile/>
   <tile/>
   <tile/>
   <tile/>
   <tile/>
   <tile/>
   <tile/>
   <tile/>
   <tile/>
   <tile/>
   <tile/>
   <tile/>
   <tile/>
   <tile/>
   <tile/>
   <tile/>
   <tile/>
   <tile/>
   <tile/>
   <tile/>
   <tile/>
   <tile/>
   <tile/>
   <tile/>
   <tile/>
   <tile/>
   <tile/>
   <tile/>
   <tile/>
   <tile/>
   <tile/>
   <tile/>
   <tile/>
   <tile/>
   <tile/>
   <tile/>
   <tile/>
   <tile/>
   <tile/>
   <tile/>
   <tile/>
   <tile/>
   <tile/>
   <tile/>
   <tile/>
   <tile/>
   <tile/>
   <tile/>
   <tile/>
   <tile/>
   <tile/>
   <tile/>
   <tile/>
   <tile/>
   <tile/>
   <tile/>
   <tile/>
   <tile/>
   <tile/>
   <tile/>
   <tile/>
   <tile/>
   <tile/>
   <tile/>
   <tile/>
   <tile/>
   <tile/>
   <tile/>
   <tile/>
   <tile/>
   <tile/>
   <tile/>
   <tile/>
   <tile/>
   <tile/>
   <tile/>
   <tile/>
   <tile/>
   <tile/>
   <tile/>
   <tile/>
   <tile/>
   <tile/>
   <tile/>
   <tile/>
   <tile/>
   <tile/>
   <tile/>
   <tile/>
   <tile/>
   <tile/>
   <tile/>
   <tile/>
   <tile/>
   <tile/>
   <tile/>
   <tile/>
   <tile/>
   <tile/>
   <tile/>
   <tile/>
   <tile/>
   <tile/>
   <tile/>
   <tile/>
   <tile/>
   <tile/>
   <tile/>
   <tile/>
   <tile/>
   <tile/>
   <tile/>
   <tile/>
   <tile/>
   <tile/>
   <tile/>
   <tile/>
   <tile/>
   <tile/>
   <tile/>
   <tile/>
   <tile/>
   <tile/>
   <tile/>
   <tile/>
   <tile/>
   <tile/>
   <tile/>
   <tile/>
   <tile/>
   <tile/>
   <tile/>
   <tile/>
   <tile/>
   <tile/>
   <tile/>
   <tile/>
   <tile/>
   <tile/>
   <tile/>
   <tile/>
   <tile/>
   <tile/>
   <tile/>
   <tile/>
   <tile/>
   <tile/>
   <tile/>
   <tile/>
   <tile/>
   <tile/>
   <tile/>
   <tile/>
   <tile/>
   <tile/>
   <tile/>
   <tile/>
   <tile/>
   <tile/>
   <tile/>
   <tile/>
   <tile/>
   <tile/>
   <tile/>
   <tile/>
   <tile/>
   <tile/>
   <tile/>
   <tile/>
   <tile/>
   <tile/>
   <tile/>
   <tile/>
   <tile/>
   <tile/>
   <tile/>
   <tile/>
   <tile/>
   <tile/>
   <tile/>
   <tile/>
   <tile/>
   <tile/>
   <tile/>
   <tile/>
   <tile/>
   <tile/>
   <tile/>
   <tile/>
   <tile/>
   <tile/>
   <tile/>
   <tile/>
   <tile/>
   <tile/>
   <tile/>
   <tile/>
   <tile/>
   <tile/>
   <tile/>
   <tile/>
   <tile/>
   <tile/>
   <tile/>
   <tile/>
   <tile/>
   <tile/>
   <tile/>
   <tile/>
   <tile/>
   <tile/>
   <tile/>
   <tile/>
   <tile/>
   <tile/>
   <tile/>
   <tile/>
   <tile/>
   <tile/>
   <tile/>
   <tile/>
   <tile/>
   <tile/>
   <tile/>
   <tile/>
   <tile/>
   <tile/>
   <tile/>
   <tile/>
   <tile/>
   <tile/>
   <tile/>
   <tile/>
   <tile/>
   <tile/>
   <tile/>
   <tile/>
   <tile/>
   <tile/>
   <tile/>
   <tile/>
   <tile/>
   <tile/>
   <tile/>
   <tile/>
   <tile/>
   <tile/>
   <tile/>
   <tile/>
   <tile/>
   <tile/>
   <tile/>
   <tile/>
   <tile/>
   <tile/>
   <tile/>
   <tile/>
   <tile/>
   <tile/>
   <tile/>
   <tile/>
   <tile/>
   <tile/>
   <tile/>
   <tile/>
   <tile/>
   <tile/>
   <tile/>
   <tile/>
   <tile/>
   <tile/>
   <tile/>
   <tile/>
   <tile/>
   <tile/>
   <tile/>
   <tile/>
   <tile/>
   <tile/>
   <tile/>
   <tile/>
   <tile/>
   <tile/>
   <tile/>
   <tile/>
   <tile/>
   <tile/>
   <tile/>
   <tile/>
   <tile/>
   <tile/>
   <tile/>
   <tile/>
   <tile/>
   <tile/>
   <tile/>
   <tile/>
   <tile/>
   <tile/>
   <tile/>
   <tile/>
   <tile/>
   <tile/>
   <tile/>
   <tile/>
   <tile/>
   <tile/>
   <tile/>
   <tile/>
   <tile/>
   <tile/>
   <tile/>
   <tile/>
   <tile/>
   <tile/>
   <tile/>
   <tile/>
   <tile/>
   <tile/>
   <tile/>
   <tile/>
   <tile/>
   <tile/>
   <tile/>
   <tile/>
   <tile/>
   <tile/>
   <tile/>
   <tile/>
   <tile/>
   <tile/>
   <tile/>
   <tile/>
   <tile/>
   <tile/>
   <tile/>
   <tile/>
   <tile/>
   <tile/>
   <tile/>
   <tile/>
   <tile/>
   <tile/>
   <tile/>
   <tile/>
   <tile/>
   <tile/>
   <tile/>
   <tile/>
   <tile/>
   <tile/>
   <tile/>
   <tile/>
   <tile/>
   <tile/>
   <tile/>
   <tile/>
   <tile/>
   <tile/>
   <tile/>
   <tile/>
   <tile/>
   <tile/>
   <tile/>
   <tile/>
   <tile/>
   <tile/>
   <tile/>
   <tile/>
   <tile/>
   <tile/>
   <tile/>
   <tile/>
   <tile/>
   <tile/>
   <tile/>
   <tile/>
   <tile/>
   <tile/>
   <tile/>
   <tile/>
   <tile/>
   <tile/>
   <tile/>
   <tile/>
   <tile/>
   <tile/>
   <tile/>
   <tile/>
   <tile/>
   <tile/>
   <tile/>
   <tile/>
   <tile/>
   <tile/>
   <tile/>
   <tile/>
   <tile/>
   <tile/>
   <tile/>
   <tile/>
   <tile/>
   <tile/>
   <tile/>
   <tile/>
   <tile/>
   <tile/>
   <tile/>
   <tile/>
   <tile/>
   <tile/>
   <tile/>
   <tile/>
   <tile/>
   <tile/>
   <tile/>
   <tile/>
   <tile/>
   <tile/>
   <tile/>
   <tile/>
   <tile/>
   <tile/>
   <tile/>
   <tile/>
   <tile/>
   <tile/>
   <tile/>
   <tile/>
   <tile/>
   <tile/>
   <tile/>
   <tile/>
   <tile/>
   <tile/>
   <tile/>
   <tile/>
   <tile/>
   <tile/>
   <tile/>
   <tile/>
   <tile/>
   <tile/>
   <tile/>
   <tile/>
   <tile/>
   <tile/>
   <tile/>
   <tile/>
   <tile/>
   <tile/>
   <tile/>
   <tile/>
   <tile/>
   <tile/>
   <tile/>
   <tile/>
   <tile/>
   <tile/>
   <tile/>
   <tile/>
   <tile/>
   <tile/>
   <tile/>
   <tile/>
   <tile/>
   <tile/>
   <tile/>
   <tile/>
   <tile/>
   <tile/>
   <tile/>
   <tile/>
   <tile/>
   <tile/>
   <tile/>
   <tile/>
   <tile/>
   <tile/>
   <tile/>
   <tile/>
   <tile/>
   <tile/>
   <tile/>
   <tile/>
   <tile/>
   <tile/>
   <tile/>
   <tile/>
   <tile/>
   <tile/>
   <tile/>
   <tile/>
   <tile/>
   <tile/>
   <tile/>
   <tile/>
   <tile/>
   <tile/>
   <tile/>
   <tile/>
   <tile/>
   <tile/>
   <tile/>
   <tile/>
   <tile/>
   <tile/>
   <tile/>
   <tile/>
   <tile/>
   <tile/>
   <tile/>
   <tile/>
   <tile/>
   <tile/>
   <tile/>
   <tile/>
   <tile/>
   <tile/>
   <tile/>
   <tile/>
   <tile/>
   <tile/>
   <tile/>
   <tile/>
   <tile/>
   <tile/>
   <tile/>
   <tile/>
   <tile/>
   <tile/>
   <tile/>
   <tile/>
   <tile/>
   <tile/>
   <tile/>
   <tile/>
   <tile/>
   <tile/>
   <tile/>
   <tile/>
   <tile/>
   <tile/>
   <tile/>
   <tile/>
   <tile/>
   <tile/>
   <tile/>
   <tile/>
   <tile/>
   <tile/>
   <tile/>
   <tile/>
   <tile/>
   <tile/>
   <tile/>
   <tile/>
   <tile/>
   <tile/>
   <tile/>
   <tile/>
   <tile/>
   <tile/>
   <tile/>
   <tile/>
   <tile/>
   <tile/>
   <tile/>
   <tile/>
   <tile/>
   <tile/>
   <tile/>
   <tile/>
   <tile/>
   <tile/>
   <tile/>
   <tile/>
   <tile/>
   <tile/>
   <tile/>
   <tile/>
   <tile/>
   <tile/>
   <tile/>
   <tile/>
   <tile/>
   <tile/>
   <tile/>
   <tile/>
   <tile/>
   <tile/>
   <tile/>
   <tile/>
   <tile/>
   <tile/>
   <tile/>
   <tile/>
   <tile/>
   <tile/>
   <tile/>
   <tile/>
   <tile/>
   <tile/>
   <tile/>
   <tile/>
   <tile/>
   <tile/>
   <tile/>
   <tile/>
   <tile/>
   <tile/>
   <tile/>
   <tile/>
   <tile/>
   <tile/>
   <tile/>
   <tile/>
   <tile/>
   <tile/>
   <tile/>
   <tile/>
   <tile/>
   <tile/>
   <tile/>
   <tile/>
   <tile/>
   <tile/>
   <tile/>
   <tile/>
   <tile/>
   <tile/>
   <tile/>
   <tile/>
   <tile/>
   <tile/>
   <tile/>
   <tile/>
   <tile/>
   <tile/>
   <tile/>
   <tile/>
   <tile/>
   <tile/>
   <tile/>
   <tile/>
   <tile/>
   <tile/>
   <tile/>
   <tile/>
   <tile/>
   <tile/>
   <tile/>
   <tile/>
   <tile/>
   <tile/>
   <tile/>
   <tile/>
   <tile/>
   <tile/>
   <tile/>
   <tile/>
   <tile/>
   <tile/>
   <tile/>
   <tile/>
   <tile/>
   <tile/>
   <tile/>
   <tile/>
   <tile/>
   <tile/>
   <tile/>
   <tile/>
   <tile/>
   <tile/>
   <tile/>
   <tile/>
   <tile/>
   <tile/>
   <tile/>
   <tile/>
   <tile/>
   <tile/>
   <tile/>
   <tile/>
   <tile/>
   <tile/>
   <tile/>
   <tile/>
   <tile/>
   <tile/>
   <tile/>
   <tile/>
   <tile/>
   <tile/>
   <tile/>
   <tile/>
   <tile/>
   <tile/>
   <tile/>
   <tile/>
   <tile/>
   <tile/>
   <tile/>
   <tile/>
   <tile/>
   <tile/>
   <tile/>
   <tile/>
   <tile/>
   <tile/>
   <tile/>
   <tile/>
   <tile/>
   <tile/>
   <tile/>
   <tile/>
   <tile/>
   <tile/>
   <tile/>
   <tile/>
   <tile/>
   <tile/>
   <tile/>
   <tile/>
   <tile/>
   <tile/>
   <tile/>
   <tile/>
   <tile/>
   <tile/>
   <tile/>
   <tile/>
   <tile/>
   <tile/>
   <tile/>
   <tile/>
   <tile/>
   <tile/>
   <tile/>
   <tile/>
   <tile/>
   <tile/>
   <tile/>
   <tile/>
   <tile/>
   <tile/>
   <tile/>
   <tile/>
   <tile/>
   <tile/>
   <tile/>
   <tile/>
   <tile/>
   <tile/>
   <tile/>
   <tile/>
   <tile/>
   <tile/>
   <tile/>
   <tile/>
   <tile/>
   <tile/>
   <tile/>
   <tile/>
   <tile/>
   <tile/>
   <tile/>
   <tile/>
   <tile/>
   <tile/>
   <tile/>
   <tile/>
   <tile/>
   <tile/>
   <tile/>
   <tile/>
   <tile/>
   <tile/>
   <tile/>
   <tile/>
   <tile/>
   <tile/>
   <tile/>
   <tile/>
   <tile/>
   <tile/>
   <tile/>
   <tile/>
   <tile/>
   <tile/>
   <tile/>
   <tile/>
   <tile/>
   <tile/>
   <tile/>
   <tile/>
   <tile/>
   <tile/>
   <tile/>
   <tile/>
   <tile/>
   <tile/>
   <tile/>
   <tile/>
   <tile/>
   <tile/>
   <tile/>
   <tile/>
   <tile/>
   <tile/>
   <tile/>
   <tile/>
   <tile/>
   <tile/>
   <tile/>
   <tile/>
   <tile/>
   <tile/>
   <tile/>
   <tile/>
   <tile/>
   <tile/>
   <tile/>
   <tile/>
   <tile/>
   <tile/>
   <tile/>
   <tile/>
   <tile/>
   <tile/>
   <tile/>
   <tile/>
   <tile/>
   <tile/>
   <tile/>
   <tile/>
   <tile/>
   <tile/>
   <tile/>
   <tile/>
   <tile/>
   <tile/>
   <tile/>
   <tile/>
   <tile/>
   <tile/>
   <tile/>
   <tile/>
   <tile/>
   <tile/>
   <tile/>
   <tile/>
   <tile/>
   <tile/>
   <tile/>
   <tile/>
   <tile/>
   <tile/>
   <tile/>
   <tile/>
   <tile/>
   <tile/>
   <tile/>
   <tile/>
   <tile/>
   <tile/>
   <tile/>
   <tile/>
   <tile/>
   <tile/>
   <tile/>
   <tile/>
   <tile/>
   <tile/>
   <tile/>
   <tile/>
   <tile/>
   <tile/>
   <tile/>
   <tile/>
   <tile/>
   <tile/>
   <tile/>
   <tile/>
   <tile/>
   <tile/>
   <tile/>
   <tile/>
   <tile/>
   <tile/>
   <tile/>
   <tile/>
   <tile/>
   <tile/>
   <tile/>
   <tile/>
   <tile/>
   <tile/>
   <tile/>
   <tile/>
   <tile/>
   <tile/>
   <tile/>
   <tile/>
   <tile/>
   <tile/>
   <tile/>
   <tile/>
   <tile/>
   <tile/>
   <tile/>
   <tile/>
   <tile/>
   <tile/>
   <tile/>
   <tile/>
   <tile/>
   <tile/>
   <tile/>
   <tile/>
   <tile/>
   <tile/>
   <tile/>
   <tile/>
   <tile/>
   <tile/>
   <tile/>
   <tile/>
   <tile/>
   <tile/>
   <tile/>
   <tile/>
   <tile/>
   <tile/>
   <tile/>
   <tile/>
   <tile/>
   <tile/>
   <tile/>
   <tile/>
   <tile/>
   <tile/>
   <tile/>
   <tile/>
   <tile/>
   <tile/>
   <tile/>
   <tile/>
   <tile/>
   <tile/>
   <tile/>
   <tile/>
   <tile/>
   <tile/>
   <tile/>
   <tile/>
   <tile/>
   <tile/>
   <tile/>
   <tile/>
   <tile/>
   <tile/>
   <tile/>
   <tile/>
   <tile/>
   <tile/>
   <tile/>
   <tile/>
   <tile/>
   <tile/>
   <tile/>
   <tile/>
   <tile/>
   <tile/>
   <tile/>
   <tile/>
   <tile/>
   <tile/>
   <tile/>
   <tile/>
   <tile/>
   <tile/>
   <tile/>
   <tile/>
   <tile/>
   <tile/>
   <tile/>
   <tile/>
   <tile/>
   <tile/>
   <tile/>
   <tile/>
   <tile/>
   <tile/>
   <tile/>
   <tile/>
   <tile/>
   <tile/>
   <tile/>
   <tile/>
   <tile/>
   <tile/>
   <tile/>
   <tile/>
   <tile/>
   <tile/>
   <tile/>
   <tile/>
   <tile/>
   <tile/>
   <tile/>
   <tile/>
   <tile/>
   <tile/>
   <tile/>
   <tile/>
   <tile/>
   <tile/>
   <tile/>
   <tile/>
   <tile/>
   <tile/>
   <tile/>
   <tile/>
   <tile/>
   <tile/>
   <tile/>
   <tile/>
   <tile/>
   <tile/>
   <tile/>
   <tile/>
   <tile/>
   <tile/>
   <tile/>
   <tile/>
   <tile/>
   <tile/>
   <tile/>
   <tile/>
   <tile/>
   <tile/>
   <tile/>
   <tile/>
   <tile/>
   <tile/>
   <tile/>
   <tile/>
   <tile/>
   <tile/>
   <tile/>
   <tile/>
   <tile/>
   <tile/>
   <tile/>
   <tile/>
   <tile/>
   <tile/>
   <tile/>
   <tile/>
   <tile/>
   <tile/>
   <tile/>
   <tile/>
   <tile/>
   <tile/>
   <tile/>
   <tile/>
   <tile/>
   <tile/>
   <tile/>
   <tile/>
   <tile/>
   <tile/>
   <tile/>
   <tile/>
   <tile/>
   <tile/>
   <tile/>
   <tile/>
   <tile/>
   <tile/>
   <tile/>
   <tile/>
   <tile/>
   <tile/>
   <tile/>
   <tile/>
   <tile/>
   <tile/>
   <tile/>
   <tile/>
   <tile/>
   <tile/>
   <tile/>
   <tile/>
   <tile/>
   <tile/>
   <tile/>
   <tile/>
   <tile/>
   <tile/>
   <tile/>
   <tile/>
   <tile/>
   <tile/>
   <tile/>
   <tile/>
   <tile/>
   <tile/>
   <tile/>
   <tile/>
   <tile/>
   <tile/>
   <tile/>
   <tile/>
   <tile/>
   <tile/>
   <tile/>
   <tile/>
   <tile/>
   <tile/>
   <tile/>
   <tile/>
   <tile/>
   <tile/>
   <tile/>
   <tile/>
   <tile/>
   <tile/>
   <tile/>
   <tile/>
   <tile/>
   <tile/>
   <tile/>
   <tile/>
   <tile/>
   <tile/>
   <tile/>
   <tile/>
   <tile/>
   <tile/>
   <tile/>
   <tile/>
   <tile/>
   <tile/>
   <tile/>
   <tile/>
   <tile/>
   <tile/>
   <tile/>
   <tile/>
   <tile/>
   <tile/>
   <tile/>
   <tile/>
   <tile/>
   <tile/>
   <tile/>
   <tile/>
   <tile/>
   <tile/>
   <tile/>
   <tile/>
   <tile/>
   <tile/>
   <tile/>
   <tile/>
   <tile/>
   <tile/>
   <tile/>
   <tile/>
   <tile/>
   <tile/>
   <tile/>
   <tile/>
   <tile/>
   <tile/>
   <tile/>
   <tile/>
   <tile/>
   <tile/>
   <tile/>
   <tile/>
   <tile/>
   <tile/>
   <tile/>
   <tile/>
   <tile/>
   <tile/>
   <tile/>
   <tile/>
   <tile/>
   <tile/>
   <tile/>
   <tile/>
   <tile/>
   <tile/>
   <tile/>
   <tile/>
   <tile/>
   <tile/>
   <tile/>
   <tile/>
   <tile/>
   <tile/>
   <tile/>
   <tile/>
   <tile/>
   <tile/>
   <tile/>
   <tile/>
   <tile/>
   <tile/>
   <tile/>
   <tile/>
   <tile/>
   <tile/>
   <tile/>
   <tile/>
   <tile/>
   <tile/>
   <tile/>
   <tile/>
   <tile/>
   <tile/>
   <tile/>
   <tile/>
   <tile/>
   <tile/>
   <tile/>
   <tile/>
   <tile/>
   <tile/>
   <tile/>
   <tile/>
   <tile/>
   <tile/>
   <tile/>
   <tile/>
   <tile/>
   <tile/>
   <tile/>
   <tile/>
   <tile/>
   <tile/>
   <tile/>
   <tile/>
   <tile/>
   <tile/>
   <tile/>
   <tile/>
   <tile/>
   <tile/>
   <tile/>
   <tile/>
   <tile/>
   <tile/>
   <tile/>
   <tile/>
   <tile/>
   <tile/>
   <tile/>
   <tile/>
   <tile/>
   <tile/>
   <tile/>
   <tile/>
   <tile/>
   <tile/>
   <tile/>
   <tile/>
   <tile/>
   <tile/>
   <tile/>
   <tile/>
   <tile/>
   <tile/>
   <tile/>
   <tile/>
   <tile/>
   <tile/>
   <tile/>
   <tile/>
   <tile/>
   <tile/>
   <tile/>
   <tile/>
   <tile/>
   <tile/>
   <tile/>
   <tile/>
   <tile/>
   <tile/>
   <tile/>
   <tile/>
   <tile/>
   <tile/>
   <tile/>
   <tile/>
   <tile/>
   <tile/>
   <tile/>
   <tile/>
   <tile/>
   <tile/>
   <tile/>
   <tile/>
   <tile/>
   <tile/>
   <tile/>
   <tile/>
   <tile/>
   <tile/>
   <tile/>
   <tile/>
   <tile/>
   <tile/>
   <tile/>
   <tile/>
   <tile/>
   <tile/>
   <tile/>
   <tile/>
   <tile/>
   <tile/>
   <tile/>
   <tile/>
   <tile/>
   <tile/>
   <tile/>
   <tile/>
   <tile/>
   <tile/>
   <tile/>
   <tile/>
   <tile/>
   <tile/>
   <tile/>
   <tile/>
   <tile/>
   <tile/>
   <tile/>
   <tile/>
   <tile/>
   <tile/>
   <tile/>
   <tile/>
   <tile/>
   <tile/>
   <tile/>
   <tile/>
   <tile/>
   <tile/>
   <tile/>
   <tile/>
   <tile/>
   <tile/>
   <tile/>
   <tile/>
   <tile/>
   <tile/>
   <tile/>
   <tile/>
   <tile/>
   <tile/>
   <tile/>
   <tile/>
   <tile/>
   <tile/>
   <tile/>
   <tile/>
   <tile/>
   <tile/>
   <tile/>
   <tile/>
   <tile/>
   <tile/>
   <tile/>
   <tile/>
   <tile/>
   <tile/>
   <tile/>
   <tile/>
   <tile/>
   <tile/>
   <tile/>
   <tile/>
   <tile/>
   <tile/>
   <tile/>
   <tile/>
   <tile/>
   <tile/>
   <tile/>
   <tile/>
   <tile/>
   <tile/>
   <tile/>
   <tile/>
   <tile/>
   <tile/>
   <tile/>
   <tile/>
   <tile/>
   <tile/>
   <tile/>
   <tile/>
   <tile/>
   <tile/>
   <tile/>
   <tile/>
   <tile/>
   <tile/>
   <tile/>
   <tile/>
   <tile/>
   <tile/>
   <tile/>
   <tile/>
   <tile/>
   <tile/>
   <tile/>
   <tile/>
   <tile/>
   <tile/>
   <tile/>
   <tile/>
   <tile/>
   <tile/>
   <tile/>
   <tile/>
   <tile/>
   <tile/>
   <tile/>
   <tile/>
   <tile/>
   <tile/>
   <tile/>
   <tile/>
   <tile/>
   <tile/>
   <tile/>
   <tile/>
   <tile/>
   <tile/>
   <tile/>
   <tile/>
   <tile/>
   <tile/>
   <tile/>
   <tile/>
   <tile/>
   <tile/>
   <tile/>
   <tile/>
   <tile/>
   <tile/>
   <tile/>
   <tile/>
   <tile/>
   <tile/>
   <tile/>
   <tile/>
   <tile/>
   <tile/>
   <tile/>
   <tile/>
   <tile/>
   <tile/>
   <tile/>
   <tile/>
   <tile/>
   <tile/>
   <tile/>
   <tile/>
   <tile/>
   <tile/>
   <tile/>
   <tile/>
   <tile/>
   <tile/>
   <tile/>
   <tile/>
   <tile/>
   <tile/>
   <tile/>
   <tile/>
   <tile/>
   <tile/>
   <tile/>
   <tile/>
   <tile/>
   <tile/>
   <tile/>
   <tile/>
   <tile/>
   <tile/>
   <tile/>
   <tile/>
   <tile/>
   <tile/>
   <tile/>
   <tile/>
   <tile/>
   <tile/>
   <tile/>
   <tile/>
   <tile/>
   <tile/>
   <tile/>
   <tile/>
   <tile/>
   <tile/>
   <tile/>
   <tile/>
   <tile/>
   <tile/>
   <tile/>
   <tile/>
   <tile/>
   <tile/>
   <tile/>
   <tile/>
   <tile/>
   <tile/>
   <tile/>
   <tile/>
   <tile/>
   <tile/>
   <tile/>
   <tile/>
   <tile/>
   <tile/>
   <tile/>
   <tile/>
   <tile/>
   <tile/>
   <tile/>
   <tile/>
   <tile/>
   <tile/>
   <tile/>
   <tile/>
   <tile/>
   <tile/>
   <tile/>
   <tile/>
   <tile/>
   <tile/>
   <tile/>
   <tile/>
   <tile/>
   <tile/>
   <tile/>
   <tile/>
   <tile/>
   <tile/>
   <tile/>
   <tile/>
   <tile/>
   <tile/>
   <tile/>
   <tile/>
   <tile/>
   <tile/>
   <tile/>
   <tile/>
   <tile/>
   <tile/>
   <tile/>
   <tile/>
   <tile/>
   <tile/>
   <tile/>
   <tile/>
   <tile/>
   <tile/>
   <tile/>
   <tile/>
   <tile/>
   <tile/>
   <tile/>
   <tile/>
   <tile/>
   <tile/>
   <tile/>
   <tile/>
   <tile/>
   <tile/>
   <tile/>
   <tile/>
   <tile/>
   <tile/>
   <tile/>
   <tile/>
   <tile/>
   <tile/>
   <tile/>
   <tile/>
   <tile/>
   <tile/>
   <tile/>
   <tile/>
   <tile/>
   <tile/>
   <tile/>
   <tile/>
   <tile/>
   <tile/>
   <tile/>
   <tile/>
   <tile/>
   <tile/>
   <tile/>
   <tile/>
   <tile/>
   <tile/>
   <tile/>
   <tile/>
   <tile/>
   <tile/>
   <tile/>
   <tile/>
   <tile/>
   <tile/>
   <tile/>
   <tile/>
   <tile/>
   <tile/>
   <tile/>
   <tile/>
   <tile/>
   <tile/>
   <tile/>
   <tile/>
   <tile/>
   <tile/>
   <tile/>
   <tile/>
   <tile/>
   <tile/>
   <tile/>
   <tile/>
   <tile/>
   <tile/>
   <tile/>
   <tile/>
   <tile/>
   <tile/>
   <tile/>
   <tile/>
   <tile/>
   <tile/>
   <tile/>
   <tile/>
   <tile/>
   <tile/>
   <tile/>
   <tile/>
   <tile/>
   <tile/>
   <tile/>
   <tile/>
   <tile/>
   <tile/>
   <tile/>
   <tile/>
   <tile/>
   <tile/>
   <tile/>
   <tile/>
   <tile/>
   <tile/>
   <tile/>
   <tile/>
   <tile/>
   <tile/>
   <tile/>
   <tile/>
   <tile/>
   <tile/>
   <tile/>
   <tile/>
   <tile/>
   <tile/>
   <tile/>
   <tile/>
   <tile/>
   <tile/>
   <tile/>
   <tile/>
   <tile/>
   <tile/>
   <tile/>
   <tile/>
   <tile/>
   <tile/>
   <tile/>
   <tile/>
   <tile/>
   <tile/>
   <tile/>
   <tile/>
   <tile/>
   <tile/>
   <tile/>
   <tile/>
   <tile/>
   <tile/>
   <tile/>
   <tile/>
   <tile/>
   <tile/>
   <tile/>
   <tile/>
   <tile/>
   <tile/>
   <tile/>
   <tile/>
   <tile/>
   <tile/>
   <tile/>
   <tile/>
   <tile/>
   <tile/>
   <tile/>
   <tile/>
   <tile/>
   <tile/>
   <tile/>
   <tile/>
   <tile/>
   <tile/>
   <tile/>
   <tile/>
   <tile/>
   <tile/>
   <tile/>
   <tile/>
   <tile/>
   <tile/>
   <tile/>
   <tile/>
   <tile/>
   <tile/>
   <tile/>
   <tile/>
   <tile/>
   <tile/>
   <tile/>
   <tile/>
   <tile/>
   <tile/>
   <tile/>
   <tile/>
   <tile/>
   <tile/>
   <tile/>
   <tile/>
   <tile/>
   <tile/>
   <tile/>
   <tile/>
   <tile/>
   <tile/>
   <tile/>
   <tile/>
   <tile/>
   <tile/>
   <tile/>
   <tile/>
   <tile/>
   <tile/>
   <tile/>
   <tile/>
   <tile/>
   <tile/>
   <tile/>
   <tile/>
   <tile/>
   <tile/>
   <tile/>
   <tile/>
   <tile/>
   <tile/>
   <tile/>
   <tile/>
   <tile/>
   <tile/>
   <tile/>
   <tile/>
   <tile/>
   <tile/>
   <tile/>
   <tile/>
   <tile/>
   <tile/>
   <tile/>
   <tile/>
   <tile/>
   <tile/>
   <tile/>
   <tile/>
   <tile/>
   <tile/>
   <tile/>
   <tile/>
   <tile/>
   <tile/>
   <tile/>
   <tile/>
   <tile/>
   <tile/>
   <tile/>
   <tile/>
   <tile/>
   <tile/>
   <tile/>
   <tile/>
   <tile/>
   <tile/>
   <tile/>
   <tile/>
   <tile/>
   <tile/>
   <tile/>
   <tile/>
   <tile/>
   <tile/>
   <tile/>
   <tile/>
   <tile/>
   <tile/>
   <tile/>
   <tile/>
   <tile/>
   <tile/>
   <tile/>
   <tile/>
   <tile/>
   <tile/>
   <tile/>
   <tile/>
   <tile/>
   <tile/>
   <tile/>
   <tile/>
   <tile/>
   <tile/>
   <tile/>
   <tile/>
   <tile/>
   <tile/>
   <tile/>
   <tile/>
   <tile/>
   <tile/>
   <tile/>
   <tile/>
   <tile/>
   <tile/>
   <tile/>
   <tile/>
   <tile/>
   <tile/>
   <tile/>
   <tile/>
   <tile/>
   <tile/>
   <tile/>
   <tile/>
   <tile/>
   <tile/>
   <tile/>
   <tile/>
   <tile/>
   <tile/>
   <tile/>
   <tile/>
   <tile/>
   <tile/>
   <tile/>
   <tile/>
   <tile/>
   <tile/>
   <tile/>
   <tile/>
   <tile/>
   <tile/>
   <tile/>
   <tile/>
   <tile/>
   <tile/>
   <tile/>
   <tile/>
   <tile/>
   <tile/>
   <tile/>
   <tile/>
   <tile/>
   <tile/>
   <tile/>
   <tile/>
   <tile/>
   <tile/>
   <tile/>
   <tile/>
   <tile/>
   <tile/>
   <tile/>
   <tile/>
   <tile/>
   <tile/>
   <tile/>
   <tile/>
   <tile/>
   <tile/>
   <tile/>
   <tile/>
   <tile/>
   <tile/>
   <tile/>
   <tile/>
   <tile/>
   <tile/>
   <tile/>
   <tile/>
   <tile/>
   <tile/>
   <tile/>
   <tile/>
   <tile/>
   <tile/>
   <tile/>
   <tile/>
   <tile/>
   <tile/>
   <tile/>
   <tile/>
   <tile/>
   <tile/>
   <tile/>
   <tile/>
   <tile/>
   <tile/>
   <tile/>
   <tile/>
   <tile/>
   <tile/>
   <tile/>
   <tile/>
   <tile/>
   <tile/>
   <tile/>
   <tile/>
   <tile gid="2450"/>
   <tile gid="2451"/>
   <tile gid="2452"/>
   <tile gid="2453"/>
   <tile gid="2454"/>
   <tile/>
   <tile/>
   <tile/>
   <tile/>
   <tile/>
   <tile/>
   <tile/>
   <tile/>
   <tile/>
   <tile/>
   <tile/>
   <tile/>
   <tile/>
   <tile/>
   <tile/>
   <tile/>
   <tile/>
   <tile/>
   <tile/>
   <tile/>
   <tile/>
   <tile/>
   <tile/>
   <tile/>
   <tile/>
   <tile/>
   <tile/>
   <tile/>
   <tile/>
   <tile/>
   <tile/>
   <tile/>
   <tile/>
   <tile/>
   <tile/>
   <tile/>
   <tile/>
   <tile/>
   <tile/>
   <tile/>
   <tile/>
   <tile/>
   <tile/>
   <tile/>
   <tile/>
   <tile/>
   <tile/>
   <tile/>
   <tile/>
   <tile/>
   <tile/>
   <tile/>
   <tile/>
   <tile/>
   <tile/>
   <tile/>
   <tile/>
   <tile/>
   <tile/>
   <tile/>
   <tile/>
   <tile/>
   <tile/>
   <tile/>
   <tile/>
   <tile/>
   <tile/>
   <tile/>
   <tile/>
   <tile/>
   <tile/>
   <tile/>
   <tile/>
   <tile/>
   <tile/>
   <tile/>
   <tile/>
   <tile/>
   <tile/>
   <tile/>
   <tile/>
   <tile/>
   <tile/>
   <tile/>
   <tile/>
   <tile/>
   <tile/>
   <tile/>
   <tile/>
   <tile/>
   <tile/>
   <tile/>
   <tile/>
   <tile/>
   <tile/>
   <tile/>
   <tile/>
   <tile/>
   <tile/>
   <tile/>
   <tile/>
   <tile/>
   <tile/>
   <tile/>
   <tile/>
   <tile/>
   <tile/>
   <tile/>
   <tile/>
   <tile/>
   <tile/>
   <tile/>
   <tile/>
   <tile/>
   <tile/>
   <tile gid="2514"/>
   <tile gid="2515"/>
   <tile gid="2516"/>
   <tile gid="2517"/>
   <tile gid="2518"/>
   <tile/>
   <tile/>
   <tile/>
   <tile/>
   <tile/>
   <tile/>
   <tile/>
   <tile/>
   <tile/>
   <tile/>
   <tile/>
   <tile/>
   <tile/>
   <tile/>
   <tile/>
   <tile/>
   <tile/>
   <tile/>
   <tile/>
   <tile/>
   <tile/>
   <tile/>
   <tile/>
   <tile/>
   <tile/>
   <tile/>
   <tile/>
   <tile/>
   <tile/>
   <tile gid="3490"/>
   <tile gid="3491"/>
   <tile gid="3492"/>
   <tile gid="3493"/>
   <tile gid="3494"/>
   <tile gid="3495"/>
   <tile gid="3496"/>
   <tile/>
   <tile/>
   <tile/>
   <tile/>
   <tile/>
   <tile/>
   <tile/>
   <tile/>
   <tile/>
   <tile/>
   <tile/>
   <tile/>
   <tile/>
   <tile/>
   <tile/>
   <tile/>
   <tile/>
   <tile/>
   <tile/>
   <tile/>
   <tile/>
   <tile/>
   <tile/>
   <tile/>
   <tile/>
   <tile/>
   <tile/>
   <tile/>
   <tile/>
   <tile/>
   <tile/>
   <tile/>
   <tile/>
   <tile/>
   <tile/>
   <tile/>
   <tile/>
   <tile/>
   <tile/>
   <tile/>
   <tile/>
   <tile/>
   <tile/>
   <tile/>
   <tile/>
   <tile/>
   <tile/>
   <tile/>
   <tile/>
   <tile/>
   <tile/>
   <tile/>
   <tile/>
   <tile/>
   <tile/>
   <tile/>
   <tile/>
   <tile/>
   <tile/>
   <tile/>
   <tile/>
   <tile/>
   <tile/>
   <tile/>
   <tile/>
   <tile/>
   <tile/>
   <tile/>
   <tile/>
   <tile/>
   <tile/>
   <tile/>
   <tile/>
   <tile/>
   <tile/>
   <tile/>
   <tile/>
   <tile/>
   <tile/>
   <tile gid="2578"/>
   <tile gid="2579"/>
   <tile gid="2580"/>
   <tile gid="2581"/>
   <tile gid="2582"/>
   <tile/>
   <tile/>
   <tile/>
   <tile/>
   <tile/>
   <tile/>
   <tile/>
   <tile/>
   <tile/>
   <tile/>
   <tile/>
   <tile/>
   <tile/>
   <tile/>
   <tile/>
   <tile gid="2457"/>
   <tile gid="2458"/>
   <tile gid="2459"/>
   <tile gid="2460"/>
   <tile gid="2461"/>
   <tile gid="2462"/>
   <tile gid="2463"/>
   <tile/>
   <tile/>
   <tile/>
   <tile/>
   <tile/>
   <tile/>
   <tile/>
   <tile gid="3554"/>
   <tile gid="3555"/>
   <tile gid="3556"/>
   <tile gid="3557"/>
   <tile gid="3558"/>
   <tile gid="3559"/>
   <tile gid="3560"/>
   <tile/>
   <tile/>
   <tile/>
   <tile/>
   <tile/>
   <tile/>
   <tile/>
   <tile/>
   <tile/>
   <tile/>
   <tile/>
   <tile/>
   <tile/>
   <tile/>
   <tile/>
   <tile/>
   <tile/>
   <tile/>
   <tile/>
   <tile/>
   <tile/>
   <tile/>
   <tile/>
   <tile/>
   <tile/>
   <tile/>
   <tile/>
   <tile/>
   <tile/>
   <tile/>
   <tile/>
   <tile/>
   <tile/>
   <tile/>
   <tile/>
   <tile/>
   <tile/>
   <tile/>
   <tile/>
   <tile/>
   <tile/>
   <tile/>
   <tile/>
   <tile/>
   <tile/>
   <tile/>
   <tile/>
   <tile/>
   <tile/>
   <tile/>
   <tile/>
   <tile/>
   <tile/>
   <tile/>
   <tile/>
   <tile/>
   <tile/>
   <tile/>
   <tile/>
   <tile/>
   <tile/>
   <tile/>
   <tile/>
   <tile/>
   <tile/>
   <tile/>
   <tile/>
   <tile/>
   <tile/>
   <tile/>
   <tile/>
   <tile/>
   <tile/>
   <tile/>
   <tile/>
   <tile/>
   <tile/>
   <tile/>
   <tile/>
   <tile gid="2642"/>
   <tile gid="2643"/>
   <tile gid="2644"/>
   <tile gid="2645"/>
   <tile gid="2646"/>
   <tile/>
   <tile/>
   <tile/>
   <tile/>
   <tile/>
   <tile/>
   <tile/>
   <tile/>
   <tile/>
   <tile/>
   <tile/>
   <tile/>
   <tile/>
   <tile/>
   <tile/>
   <tile gid="2521"/>
   <tile gid="2522"/>
   <tile gid="2523"/>
   <tile gid="2524"/>
   <tile gid="2525"/>
   <tile gid="2526"/>
   <tile gid="2527"/>
   <tile/>
   <tile/>
   <tile/>
   <tile/>
   <tile/>
   <tile/>
   <tile/>
   <tile gid="3618"/>
   <tile gid="3619"/>
   <tile gid="3620"/>
   <tile gid="3621"/>
   <tile gid="3622"/>
   <tile gid="3623"/>
   <tile gid="3624"/>
   <tile/>
   <tile/>
   <tile/>
   <tile/>
   <tile/>
   <tile/>
   <tile/>
   <tile/>
   <tile/>
   <tile/>
   <tile/>
   <tile/>
   <tile/>
   <tile/>
   <tile/>
   <tile/>
   <tile/>
   <tile/>
   <tile/>
   <tile/>
   <tile/>
   <tile/>
   <tile/>
   <tile/>
   <tile/>
   <tile/>
   <tile/>
   <tile/>
   <tile/>
   <tile/>
   <tile/>
   <tile/>
   <tile/>
   <tile/>
   <tile/>
   <tile/>
   <tile/>
   <tile/>
   <tile/>
   <tile/>
   <tile/>
   <tile/>
   <tile/>
   <tile/>
   <tile/>
   <tile/>
   <tile/>
   <tile/>
   <tile/>
   <tile/>
   <tile/>
   <tile/>
   <tile/>
   <tile/>
   <tile/>
   <tile/>
   <tile/>
   <tile/>
   <tile/>
   <tile/>
   <tile/>
   <tile/>
   <tile/>
   <tile/>
   <tile/>
   <tile/>
   <tile/>
   <tile/>
   <tile/>
   <tile/>
   <tile/>
   <tile/>
   <tile/>
   <tile/>
   <tile/>
   <tile/>
   <tile/>
   <tile/>
   <tile/>
   <tile gid="2706"/>
   <tile gid="2707"/>
   <tile gid="2708"/>
   <tile gid="2709"/>
   <tile gid="2710"/>
   <tile/>
   <tile/>
   <tile/>
   <tile/>
   <tile/>
   <tile/>
   <tile/>
   <tile/>
   <tile/>
   <tile/>
   <tile/>
   <tile/>
   <tile/>
   <tile/>
   <tile/>
   <tile gid="2585"/>
   <tile gid="2586"/>
   <tile gid="2587"/>
   <tile gid="2588"/>
   <tile gid="2589"/>
   <tile gid="2590"/>
   <tile gid="2591"/>
   <tile/>
   <tile/>
   <tile/>
   <tile/>
   <tile/>
   <tile/>
   <tile/>
   <tile gid="3682"/>
   <tile gid="3683"/>
   <tile gid="3684"/>
   <tile gid="3685"/>
   <tile gid="3686"/>
   <tile gid="3687"/>
   <tile gid="3688"/>
   <tile/>
   <tile/>
   <tile/>
   <tile/>
   <tile/>
   <tile/>
   <tile/>
   <tile/>
   <tile/>
   <tile/>
   <tile/>
   <tile/>
   <tile/>
   <tile/>
   <tile/>
   <tile/>
   <tile/>
   <tile/>
   <tile/>
   <tile/>
   <tile/>
   <tile/>
   <tile/>
   <tile/>
   <tile/>
   <tile/>
   <tile/>
   <tile/>
   <tile/>
   <tile/>
   <tile/>
   <tile/>
   <tile/>
   <tile/>
   <tile/>
   <tile/>
   <tile/>
   <tile/>
   <tile/>
   <tile/>
   <tile/>
   <tile/>
   <tile/>
   <tile/>
   <tile/>
   <tile/>
   <tile/>
   <tile/>
   <tile/>
   <tile/>
   <tile/>
   <tile/>
   <tile/>
   <tile/>
   <tile/>
   <tile/>
   <tile/>
   <tile/>
   <tile/>
   <tile/>
   <tile/>
   <tile/>
   <tile/>
   <tile/>
   <tile/>
   <tile/>
   <tile/>
   <tile/>
   <tile/>
   <tile/>
   <tile/>
   <tile/>
   <tile/>
   <tile/>
   <tile/>
   <tile/>
   <tile/>
   <tile/>
   <tile/>
   <tile gid="2770"/>
   <tile gid="2771"/>
   <tile gid="2772"/>
   <tile gid="2773"/>
   <tile gid="2774"/>
   <tile/>
   <tile/>
   <tile/>
   <tile/>
   <tile/>
   <tile/>
   <tile/>
   <tile/>
   <tile/>
   <tile/>
   <tile/>
   <tile/>
   <tile/>
   <tile/>
   <tile/>
   <tile gid="2649"/>
   <tile gid="2650"/>
   <tile gid="2651"/>
   <tile gid="2652"/>
   <tile gid="2653"/>
   <tile gid="2654"/>
   <tile gid="2655"/>
   <tile/>
   <tile/>
   <tile/>
   <tile/>
   <tile/>
   <tile/>
   <tile/>
   <tile gid="3746"/>
   <tile gid="3747"/>
   <tile gid="3748"/>
   <tile gid="3749"/>
   <tile gid="3750"/>
   <tile gid="3751"/>
   <tile gid="3752"/>
   <tile/>
   <tile/>
   <tile/>
   <tile/>
   <tile/>
   <tile/>
   <tile/>
   <tile/>
   <tile/>
   <tile/>
   <tile/>
   <tile/>
   <tile/>
   <tile/>
   <tile/>
   <tile/>
   <tile/>
   <tile/>
   <tile/>
   <tile/>
   <tile/>
   <tile/>
   <tile/>
   <tile/>
   <tile/>
   <tile/>
   <tile/>
   <tile/>
   <tile/>
   <tile/>
   <tile/>
   <tile/>
   <tile/>
   <tile/>
   <tile/>
   <tile/>
   <tile/>
   <tile/>
   <tile/>
   <tile/>
   <tile/>
   <tile/>
   <tile/>
   <tile/>
   <tile/>
   <tile/>
   <tile/>
   <tile/>
   <tile/>
   <tile/>
   <tile/>
   <tile/>
   <tile/>
   <tile/>
   <tile/>
   <tile/>
   <tile/>
   <tile/>
   <tile/>
   <tile/>
   <tile/>
   <tile/>
   <tile/>
   <tile/>
   <tile/>
   <tile/>
   <tile/>
   <tile/>
   <tile/>
   <tile/>
   <tile/>
   <tile/>
   <tile/>
   <tile/>
   <tile/>
   <tile/>
   <tile/>
   <tile/>
   <tile/>
   <tile/>
   <tile/>
   <tile/>
   <tile/>
   <tile/>
   <tile/>
   <tile/>
   <tile/>
   <tile/>
   <tile/>
   <tile/>
   <tile/>
   <tile/>
   <tile/>
   <tile/>
   <tile/>
   <tile/>
   <tile/>
   <tile/>
   <tile/>
   <tile gid="2713"/>
   <tile gid="2714"/>
   <tile gid="2715"/>
   <tile gid="2716"/>
   <tile gid="2717"/>
   <tile gid="2718"/>
   <tile gid="2719"/>
   <tile/>
   <tile/>
   <tile/>
   <tile/>
   <tile/>
   <tile/>
   <tile/>
   <tile/>
   <tile/>
   <tile/>
   <tile/>
   <tile/>
   <tile/>
   <tile/>
   <tile/>
   <tile/>
   <tile/>
   <tile/>
   <tile/>
   <tile/>
   <tile/>
   <tile/>
   <tile/>
   <tile/>
   <tile/>
   <tile/>
   <tile/>
   <tile/>
   <tile/>
   <tile/>
   <tile/>
   <tile/>
   <tile/>
   <tile/>
   <tile/>
   <tile/>
   <tile/>
   <tile/>
   <tile/>
   <tile/>
   <tile/>
   <tile/>
   <tile/>
   <tile/>
   <tile/>
   <tile/>
   <tile/>
   <tile/>
   <tile/>
   <tile/>
   <tile/>
   <tile/>
   <tile/>
   <tile/>
   <tile/>
   <tile/>
   <tile/>
   <tile/>
   <tile/>
   <tile/>
   <tile/>
   <tile/>
   <tile/>
   <tile/>
   <tile/>
   <tile/>
   <tile/>
   <tile/>
   <tile/>
   <tile/>
   <tile/>
   <tile/>
   <tile/>
   <tile/>
   <tile/>
   <tile/>
   <tile/>
   <tile/>
   <tile/>
   <tile/>
   <tile/>
   <tile/>
   <tile/>
   <tile/>
   <tile/>
   <tile/>
   <tile/>
   <tile/>
   <tile/>
   <tile/>
   <tile/>
   <tile/>
   <tile/>
   <tile/>
   <tile/>
   <tile/>
   <tile/>
   <tile/>
   <tile/>
   <tile/>
   <tile/>
   <tile/>
   <tile/>
   <tile/>
   <tile/>
   <tile/>
   <tile/>
   <tile/>
   <tile/>
   <tile/>
   <tile/>
   <tile/>
   <tile/>
   <tile gid="2777"/>
   <tile gid="2778"/>
   <tile gid="2779"/>
   <tile gid="2780"/>
   <tile gid="2781"/>
   <tile gid="2782"/>
   <tile gid="2783"/>
   <tile/>
   <tile/>
   <tile/>
   <tile/>
   <tile/>
   <tile/>
   <tile/>
   <tile/>
   <tile/>
   <tile/>
   <tile/>
   <tile/>
   <tile/>
   <tile/>
   <tile/>
   <tile/>
   <tile/>
   <tile/>
   <tile/>
   <tile/>
   <tile/>
   <tile/>
   <tile/>
   <tile/>
   <tile/>
   <tile/>
   <tile/>
   <tile/>
   <tile/>
   <tile/>
   <tile/>
   <tile/>
   <tile/>
   <tile/>
   <tile/>
   <tile/>
   <tile/>
   <tile/>
   <tile/>
   <tile/>
   <tile/>
   <tile/>
   <tile/>
   <tile/>
   <tile/>
   <tile/>
   <tile/>
   <tile/>
   <tile/>
   <tile/>
   <tile/>
   <tile/>
   <tile/>
   <tile/>
   <tile/>
   <tile/>
   <tile/>
   <tile/>
   <tile/>
   <tile/>
   <tile/>
   <tile/>
   <tile/>
   <tile/>
   <tile/>
   <tile/>
   <tile/>
   <tile/>
   <tile/>
   <tile/>
   <tile/>
   <tile/>
   <tile/>
   <tile/>
   <tile/>
   <tile/>
   <tile/>
   <tile/>
   <tile/>
   <tile/>
   <tile/>
   <tile/>
   <tile/>
   <tile/>
   <tile/>
   <tile/>
   <tile/>
   <tile/>
   <tile/>
   <tile/>
   <tile/>
   <tile/>
   <tile/>
   <tile/>
   <tile/>
   <tile/>
   <tile/>
   <tile/>
   <tile/>
   <tile/>
   <tile/>
   <tile/>
   <tile/>
   <tile/>
   <tile/>
   <tile/>
   <tile/>
   <tile/>
   <tile/>
   <tile/>
   <tile/>
   <tile/>
   <tile/>
   <tile gid="2841"/>
   <tile gid="2842"/>
   <tile gid="2843"/>
   <tile gid="2844"/>
   <tile gid="2845"/>
   <tile gid="2846"/>
   <tile gid="2847"/>
   <tile/>
   <tile/>
   <tile/>
   <tile/>
   <tile/>
   <tile/>
   <tile/>
   <tile/>
   <tile/>
   <tile/>
   <tile/>
   <tile/>
   <tile/>
   <tile/>
   <tile/>
   <tile/>
   <tile/>
   <tile/>
   <tile/>
   <tile/>
   <tile/>
   <tile/>
   <tile/>
   <tile/>
   <tile/>
   <tile/>
   <tile/>
   <tile/>
   <tile/>
   <tile/>
   <tile/>
   <tile/>
   <tile/>
   <tile/>
   <tile/>
   <tile/>
   <tile/>
   <tile/>
   <tile/>
   <tile/>
   <tile/>
   <tile/>
   <tile/>
   <tile/>
   <tile/>
   <tile/>
   <tile/>
   <tile/>
   <tile/>
   <tile/>
   <tile/>
   <tile/>
   <tile/>
   <tile/>
   <tile/>
   <tile/>
   <tile/>
   <tile/>
   <tile/>
   <tile/>
   <tile/>
   <tile/>
   <tile/>
   <tile/>
   <tile/>
   <tile/>
   <tile/>
   <tile/>
   <tile/>
   <tile/>
   <tile/>
   <tile/>
   <tile/>
   <tile/>
   <tile/>
   <tile/>
   <tile/>
   <tile/>
   <tile/>
   <tile/>
   <tile/>
   <tile/>
   <tile/>
   <tile/>
   <tile/>
   <tile/>
   <tile/>
   <tile/>
   <tile/>
   <tile/>
   <tile/>
   <tile/>
   <tile/>
   <tile/>
   <tile/>
   <tile/>
   <tile/>
   <tile/>
   <tile/>
   <tile/>
   <tile/>
   <tile/>
   <tile/>
   <tile/>
   <tile/>
   <tile/>
   <tile/>
   <tile/>
   <tile/>
   <tile/>
   <tile/>
   <tile/>
   <tile/>
   <tile/>
   <tile/>
   <tile/>
   <tile/>
   <tile/>
   <tile/>
   <tile/>
   <tile/>
   <tile/>
   <tile/>
   <tile/>
   <tile/>
   <tile/>
   <tile/>
   <tile/>
   <tile/>
   <tile/>
   <tile/>
   <tile/>
   <tile/>
   <tile/>
   <tile/>
   <tile/>
   <tile/>
   <tile/>
   <tile/>
   <tile/>
   <tile/>
   <tile/>
   <tile/>
   <tile/>
   <tile/>
   <tile/>
   <tile/>
   <tile/>
   <tile/>
   <tile/>
   <tile/>
   <tile/>
   <tile/>
   <tile/>
   <tile/>
   <tile/>
   <tile/>
   <tile/>
   <tile/>
   <tile/>
   <tile/>
   <tile/>
   <tile/>
   <tile/>
   <tile/>
   <tile/>
   <tile/>
   <tile/>
   <tile/>
   <tile/>
   <tile/>
   <tile/>
   <tile/>
   <tile/>
   <tile/>
   <tile/>
   <tile/>
   <tile/>
   <tile/>
   <tile/>
   <tile/>
   <tile/>
   <tile/>
   <tile/>
   <tile/>
   <tile/>
   <tile/>
   <tile/>
   <tile/>
   <tile/>
   <tile/>
   <tile/>
   <tile/>
   <tile/>
   <tile/>
   <tile/>
   <tile/>
   <tile/>
   <tile/>
   <tile/>
   <tile/>
   <tile/>
   <tile/>
   <tile/>
   <tile/>
   <tile/>
   <tile/>
   <tile/>
   <tile/>
   <tile/>
   <tile/>
   <tile/>
   <tile/>
   <tile/>
   <tile/>
   <tile/>
   <tile/>
   <tile/>
   <tile/>
   <tile/>
   <tile/>
   <tile/>
   <tile/>
   <tile/>
   <tile/>
   <tile/>
   <tile/>
   <tile/>
   <tile/>
   <tile/>
   <tile/>
   <tile/>
   <tile/>
   <tile/>
   <tile/>
   <tile/>
   <tile/>
   <tile/>
   <tile/>
   <tile/>
   <tile/>
   <tile/>
   <tile/>
   <tile/>
   <tile/>
   <tile/>
   <tile/>
   <tile/>
   <tile/>
   <tile/>
   <tile/>
   <tile/>
   <tile/>
   <tile/>
   <tile/>
   <tile/>
   <tile/>
   <tile/>
   <tile/>
   <tile/>
   <tile/>
   <tile/>
   <tile/>
   <tile/>
   <tile/>
   <tile/>
   <tile/>
   <tile/>
   <tile/>
   <tile/>
   <tile/>
   <tile/>
   <tile/>
   <tile/>
   <tile/>
   <tile/>
   <tile/>
   <tile/>
   <tile/>
   <tile/>
   <tile/>
   <tile/>
   <tile/>
   <tile/>
   <tile/>
   <tile/>
   <tile/>
   <tile/>
   <tile/>
   <tile/>
   <tile/>
   <tile/>
   <tile/>
   <tile/>
   <tile/>
   <tile/>
   <tile/>
   <tile/>
   <tile/>
   <tile/>
   <tile/>
   <tile/>
   <tile/>
   <tile/>
   <tile/>
   <tile/>
   <tile/>
   <tile/>
   <tile/>
   <tile/>
   <tile/>
   <tile/>
   <tile/>
   <tile/>
   <tile/>
   <tile/>
   <tile/>
   <tile/>
   <tile/>
   <tile/>
   <tile/>
   <tile/>
   <tile/>
   <tile/>
   <tile/>
   <tile/>
   <tile/>
   <tile/>
   <tile/>
   <tile/>
   <tile/>
   <tile/>
   <tile/>
   <tile/>
   <tile/>
   <tile/>
   <tile/>
   <tile/>
   <tile/>
   <tile/>
   <tile/>
   <tile/>
   <tile/>
   <tile/>
   <tile/>
   <tile/>
   <tile/>
   <tile/>
   <tile/>
   <tile/>
   <tile/>
   <tile/>
   <tile/>
   <tile/>
   <tile/>
   <tile/>
   <tile/>
   <tile/>
   <tile/>
   <tile/>
   <tile/>
   <tile/>
   <tile/>
   <tile/>
   <tile/>
   <tile/>
   <tile/>
   <tile/>
   <tile/>
   <tile/>
   <tile/>
   <tile/>
   <tile/>
   <tile/>
   <tile/>
   <tile/>
   <tile/>
   <tile/>
   <tile/>
   <tile/>
   <tile/>
   <tile/>
   <tile/>
   <tile/>
   <tile/>
   <tile/>
   <tile/>
   <tile/>
   <tile/>
   <tile/>
   <tile/>
   <tile/>
   <tile/>
   <tile/>
   <tile/>
   <tile/>
   <tile/>
   <tile/>
   <tile/>
   <tile/>
   <tile/>
   <tile/>
   <tile/>
   <tile/>
   <tile/>
   <tile/>
   <tile/>
   <tile/>
   <tile/>
   <tile/>
   <tile/>
   <tile/>
   <tile/>
   <tile/>
   <tile/>
   <tile/>
   <tile/>
   <tile/>
   <tile/>
   <tile/>
   <tile/>
   <tile/>
   <tile/>
   <tile/>
   <tile/>
   <tile/>
   <tile/>
   <tile/>
   <tile/>
   <tile/>
   <tile/>
   <tile/>
   <tile/>
   <tile/>
   <tile/>
   <tile/>
   <tile/>
   <tile/>
   <tile/>
   <tile/>
   <tile/>
   <tile/>
   <tile/>
   <tile/>
   <tile/>
   <tile/>
   <tile/>
   <tile/>
   <tile/>
   <tile/>
   <tile/>
   <tile/>
   <tile/>
   <tile/>
   <tile/>
   <tile/>
   <tile/>
   <tile/>
   <tile/>
   <tile/>
   <tile/>
   <tile/>
   <tile/>
   <tile/>
   <tile/>
   <tile/>
   <tile/>
   <tile/>
   <tile/>
   <tile/>
   <tile/>
   <tile/>
   <tile/>
   <tile/>
   <tile/>
   <tile/>
   <tile/>
   <tile/>
   <tile/>
   <tile/>
   <tile/>
   <tile/>
   <tile/>
   <tile/>
   <tile gid="2963"/>
   <tile gid="2964"/>
   <tile gid="2965"/>
   <tile gid="2966"/>
   <tile/>
   <tile/>
   <tile/>
   <tile/>
   <tile/>
   <tile/>
   <tile/>
   <tile/>
   <tile/>
   <tile/>
   <tile/>
   <tile/>
   <tile/>
   <tile/>
   <tile/>
   <tile/>
   <tile/>
   <tile/>
   <tile/>
   <tile/>
   <tile/>
   <tile/>
   <tile/>
   <tile/>
   <tile/>
   <tile/>
   <tile/>
   <tile/>
   <tile/>
   <tile/>
   <tile/>
   <tile/>
   <tile/>
   <tile/>
   <tile/>
   <tile/>
   <tile/>
   <tile/>
   <tile/>
   <tile/>
   <tile/>
   <tile/>
   <tile/>
   <tile/>
   <tile/>
   <tile/>
   <tile/>
   <tile/>
   <tile/>
   <tile/>
   <tile/>
   <tile/>
   <tile/>
   <tile/>
   <tile/>
   <tile/>
   <tile/>
   <tile/>
   <tile/>
   <tile/>
   <tile/>
   <tile/>
   <tile/>
   <tile/>
   <tile/>
   <tile/>
   <tile/>
   <tile/>
   <tile/>
   <tile/>
   <tile/>
   <tile/>
   <tile/>
   <tile/>
   <tile/>
   <tile/>
   <tile/>
   <tile/>
   <tile/>
   <tile/>
   <tile/>
   <tile/>
   <tile/>
   <tile/>
   <tile/>
   <tile/>
   <tile/>
   <tile/>
   <tile/>
   <tile/>
   <tile/>
   <tile/>
   <tile/>
   <tile/>
   <tile/>
   <tile/>
   <tile/>
   <tile/>
   <tile/>
   <tile/>
   <tile/>
   <tile/>
   <tile/>
   <tile/>
   <tile/>
   <tile/>
   <tile/>
   <tile/>
   <tile/>
   <tile/>
   <tile gid="2970"/>
   <tile gid="2971"/>
   <tile gid="2972"/>
   <tile gid="2973"/>
   <tile gid="2974"/>
   <tile/>
   <tile gid="3027"/>
   <tile gid="3028"/>
   <tile gid="3029"/>
   <tile gid="3030"/>
   <tile/>
   <tile/>
   <tile/>
   <tile/>
   <tile/>
   <tile/>
   <tile/>
   <tile/>
   <tile/>
   <tile/>
   <tile/>
   <tile/>
   <tile/>
   <tile/>
   <tile/>
   <tile/>
   <tile/>
   <tile/>
   <tile/>
   <tile/>
   <tile/>
   <tile/>
   <tile/>
   <tile/>
   <tile/>
   <tile/>
   <tile/>
   <tile/>
   <tile/>
   <tile/>
   <tile/>
   <tile/>
   <tile/>
   <tile/>
   <tile/>
   <tile/>
   <tile/>
   <tile/>
   <tile/>
   <tile/>
   <tile/>
   <tile/>
   <tile/>
   <tile/>
   <tile/>
   <tile/>
   <tile/>
   <tile/>
   <tile/>
   <tile/>
   <tile/>
   <tile/>
   <tile/>
   <tile/>
   <tile/>
   <tile/>
   <tile/>
   <tile/>
   <tile/>
   <tile/>
   <tile/>
   <tile/>
   <tile/>
   <tile/>
   <tile/>
   <tile/>
   <tile/>
   <tile/>
   <tile/>
   <tile/>
   <tile/>
   <tile/>
   <tile/>
   <tile/>
   <tile/>
   <tile/>
   <tile/>
   <tile/>
   <tile/>
   <tile/>
   <tile/>
   <tile/>
   <tile/>
   <tile/>
   <tile/>
   <tile/>
   <tile/>
   <tile/>
   <tile/>
   <tile/>
   <tile/>
   <tile/>
   <tile/>
   <tile/>
   <tile/>
   <tile/>
   <tile/>
   <tile/>
   <tile/>
   <tile/>
   <tile/>
   <tile/>
   <tile/>
   <tile/>
   <tile/>
   <tile/>
   <tile/>
   <tile/>
   <tile/>
   <tile/>
   <tile gid="3034"/>
   <tile gid="3035"/>
   <tile gid="3036"/>
   <tile gid="3037"/>
   <tile gid="3038"/>
   <tile/>
   <tile gid="3091"/>
   <tile gid="3092"/>
   <tile gid="3093"/>
   <tile gid="3094"/>
   <tile/>
   <tile/>
   <tile/>
   <tile/>
   <tile/>
   <tile/>
   <tile/>
   <tile/>
   <tile/>
   <tile/>
   <tile/>
   <tile/>
   <tile/>
   <tile/>
   <tile/>
   <tile/>
   <tile/>
   <tile/>
   <tile/>
   <tile/>
   <tile/>
   <tile/>
   <tile/>
   <tile/>
   <tile/>
   <tile/>
   <tile/>
   <tile/>
   <tile/>
   <tile/>
   <tile/>
   <tile/>
   <tile/>
   <tile/>
   <tile/>
   <tile/>
   <tile/>
   <tile/>
   <tile/>
   <tile/>
   <tile/>
   <tile/>
   <tile/>
   <tile/>
   <tile/>
   <tile/>
   <tile/>
   <tile/>
   <tile/>
   <tile/>
   <tile/>
   <tile/>
   <tile/>
   <tile/>
   <tile/>
   <tile/>
   <tile/>
   <tile/>
   <tile/>
   <tile/>
   <tile/>
   <tile/>
   <tile/>
   <tile/>
   <tile/>
   <tile/>
   <tile/>
   <tile/>
   <tile/>
   <tile/>
   <tile/>
   <tile/>
   <tile/>
   <tile/>
   <tile/>
   <tile/>
   <tile/>
   <tile/>
   <tile/>
   <tile/>
   <tile/>
   <tile/>
   <tile/>
   <tile/>
   <tile/>
   <tile/>
   <tile/>
   <tile/>
   <tile/>
   <tile/>
   <tile/>
   <tile/>
   <tile/>
   <tile/>
   <tile/>
   <tile/>
   <tile/>
   <tile/>
   <tile/>
   <tile/>
   <tile/>
   <tile/>
   <tile/>
   <tile/>
   <tile/>
   <tile/>
   <tile/>
   <tile/>
   <tile/>
   <tile/>
   <tile gid="3098"/>
   <tile gid="3099"/>
   <tile gid="3100"/>
   <tile gid="3101"/>
   <tile gid="3102"/>
   <tile/>
   <tile gid="3155"/>
   <tile gid="3156"/>
   <tile gid="3157"/>
   <tile gid="3158"/>
   <tile/>
   <tile/>
   <tile/>
   <tile/>
   <tile/>
   <tile/>
   <tile/>
   <tile/>
   <tile/>
   <tile/>
   <tile/>
   <tile/>
   <tile/>
   <tile/>
   <tile/>
   <tile/>
   <tile/>
   <tile/>
   <tile/>
   <tile/>
   <tile/>
   <tile/>
   <tile/>
   <tile/>
   <tile/>
   <tile/>
   <tile/>
   <tile/>
   <tile/>
   <tile/>
   <tile/>
   <tile/>
   <tile/>
   <tile/>
   <tile/>
   <tile/>
   <tile/>
   <tile/>
   <tile/>
   <tile/>
   <tile/>
   <tile/>
   <tile/>
   <tile/>
   <tile/>
   <tile/>
   <tile/>
   <tile/>
   <tile/>
   <tile/>
   <tile/>
   <tile/>
   <tile/>
   <tile/>
   <tile/>
   <tile/>
   <tile/>
   <tile/>
   <tile/>
   <tile/>
   <tile/>
   <tile/>
   <tile/>
   <tile/>
   <tile/>
   <tile/>
   <tile/>
   <tile/>
   <tile/>
   <tile/>
   <tile/>
   <tile/>
   <tile/>
   <tile/>
   <tile/>
   <tile/>
   <tile/>
   <tile/>
   <tile/>
   <tile/>
   <tile/>
   <tile/>
   <tile/>
   <tile/>
   <tile/>
   <tile/>
   <tile/>
   <tile/>
   <tile/>
   <tile/>
   <tile/>
   <tile/>
   <tile/>
   <tile/>
   <tile/>
   <tile/>
   <tile/>
   <tile/>
   <tile/>
   <tile/>
   <tile/>
   <tile/>
   <tile/>
   <tile/>
   <tile/>
   <tile/>
   <tile/>
   <tile/>
   <tile/>
   <tile/>
   <tile gid="3162"/>
   <tile gid="3163"/>
   <tile gid="3164"/>
   <tile gid="3165"/>
   <tile gid="3166"/>
   <tile/>
   <tile gid="3219"/>
   <tile gid="3220"/>
   <tile gid="3221"/>
   <tile gid="3222"/>
   <tile/>
   <tile/>
   <tile/>
   <tile/>
   <tile/>
   <tile/>
   <tile/>
   <tile/>
   <tile/>
   <tile/>
   <tile/>
   <tile/>
   <tile/>
   <tile/>
   <tile/>
   <tile/>
   <tile/>
   <tile/>
   <tile/>
   <tile/>
   <tile/>
   <tile/>
   <tile/>
   <tile/>
   <tile/>
   <tile/>
   <tile/>
   <tile/>
   <tile/>
   <tile/>
   <tile/>
   <tile/>
   <tile/>
   <tile/>
   <tile/>
   <tile/>
   <tile/>
   <tile/>
   <tile/>
   <tile/>
   <tile/>
   <tile/>
   <tile/>
   <tile/>
   <tile/>
   <tile/>
   <tile/>
   <tile/>
   <tile/>
   <tile/>
   <tile/>
   <tile/>
   <tile/>
   <tile/>
   <tile/>
   <tile/>
   <tile/>
   <tile/>
   <tile/>
   <tile/>
   <tile/>
   <tile/>
   <tile/>
   <tile/>
   <tile/>
   <tile/>
   <tile/>
   <tile/>
   <tile/>
   <tile/>
   <tile/>
   <tile/>
   <tile/>
   <tile/>
   <tile/>
   <tile/>
   <tile/>
   <tile/>
   <tile/>
   <tile/>
   <tile/>
   <tile/>
   <tile/>
   <tile/>
   <tile/>
   <tile/>
   <tile/>
   <tile/>
   <tile/>
   <tile/>
   <tile/>
   <tile/>
   <tile/>
   <tile/>
   <tile/>
   <tile/>
   <tile/>
   <tile/>
   <tile/>
   <tile/>
   <tile/>
   <tile/>
   <tile/>
   <tile/>
   <tile/>
   <tile/>
   <tile/>
   <tile/>
   <tile/>
   <tile/>
   <tile gid="3226"/>
   <tile gid="3227"/>
   <tile gid="3228"/>
   <tile gid="3229"/>
   <tile gid="3230"/>
   <tile/>
   <tile gid="3283"/>
   <tile gid="3284"/>
   <tile gid="3285"/>
   <tile gid="3286"/>
   <tile/>
   <tile/>
   <tile/>
   <tile/>
   <tile/>
   <tile/>
   <tile/>
   <tile/>
   <tile/>
   <tile/>
   <tile/>
   <tile/>
   <tile/>
   <tile/>
   <tile/>
   <tile/>
   <tile/>
   <tile/>
   <tile/>
   <tile/>
   <tile/>
   <tile/>
   <tile/>
   <tile/>
   <tile/>
   <tile/>
   <tile/>
   <tile/>
   <tile/>
   <tile/>
   <tile/>
   <tile/>
   <tile/>
   <tile/>
   <tile/>
   <tile/>
   <tile/>
   <tile/>
   <tile/>
   <tile/>
   <tile/>
   <tile/>
   <tile/>
   <tile/>
   <tile/>
   <tile/>
   <tile/>
   <tile/>
   <tile/>
   <tile/>
   <tile/>
   <tile/>
   <tile/>
   <tile/>
   <tile/>
   <tile/>
   <tile/>
   <tile/>
   <tile/>
   <tile/>
   <tile/>
   <tile/>
   <tile/>
   <tile/>
   <tile/>
   <tile/>
   <tile/>
   <tile/>
   <tile/>
   <tile/>
   <tile/>
   <tile/>
   <tile/>
   <tile/>
   <tile/>
   <tile/>
   <tile/>
   <tile/>
   <tile/>
   <tile/>
   <tile/>
   <tile/>
   <tile/>
   <tile/>
   <tile/>
   <tile/>
   <tile/>
   <tile/>
   <tile/>
   <tile/>
   <tile/>
   <tile/>
   <tile/>
   <tile/>
   <tile/>
   <tile/>
   <tile/>
   <tile/>
   <tile/>
   <tile/>
   <tile/>
   <tile/>
   <tile/>
   <tile/>
   <tile/>
   <tile/>
   <tile/>
   <tile/>
   <tile/>
   <tile/>
   <tile gid="3290"/>
   <tile gid="3291"/>
   <tile gid="3292"/>
   <tile gid="3293"/>
   <tile gid="3294"/>
   <tile/>
   <tile gid="3347"/>
   <tile gid="3348"/>
   <tile gid="3349"/>
   <tile gid="3350"/>
   <tile/>
   <tile/>
   <tile/>
   <tile/>
   <tile/>
   <tile/>
   <tile/>
   <tile/>
   <tile/>
   <tile/>
   <tile/>
   <tile/>
   <tile/>
   <tile/>
   <tile/>
   <tile/>
   <tile/>
   <tile/>
   <tile/>
   <tile/>
   <tile/>
   <tile/>
   <tile/>
   <tile/>
   <tile/>
   <tile/>
   <tile/>
   <tile/>
   <tile/>
   <tile/>
   <tile/>
   <tile/>
   <tile/>
   <tile/>
   <tile/>
   <tile/>
   <tile/>
   <tile/>
   <tile/>
   <tile/>
   <tile/>
   <tile/>
   <tile/>
   <tile/>
   <tile/>
   <tile/>
   <tile/>
   <tile/>
   <tile/>
   <tile/>
   <tile/>
   <tile/>
   <tile/>
   <tile/>
   <tile/>
   <tile/>
   <tile/>
   <tile/>
   <tile/>
   <tile/>
   <tile/>
   <tile/>
   <tile/>
   <tile/>
   <tile/>
   <tile/>
   <tile/>
   <tile/>
   <tile/>
   <tile/>
   <tile/>
   <tile/>
   <tile/>
   <tile/>
   <tile/>
   <tile/>
   <tile/>
   <tile/>
   <tile/>
   <tile/>
   <tile/>
   <tile/>
   <tile/>
   <tile/>
   <tile/>
   <tile/>
   <tile/>
   <tile/>
   <tile/>
   <tile/>
   <tile/>
   <tile/>
   <tile/>
   <tile/>
   <tile/>
   <tile/>
   <tile/>
   <tile/>
   <tile/>
   <tile/>
   <tile/>
   <tile/>
   <tile/>
   <tile/>
   <tile/>
   <tile/>
   <tile/>
   <tile/>
   <tile/>
   <tile/>
   <tile gid="3354"/>
   <tile gid="3355"/>
   <tile gid="3356"/>
   <tile gid="3357"/>
   <tile gid="3358"/>
   <tile/>
   <tile gid="3411"/>
   <tile gid="3412"/>
   <tile gid="3413"/>
   <tile gid="3414"/>
   <tile/>
   <tile/>
   <tile/>
   <tile/>
   <tile/>
   <tile/>
   <tile/>
   <tile/>
   <tile/>
   <tile/>
   <tile/>
   <tile/>
   <tile/>
   <tile/>
   <tile/>
   <tile/>
   <tile/>
   <tile/>
   <tile/>
   <tile/>
   <tile/>
   <tile/>
   <tile/>
   <tile/>
   <tile/>
   <tile/>
   <tile/>
   <tile/>
   <tile/>
   <tile/>
   <tile/>
   <tile/>
   <tile/>
   <tile/>
   <tile/>
   <tile/>
   <tile/>
   <tile/>
   <tile/>
   <tile/>
   <tile/>
   <tile/>
   <tile/>
   <tile/>
   <tile/>
   <tile/>
   <tile/>
   <tile/>
   <tile/>
   <tile/>
   <tile/>
   <tile/>
   <tile/>
   <tile/>
   <tile/>
   <tile/>
   <tile/>
   <tile/>
   <tile/>
   <tile/>
   <tile/>
   <tile/>
   <tile/>
   <tile/>
   <tile/>
   <tile/>
   <tile/>
   <tile/>
   <tile/>
   <tile/>
   <tile/>
   <tile/>
   <tile/>
   <tile/>
   <tile/>
   <tile/>
   <tile/>
   <tile/>
   <tile/>
   <tile/>
   <tile/>
   <tile/>
   <tile/>
   <tile/>
   <tile/>
   <tile/>
   <tile/>
   <tile/>
   <tile/>
   <tile/>
   <tile/>
   <tile/>
   <tile/>
   <tile/>
   <tile/>
   <tile/>
   <tile/>
   <tile/>
   <tile/>
   <tile/>
   <tile/>
   <tile/>
   <tile/>
   <tile/>
   <tile/>
   <tile/>
   <tile/>
   <tile/>
   <tile/>
   <tile/>
   <tile gid="3418"/>
   <tile gid="3419"/>
   <tile gid="3420"/>
   <tile gid="3421"/>
   <tile gid="3422"/>
   <tile/>
   <tile gid="3475"/>
   <tile gid="3476"/>
   <tile gid="3477"/>
   <tile gid="3478"/>
   <tile/>
   <tile/>
   <tile/>
   <tile/>
   <tile/>
   <tile/>
   <tile/>
   <tile/>
   <tile/>
   <tile/>
   <tile/>
   <tile/>
   <tile/>
   <tile/>
   <tile/>
   <tile/>
   <tile/>
   <tile/>
   <tile/>
   <tile/>
   <tile/>
   <tile/>
   <tile/>
   <tile/>
   <tile/>
   <tile/>
   <tile/>
   <tile/>
   <tile/>
   <tile/>
   <tile/>
   <tile/>
   <tile/>
   <tile/>
   <tile/>
   <tile/>
   <tile/>
   <tile/>
   <tile/>
   <tile/>
   <tile/>
   <tile/>
   <tile/>
   <tile/>
   <tile/>
   <tile/>
   <tile/>
   <tile/>
   <tile/>
   <tile/>
   <tile/>
   <tile/>
   <tile/>
   <tile/>
   <tile/>
   <tile/>
   <tile/>
   <tile/>
   <tile/>
   <tile/>
   <tile/>
   <tile/>
   <tile/>
   <tile/>
   <tile/>
   <tile/>
   <tile/>
   <tile/>
   <tile/>
   <tile/>
   <tile/>
   <tile/>
   <tile/>
   <tile/>
   <tile/>
   <tile/>
   <tile/>
   <tile/>
   <tile/>
   <tile/>
   <tile/>
   <tile/>
   <tile/>
   <tile/>
   <tile/>
   <tile/>
   <tile/>
   <tile/>
   <tile/>
   <tile/>
   <tile/>
   <tile/>
   <tile/>
   <tile/>
   <tile/>
   <tile/>
   <tile/>
   <tile/>
   <tile/>
   <tile/>
   <tile/>
   <tile/>
   <tile/>
   <tile/>
   <tile/>
   <tile/>
   <tile/>
   <tile/>
   <tile/>
   <tile/>
   <tile gid="3482"/>
   <tile gid="3483"/>
   <tile gid="3484"/>
   <tile gid="3485"/>
   <tile gid="3486"/>
   <tile/>
   <tile gid="3539"/>
   <tile gid="3540"/>
   <tile gid="3541"/>
   <tile gid="3542"/>
   <tile/>
   <tile/>
   <tile/>
   <tile/>
   <tile/>
   <tile/>
   <tile/>
   <tile/>
   <tile/>
   <tile/>
   <tile/>
   <tile/>
   <tile/>
   <tile/>
   <tile/>
   <tile/>
   <tile/>
   <tile/>
   <tile/>
   <tile/>
   <tile/>
   <tile/>
   <tile/>
   <tile/>
   <tile/>
   <tile/>
   <tile/>
   <tile/>
   <tile/>
   <tile/>
   <tile/>
   <tile/>
   <tile/>
   <tile/>
   <tile/>
   <tile/>
   <tile/>
   <tile/>
   <tile/>
   <tile/>
   <tile/>
   <tile/>
   <tile/>
   <tile/>
   <tile/>
   <tile/>
   <tile/>
   <tile/>
   <tile gid="5227"/>
   <tile gid="5228"/>
   <tile gid="5229"/>
   <tile gid="5230"/>
   <tile gid="5561"/>
   <tile gid="5562"/>
   <tile gid="5563"/>
   <tile gid="5564"/>
   <tile gid="5565"/>
   <tile gid="5566"/>
   <tile gid="5567"/>
   <tile/>
   <tile/>
   <tile/>
   <tile/>
   <tile/>
   <tile/>
   <tile/>
   <tile/>
   <tile/>
   <tile/>
   <tile/>
   <tile/>
   <tile/>
   <tile/>
   <tile/>
   <tile/>
   <tile/>
   <tile/>
   <tile/>
   <tile/>
   <tile/>
   <tile/>
   <tile/>
   <tile/>
   <tile/>
   <tile/>
   <tile/>
   <tile/>
   <tile/>
   <tile/>
   <tile/>
   <tile/>
   <tile/>
   <tile/>
   <tile/>
   <tile/>
   <tile/>
   <tile/>
   <tile/>
   <tile/>
   <tile/>
   <tile/>
   <tile/>
   <tile/>
   <tile/>
   <tile/>
   <tile/>
   <tile/>
   <tile/>
   <tile/>
   <tile/>
   <tile gid="3546"/>
   <tile gid="3547"/>
   <tile gid="3548"/>
   <tile gid="3549"/>
   <tile gid="3550"/>
   <tile/>
   <tile gid="3603"/>
   <tile gid="3604"/>
   <tile gid="3605"/>
   <tile gid="3606"/>
   <tile/>
   <tile/>
   <tile/>
   <tile/>
   <tile/>
   <tile/>
   <tile/>
   <tile/>
   <tile/>
   <tile/>
   <tile/>
   <tile/>
   <tile/>
   <tile/>
   <tile/>
   <tile/>
   <tile/>
   <tile/>
   <tile/>
   <tile/>
   <tile/>
   <tile/>
   <tile/>
   <tile/>
   <tile/>
   <tile/>
   <tile/>
   <tile/>
   <tile/>
   <tile/>
   <tile/>
   <tile/>
   <tile/>
   <tile/>
   <tile/>
   <tile/>
   <tile/>
   <tile/>
   <tile/>
   <tile/>
   <tile/>
   <tile/>
   <tile/>
   <tile/>
   <tile/>
   <tile/>
   <tile/>
   <tile/>
   <tile gid="5291"/>
   <tile gid="5292"/>
   <tile gid="5293"/>
   <tile gid="5294"/>
   <tile gid="5625"/>
   <tile gid="5626"/>
   <tile gid="5627"/>
   <tile gid="5628"/>
   <tile gid="5629"/>
   <tile gid="5630"/>
   <tile gid="5631"/>
   <tile/>
   <tile/>
   <tile/>
   <tile/>
   <tile/>
   <tile/>
   <tile/>
   <tile/>
   <tile/>
   <tile/>
   <tile/>
   <tile/>
   <tile/>
   <tile/>
   <tile/>
   <tile/>
   <tile/>
   <tile/>
   <tile/>
   <tile/>
   <tile/>
   <tile/>
   <tile/>
   <tile/>
   <tile/>
   <tile/>
   <tile/>
   <tile/>
   <tile/>
   <tile/>
   <tile/>
   <tile/>
   <tile/>
   <tile/>
   <tile/>
   <tile/>
   <tile/>
   <tile/>
   <tile/>
   <tile/>
   <tile/>
   <tile/>
   <tile/>
   <tile/>
   <tile/>
   <tile/>
   <tile/>
   <tile/>
   <tile/>
   <tile/>
   <tile/>
   <tile gid="3610"/>
   <tile gid="3611"/>
   <tile gid="3612"/>
   <tile gid="3613"/>
   <tile gid="3614"/>
   <tile/>
   <tile/>
   <tile/>
   <tile/>
   <tile/>
   <tile/>
   <tile/>
   <tile/>
   <tile/>
   <tile/>
   <tile/>
   <tile/>
   <tile/>
   <tile/>
   <tile/>
   <tile/>
   <tile/>
   <tile/>
   <tile/>
   <tile/>
   <tile/>
   <tile/>
   <tile/>
   <tile/>
   <tile/>
   <tile/>
   <tile/>
   <tile/>
   <tile/>
   <tile/>
   <tile/>
   <tile/>
   <tile/>
   <tile/>
   <tile/>
   <tile/>
   <tile/>
   <tile/>
   <tile/>
   <tile/>
   <tile/>
   <tile/>
   <tile/>
   <tile/>
   <tile/>
   <tile/>
   <tile/>
   <tile/>
   <tile/>
   <tile/>
   <tile/>
   <tile/>
   <tile/>
   <tile gid="5355"/>
   <tile gid="5356"/>
   <tile gid="5357"/>
   <tile gid="5358"/>
   <tile gid="5689"/>
   <tile gid="5690"/>
   <tile gid="5691"/>
   <tile gid="5692"/>
   <tile gid="5693"/>
   <tile gid="5694"/>
   <tile gid="5695"/>
   <tile/>
   <tile/>
   <tile/>
   <tile/>
   <tile/>
   <tile/>
   <tile/>
   <tile/>
   <tile/>
   <tile/>
   <tile/>
   <tile/>
   <tile/>
   <tile/>
   <tile/>
   <tile/>
   <tile/>
   <tile/>
   <tile/>
   <tile/>
   <tile/>
   <tile/>
   <tile/>
   <tile/>
   <tile/>
   <tile/>
   <tile/>
   <tile/>
   <tile/>
   <tile/>
   <tile/>
   <tile/>
   <tile/>
   <tile/>
   <tile/>
   <tile/>
   <tile/>
   <tile/>
   <tile/>
   <tile/>
   <tile/>
   <tile/>
   <tile/>
   <tile/>
   <tile/>
   <tile/>
   <tile/>
   <tile/>
   <tile/>
   <tile/>
   <tile/>
   <tile/>
   <tile/>
   <tile/>
   <tile/>
   <tile/>
   <tile/>
   <tile/>
   <tile/>
   <tile/>
   <tile/>
   <tile/>
   <tile/>
   <tile/>
   <tile/>
   <tile/>
   <tile/>
   <tile/>
   <tile/>
   <tile/>
   <tile/>
   <tile/>
   <tile/>
   <tile/>
   <tile/>
   <tile/>
   <tile/>
   <tile/>
   <tile/>
   <tile/>
   <tile/>
   <tile/>
   <tile/>
   <tile/>
   <tile/>
   <tile/>
   <tile/>
   <tile/>
   <tile/>
   <tile/>
   <tile/>
   <tile/>
   <tile/>
   <tile/>
   <tile/>
   <tile/>
   <tile/>
   <tile/>
   <tile/>
   <tile/>
   <tile/>
   <tile/>
   <tile/>
   <tile/>
   <tile/>
   <tile/>
   <tile/>
   <tile/>
   <tile/>
   <tile gid="5419"/>
   <tile gid="5420"/>
   <tile gid="5421"/>
   <tile gid="5422"/>
   <tile gid="5753"/>
   <tile gid="5754"/>
   <tile gid="5755"/>
   <tile gid="5756"/>
   <tile gid="5757"/>
   <tile gid="5758"/>
   <tile gid="5759"/>
   <tile/>
   <tile/>
   <tile/>
   <tile/>
   <tile/>
   <tile/>
   <tile/>
   <tile/>
   <tile/>
   <tile/>
   <tile/>
   <tile/>
   <tile/>
   <tile/>
   <tile/>
   <tile/>
   <tile/>
   <tile/>
   <tile/>
   <tile/>
   <tile/>
   <tile/>
   <tile/>
   <tile/>
   <tile/>
   <tile/>
   <tile/>
   <tile/>
   <tile/>
   <tile/>
   <tile/>
   <tile/>
   <tile/>
   <tile/>
   <tile/>
   <tile/>
   <tile/>
   <tile/>
   <tile/>
   <tile/>
   <tile/>
   <tile/>
   <tile/>
   <tile/>
   <tile/>
   <tile/>
   <tile/>
   <tile/>
   <tile/>
   <tile/>
   <tile/>
   <tile/>
   <tile/>
   <tile/>
   <tile/>
   <tile/>
   <tile/>
   <tile/>
   <tile/>
   <tile/>
   <tile/>
   <tile/>
   <tile/>
   <tile/>
   <tile/>
   <tile/>
   <tile/>
   <tile/>
   <tile/>
   <tile/>
   <tile/>
   <tile/>
   <tile/>
   <tile/>
   <tile/>
   <tile/>
   <tile/>
   <tile/>
   <tile/>
   <tile/>
   <tile/>
   <tile/>
   <tile/>
   <tile/>
   <tile/>
   <tile/>
   <tile/>
   <tile/>
   <tile/>
   <tile/>
   <tile/>
   <tile/>
   <tile/>
   <tile/>
   <tile/>
   <tile/>
   <tile/>
   <tile/>
   <tile/>
   <tile/>
   <tile/>
   <tile/>
   <tile/>
   <tile/>
   <tile/>
   <tile/>
   <tile/>
   <tile/>
   <tile/>
   <tile gid="5483"/>
   <tile gid="5484"/>
   <tile gid="5485"/>
   <tile gid="5486"/>
   <tile gid="5817"/>
   <tile gid="5818"/>
   <tile gid="5819"/>
   <tile gid="5820"/>
   <tile gid="5821"/>
   <tile gid="5822"/>
   <tile gid="5823"/>
   <tile/>
   <tile/>
   <tile/>
   <tile/>
   <tile/>
   <tile/>
   <tile/>
   <tile/>
   <tile/>
   <tile/>
   <tile/>
   <tile/>
   <tile/>
   <tile/>
   <tile/>
   <tile/>
   <tile/>
   <tile/>
   <tile/>
   <tile/>
   <tile/>
   <tile/>
   <tile/>
   <tile/>
   <tile/>
   <tile/>
   <tile/>
   <tile/>
   <tile/>
   <tile/>
   <tile/>
   <tile/>
   <tile/>
   <tile/>
   <tile/>
   <tile/>
   <tile/>
   <tile/>
   <tile/>
   <tile/>
   <tile/>
   <tile/>
   <tile/>
   <tile/>
   <tile/>
   <tile/>
   <tile/>
   <tile/>
   <tile/>
   <tile/>
   <tile/>
   <tile/>
   <tile/>
   <tile/>
   <tile/>
   <tile/>
   <tile/>
   <tile/>
   <tile/>
   <tile/>
   <tile/>
   <tile/>
   <tile/>
   <tile/>
   <tile/>
   <tile/>
   <tile/>
   <tile/>
   <tile/>
   <tile/>
   <tile/>
   <tile/>
   <tile/>
   <tile/>
   <tile/>
   <tile/>
   <tile/>
   <tile/>
   <tile/>
   <tile/>
   <tile/>
   <tile/>
   <tile/>
   <tile/>
   <tile/>
   <tile/>
   <tile/>
   <tile/>
   <tile/>
   <tile/>
   <tile/>
   <tile/>
   <tile/>
   <tile/>
   <tile/>
   <tile/>
   <tile/>
   <tile/>
   <tile/>
   <tile/>
   <tile/>
   <tile/>
   <tile/>
   <tile/>
   <tile/>
   <tile/>
   <tile/>
   <tile/>
   <tile/>
   <tile/>
   <tile/>
   <tile/>
   <tile gid="5880"/>
   <tile gid="5881"/>
   <tile gid="5882"/>
   <tile gid="5883"/>
   <tile gid="5884"/>
   <tile gid="5885"/>
   <tile gid="5886"/>
   <tile gid="5887"/>
   <tile/>
   <tile gid="4716"/>
   <tile gid="4717"/>
   <tile gid="4718"/>
   <tile/>
   <tile/>
   <tile/>
   <tile/>
   <tile/>
   <tile/>
   <tile/>
   <tile/>
   <tile/>
   <tile/>
   <tile/>
   <tile/>
   <tile/>
   <tile/>
   <tile/>
   <tile/>
   <tile/>
   <tile/>
   <tile/>
   <tile/>
   <tile/>
   <tile/>
   <tile/>
   <tile/>
   <tile/>
   <tile/>
   <tile/>
   <tile/>
   <tile/>
   <tile/>
   <tile/>
   <tile/>
   <tile/>
   <tile/>
   <tile/>
   <tile/>
   <tile/>
   <tile/>
   <tile/>
   <tile/>
   <tile/>
   <tile/>
   <tile/>
   <tile/>
   <tile/>
   <tile/>
   <tile/>
   <tile/>
   <tile/>
   <tile/>
   <tile/>
   <tile/>
   <tile/>
   <tile/>
   <tile/>
   <tile/>
   <tile/>
   <tile/>
   <tile/>
   <tile/>
   <tile/>
   <tile/>
   <tile/>
   <tile/>
   <tile/>
   <tile/>
   <tile/>
   <tile/>
   <tile/>
   <tile/>
   <tile/>
   <tile/>
   <tile/>
   <tile/>
   <tile/>
   <tile/>
   <tile/>
   <tile/>
   <tile/>
   <tile/>
   <tile/>
   <tile/>
   <tile/>
   <tile/>
   <tile/>
   <tile/>
   <tile/>
   <tile/>
   <tile/>
   <tile/>
   <tile/>
   <tile/>
   <tile/>
   <tile/>
   <tile/>
   <tile/>
   <tile/>
   <tile/>
   <tile/>
   <tile/>
   <tile/>
   <tile/>
   <tile/>
   <tile/>
   <tile/>
   <tile/>
   <tile/>
   <tile/>
   <tile gid="5944"/>
   <tile gid="5945"/>
   <tile gid="5946"/>
   <tile gid="5947"/>
   <tile gid="5948"/>
   <tile gid="5949"/>
   <tile gid="5950"/>
   <tile gid="5951"/>
   <tile gid="4779"/>
   <tile gid="4780"/>
   <tile gid="4781"/>
   <tile gid="4782"/>
   <tile/>
   <tile/>
   <tile/>
   <tile/>
   <tile/>
   <tile/>
   <tile/>
   <tile/>
   <tile/>
   <tile/>
   <tile/>
   <tile/>
   <tile/>
   <tile/>
   <tile/>
   <tile/>
   <tile/>
   <tile/>
   <tile/>
   <tile/>
   <tile/>
   <tile/>
   <tile/>
   <tile/>
   <tile/>
   <tile/>
   <tile/>
   <tile/>
   <tile/>
   <tile/>
   <tile/>
   <tile/>
   <tile/>
   <tile/>
   <tile/>
   <tile/>
   <tile/>
   <tile/>
   <tile/>
   <tile/>
   <tile/>
   <tile/>
   <tile/>
   <tile/>
   <tile/>
   <tile/>
   <tile/>
   <tile/>
   <tile/>
   <tile/>
   <tile/>
   <tile/>
   <tile/>
   <tile/>
   <tile/>
   <tile/>
   <tile/>
   <tile/>
   <tile/>
   <tile/>
   <tile/>
   <tile/>
   <tile/>
   <tile/>
   <tile/>
   <tile/>
   <tile/>
   <tile/>
   <tile/>
   <tile/>
   <tile/>
   <tile/>
   <tile/>
   <tile/>
   <tile/>
   <tile/>
   <tile/>
   <tile/>
   <tile/>
   <tile/>
   <tile/>
   <tile/>
   <tile/>
   <tile/>
   <tile/>
   <tile/>
   <tile/>
   <tile/>
   <tile/>
   <tile/>
   <tile/>
   <tile/>
   <tile/>
   <tile/>
   <tile/>
   <tile/>
   <tile/>
   <tile/>
   <tile/>
   <tile/>
   <tile/>
   <tile/>
   <tile/>
   <tile/>
   <tile/>
   <tile/>
   <tile/>
   <tile/>
   <tile gid="6008"/>
   <tile gid="6009"/>
   <tile gid="6010"/>
   <tile gid="6011"/>
   <tile gid="6012"/>
   <tile gid="6013"/>
   <tile gid="6014"/>
   <tile gid="6015"/>
   <tile gid="4843"/>
   <tile gid="4844"/>
   <tile gid="4845"/>
   <tile gid="4846"/>
   <tile/>
   <tile/>
   <tile/>
   <tile/>
   <tile/>
   <tile/>
   <tile/>
   <tile/>
   <tile/>
   <tile/>
   <tile/>
   <tile/>
   <tile/>
   <tile/>
   <tile/>
   <tile/>
   <tile/>
   <tile/>
   <tile/>
   <tile/>
   <tile/>
   <tile/>
   <tile/>
   <tile/>
   <tile/>
   <tile/>
   <tile/>
   <tile/>
   <tile/>
   <tile/>
   <tile/>
   <tile/>
   <tile/>
   <tile/>
   <tile/>
   <tile/>
   <tile/>
   <tile/>
   <tile/>
   <tile/>
   <tile/>
   <tile/>
   <tile/>
   <tile/>
   <tile/>
   <tile/>
   <tile/>
   <tile/>
   <tile/>
   <tile/>
   <tile/>
   <tile/>
   <tile/>
   <tile/>
   <tile/>
   <tile/>
   <tile/>
   <tile/>
   <tile/>
   <tile/>
   <tile/>
   <tile/>
   <tile/>
   <tile/>
   <tile/>
   <tile/>
   <tile/>
   <tile/>
   <tile/>
   <tile/>
   <tile/>
   <tile/>
   <tile/>
   <tile/>
   <tile/>
   <tile/>
   <tile/>
   <tile/>
   <tile/>
   <tile/>
   <tile/>
   <tile/>
   <tile/>
   <tile/>
   <tile/>
   <tile/>
   <tile/>
   <tile/>
   <tile/>
   <tile/>
   <tile/>
   <tile/>
   <tile/>
   <tile/>
   <tile/>
   <tile/>
   <tile/>
   <tile/>
   <tile/>
   <tile/>
   <tile/>
   <tile/>
   <tile/>
   <tile/>
   <tile/>
   <tile/>
   <tile/>
   <tile/>
   <tile gid="6072"/>
   <tile gid="6073"/>
   <tile gid="6074"/>
   <tile gid="6075"/>
   <tile gid="6076"/>
   <tile gid="6077"/>
   <tile gid="6078"/>
   <tile gid="6079"/>
   <tile gid="4907"/>
   <tile gid="4908"/>
   <tile gid="4909"/>
   <tile gid="4910"/>
   <tile/>
   <tile/>
   <tile/>
   <tile/>
   <tile/>
   <tile/>
   <tile/>
   <tile/>
   <tile/>
   <tile/>
   <tile/>
   <tile/>
   <tile/>
   <tile/>
   <tile/>
   <tile/>
   <tile/>
   <tile/>
   <tile/>
   <tile/>
   <tile/>
   <tile/>
   <tile/>
   <tile/>
   <tile/>
   <tile/>
   <tile/>
   <tile/>
   <tile/>
   <tile/>
   <tile/>
   <tile/>
   <tile/>
   <tile/>
   <tile/>
   <tile/>
   <tile/>
   <tile/>
   <tile/>
   <tile/>
   <tile/>
   <tile/>
   <tile/>
   <tile/>
   <tile/>
   <tile/>
   <tile/>
   <tile/>
   <tile/>
   <tile/>
   <tile/>
   <tile/>
   <tile/>
   <tile/>
   <tile/>
   <tile/>
   <tile/>
   <tile/>
   <tile/>
   <tile/>
   <tile/>
   <tile/>
   <tile/>
   <tile/>
   <tile/>
   <tile/>
   <tile/>
   <tile/>
   <tile/>
   <tile/>
   <tile/>
   <tile/>
   <tile/>
   <tile/>
   <tile/>
   <tile/>
   <tile/>
   <tile/>
   <tile/>
   <tile/>
   <tile/>
   <tile/>
   <tile/>
   <tile/>
   <tile/>
   <tile/>
   <tile/>
   <tile/>
   <tile/>
   <tile/>
   <tile/>
   <tile/>
   <tile/>
   <tile/>
   <tile/>
   <tile/>
   <tile/>
   <tile/>
   <tile/>
   <tile/>
   <tile/>
   <tile/>
   <tile/>
   <tile/>
   <tile/>
   <tile/>
   <tile/>
   <tile/>
   <tile/>
   <tile/>
   <tile/>
   <tile/>
   <tile/>
   <tile/>
   <tile/>
   <tile/>
   <tile gid="4971"/>
   <tile gid="4972"/>
   <tile gid="4973"/>
   <tile gid="4974"/>
   <tile gid="4975"/>
   <tile/>
   <tile/>
   <tile/>
   <tile/>
   <tile/>
   <tile/>
   <tile/>
   <tile/>
   <tile/>
   <tile/>
   <tile/>
   <tile/>
   <tile/>
   <tile/>
   <tile/>
   <tile/>
   <tile/>
   <tile/>
   <tile/>
   <tile/>
   <tile/>
   <tile/>
   <tile/>
   <tile/>
   <tile/>
   <tile/>
   <tile/>
   <tile/>
   <tile/>
   <tile/>
   <tile/>
   <tile/>
   <tile/>
   <tile/>
   <tile/>
   <tile/>
   <tile/>
   <tile/>
   <tile/>
   <tile/>
   <tile/>
   <tile/>
   <tile/>
   <tile/>
   <tile/>
   <tile/>
   <tile/>
   <tile/>
   <tile/>
   <tile/>
   <tile/>
   <tile/>
   <tile/>
   <tile/>
   <tile/>
   <tile/>
   <tile/>
   <tile/>
   <tile/>
   <tile/>
   <tile/>
   <tile/>
   <tile/>
   <tile/>
   <tile/>
   <tile/>
   <tile/>
   <tile/>
   <tile/>
   <tile/>
   <tile/>
   <tile/>
   <tile/>
   <tile/>
   <tile/>
   <tile/>
   <tile/>
   <tile/>
   <tile/>
   <tile/>
   <tile/>
   <tile/>
   <tile/>
   <tile/>
   <tile/>
   <tile/>
   <tile/>
   <tile/>
   <tile/>
   <tile/>
   <tile/>
   <tile/>
   <tile/>
   <tile/>
   <tile/>
   <tile/>
   <tile/>
   <tile/>
   <tile/>
   <tile/>
   <tile/>
   <tile/>
   <tile/>
   <tile/>
   <tile/>
   <tile/>
   <tile/>
   <tile/>
   <tile/>
   <tile/>
   <tile/>
   <tile/>
   <tile/>
   <tile/>
   <tile gid="5034"/>
   <tile gid="5035"/>
   <tile gid="5036"/>
   <tile gid="5037"/>
   <tile gid="5038"/>
   <tile gid="5039"/>
   <tile/>
   <tile/>
   <tile/>
   <tile/>
   <tile/>
   <tile/>
   <tile/>
   <tile/>
   <tile/>
   <tile/>
   <tile/>
   <tile/>
   <tile/>
   <tile/>
   <tile/>
   <tile/>
   <tile/>
   <tile/>
   <tile/>
   <tile/>
   <tile/>
   <tile/>
   <tile/>
   <tile/>
   <tile/>
   <tile/>
   <tile/>
   <tile/>
   <tile/>
   <tile/>
   <tile/>
   <tile/>
   <tile/>
   <tile/>
   <tile/>
   <tile/>
   <tile/>
   <tile/>
   <tile/>
   <tile/>
   <tile/>
   <tile/>
   <tile/>
   <tile/>
   <tile/>
   <tile/>
   <tile/>
   <tile/>
   <tile/>
   <tile/>
   <tile/>
   <tile gid="2722"/>
   <tile gid="2723"/>
   <tile gid="2724"/>
   <tile gid="2725"/>
   <tile gid="2726"/>
   <tile/>
   <tile/>
   <tile/>
   <tile/>
   <tile/>
   <tile/>
   <tile/>
   <tile/>
   <tile/>
   <tile/>
   <tile/>
   <tile/>
   <tile/>
   <tile/>
   <tile/>
   <tile/>
   <tile/>
   <tile/>
   <tile/>
   <tile/>
   <tile/>
   <tile/>
   <tile/>
   <tile/>
   <tile/>
   <tile/>
   <tile/>
   <tile/>
   <tile/>
   <tile/>
   <tile/>
   <tile/>
   <tile/>
   <tile/>
   <tile/>
   <tile/>
   <tile/>
   <tile/>
   <tile/>
   <tile/>
   <tile/>
   <tile/>
   <tile/>
   <tile/>
   <tile/>
   <tile/>
   <tile/>
   <tile/>
   <tile/>
   <tile/>
   <tile/>
   <tile/>
   <tile/>
   <tile/>
   <tile/>
   <tile/>
   <tile/>
   <tile/>
   <tile/>
   <tile/>
   <tile/>
   <tile/>
   <tile/>
   <tile/>
   <tile/>
   <tile/>
   <tile/>
   <tile/>
   <tile/>
   <tile/>
   <tile/>
   <tile/>
   <tile/>
   <tile/>
   <tile/>
   <tile/>
   <tile/>
   <tile/>
   <tile/>
   <tile/>
   <tile/>
   <tile/>
   <tile/>
   <tile/>
   <tile/>
   <tile/>
   <tile/>
   <tile/>
   <tile/>
   <tile/>
   <tile/>
   <tile/>
   <tile/>
   <tile/>
   <tile/>
   <tile/>
   <tile/>
   <tile/>
   <tile/>
   <tile/>
   <tile/>
   <tile/>
   <tile/>
   <tile/>
   <tile/>
   <tile/>
   <tile/>
   <tile/>
   <tile/>
   <tile/>
   <tile gid="2722"/>
   <tile gid="2723"/>
   <tile gid="2724"/>
   <tile gid="2725"/>
   <tile gid="2726"/>
   <tile gid="2786"/>
   <tile gid="2787"/>
   <tile gid="2788"/>
   <tile gid="2789"/>
   <tile gid="2790"/>
   <tile/>
   <tile/>
   <tile/>
   <tile/>
   <tile/>
   <tile/>
   <tile/>
   <tile/>
   <tile/>
   <tile/>
   <tile/>
   <tile/>
   <tile/>
   <tile/>
   <tile/>
   <tile/>
   <tile/>
   <tile/>
   <tile/>
   <tile/>
   <tile/>
   <tile/>
   <tile/>
   <tile/>
   <tile/>
   <tile/>
   <tile/>
   <tile/>
   <tile/>
   <tile/>
   <tile/>
   <tile/>
   <tile/>
   <tile/>
   <tile/>
   <tile/>
   <tile/>
   <tile/>
   <tile/>
   <tile/>
   <tile/>
   <tile/>
   <tile/>
   <tile/>
   <tile/>
   <tile/>
   <tile/>
   <tile/>
   <tile/>
   <tile/>
   <tile/>
   <tile/>
   <tile/>
   <tile/>
   <tile/>
   <tile/>
   <tile/>
   <tile/>
   <tile/>
   <tile/>
   <tile/>
   <tile/>
   <tile/>
   <tile/>
   <tile/>
   <tile/>
   <tile/>
   <tile/>
   <tile/>
   <tile/>
   <tile/>
   <tile/>
   <tile/>
   <tile/>
   <tile/>
   <tile/>
   <tile/>
   <tile/>
   <tile/>
   <tile/>
   <tile/>
   <tile/>
   <tile/>
   <tile/>
   <tile/>
   <tile/>
   <tile/>
   <tile/>
   <tile/>
   <tile/>
   <tile/>
   <tile/>
   <tile/>
   <tile/>
   <tile/>
   <tile/>
   <tile/>
   <tile/>
   <tile/>
   <tile/>
   <tile/>
   <tile/>
   <tile/>
   <tile/>
   <tile/>
   <tile/>
   <tile/>
   <tile/>
   <tile/>
   <tile/>
   <tile gid="2786"/>
   <tile gid="2787"/>
   <tile gid="2788"/>
   <tile gid="2789"/>
   <tile gid="2790"/>
   <tile gid="2850"/>
   <tile gid="2851"/>
   <tile gid="2852"/>
   <tile gid="2853"/>
   <tile gid="2854"/>
   <tile/>
   <tile/>
   <tile/>
   <tile/>
   <tile/>
   <tile/>
   <tile/>
   <tile/>
   <tile/>
   <tile/>
   <tile/>
   <tile/>
   <tile/>
   <tile/>
   <tile/>
   <tile/>
   <tile/>
   <tile/>
   <tile/>
   <tile/>
   <tile/>
   <tile/>
   <tile/>
   <tile/>
   <tile/>
   <tile/>
   <tile/>
   <tile/>
   <tile/>
   <tile/>
   <tile/>
   <tile/>
   <tile/>
   <tile/>
   <tile/>
   <tile/>
   <tile/>
   <tile/>
   <tile/>
   <tile/>
   <tile/>
   <tile/>
   <tile/>
   <tile/>
   <tile/>
   <tile/>
   <tile/>
   <tile/>
   <tile/>
   <tile/>
   <tile/>
   <tile/>
   <tile/>
   <tile/>
   <tile/>
   <tile/>
   <tile/>
   <tile/>
   <tile/>
   <tile/>
   <tile/>
   <tile/>
   <tile/>
   <tile/>
   <tile/>
   <tile/>
   <tile/>
   <tile/>
   <tile/>
   <tile/>
   <tile/>
   <tile/>
   <tile/>
   <tile/>
   <tile/>
   <tile/>
   <tile/>
   <tile/>
   <tile/>
   <tile/>
   <tile/>
   <tile/>
   <tile/>
   <tile/>
   <tile/>
   <tile/>
   <tile/>
   <tile/>
   <tile/>
   <tile/>
   <tile/>
   <tile/>
   <tile/>
   <tile/>
   <tile/>
   <tile/>
   <tile/>
   <tile/>
   <tile/>
   <tile/>
   <tile/>
   <tile/>
   <tile/>
   <tile/>
   <tile/>
   <tile/>
   <tile/>
   <tile/>
   <tile/>
   <tile/>
   <tile gid="2850"/>
   <tile gid="2851"/>
   <tile gid="2852"/>
   <tile gid="2853"/>
   <tile gid="2854"/>
   <tile gid="2914"/>
   <tile gid="2915"/>
   <tile gid="2916"/>
   <tile gid="2917"/>
   <tile gid="2918"/>
   <tile/>
   <tile/>
   <tile/>
   <tile/>
   <tile/>
   <tile/>
   <tile/>
   <tile/>
   <tile/>
   <tile/>
   <tile/>
   <tile/>
   <tile/>
   <tile/>
   <tile/>
   <tile/>
   <tile/>
   <tile/>
   <tile/>
   <tile/>
   <tile/>
   <tile/>
   <tile/>
   <tile/>
   <tile/>
   <tile/>
   <tile/>
   <tile/>
   <tile/>
   <tile/>
   <tile/>
   <tile/>
   <tile/>
   <tile/>
   <tile/>
   <tile/>
   <tile/>
   <tile/>
   <tile/>
   <tile/>
   <tile/>
   <tile/>
   <tile/>
   <tile/>
   <tile/>
   <tile/>
   <tile/>
   <tile/>
   <tile/>
   <tile/>
   <tile/>
   <tile/>
   <tile/>
   <tile/>
   <tile/>
   <tile/>
   <tile/>
   <tile/>
   <tile/>
   <tile/>
   <tile/>
   <tile/>
   <tile/>
   <tile/>
   <tile/>
   <tile/>
   <tile/>
   <tile/>
   <tile/>
   <tile/>
   <tile/>
   <tile/>
   <tile/>
   <tile/>
   <tile/>
   <tile/>
   <tile/>
   <tile/>
   <tile/>
   <tile/>
   <tile/>
   <tile/>
   <tile/>
   <tile/>
   <tile/>
   <tile/>
   <tile/>
   <tile/>
   <tile/>
   <tile/>
   <tile/>
   <tile/>
   <tile/>
   <tile/>
   <tile/>
   <tile/>
   <tile/>
   <tile/>
   <tile/>
   <tile/>
   <tile/>
   <tile/>
   <tile/>
   <tile/>
   <tile/>
   <tile/>
   <tile/>
   <tile/>
   <tile/>
   <tile/>
   <tile gid="2914"/>
   <tile gid="2915"/>
   <tile gid="2916"/>
   <tile gid="2917"/>
   <tile gid="2918"/>
   <tile gid="2978"/>
   <tile gid="2979"/>
   <tile gid="2980"/>
   <tile gid="2981"/>
   <tile gid="2982"/>
   <tile/>
   <tile/>
   <tile/>
   <tile/>
   <tile/>
   <tile/>
   <tile/>
   <tile/>
   <tile/>
   <tile/>
   <tile/>
   <tile/>
   <tile/>
   <tile/>
   <tile/>
   <tile/>
   <tile/>
   <tile/>
   <tile/>
   <tile/>
   <tile/>
   <tile/>
   <tile/>
   <tile/>
   <tile/>
   <tile/>
   <tile/>
   <tile/>
   <tile/>
   <tile/>
   <tile/>
   <tile/>
   <tile/>
   <tile/>
   <tile/>
   <tile/>
   <tile/>
   <tile/>
   <tile/>
   <tile/>
   <tile/>
   <tile/>
   <tile/>
   <tile/>
   <tile/>
   <tile/>
   <tile/>
   <tile/>
   <tile/>
   <tile/>
   <tile/>
   <tile/>
   <tile/>
   <tile/>
   <tile/>
   <tile/>
   <tile/>
   <tile/>
   <tile/>
   <tile/>
   <tile/>
   <tile/>
   <tile/>
   <tile/>
   <tile/>
   <tile/>
   <tile/>
   <tile/>
   <tile/>
   <tile/>
   <tile/>
   <tile/>
   <tile/>
   <tile/>
   <tile/>
   <tile/>
   <tile/>
   <tile/>
   <tile/>
   <tile/>
   <tile/>
   <tile/>
   <tile/>
   <tile/>
   <tile/>
   <tile/>
   <tile/>
   <tile/>
   <tile/>
   <tile/>
   <tile/>
   <tile/>
   <tile/>
   <tile/>
   <tile/>
   <tile/>
   <tile/>
   <tile/>
   <tile/>
   <tile/>
   <tile/>
   <tile/>
   <tile/>
   <tile/>
   <tile/>
   <tile/>
   <tile/>
   <tile/>
   <tile/>
   <tile/>
   <tile gid="2978"/>
   <tile gid="2979"/>
   <tile gid="2980"/>
   <tile gid="2981"/>
   <tile gid="2982"/>
   <tile gid="3042"/>
   <tile gid="3043"/>
   <tile gid="3044"/>
   <tile gid="3045"/>
   <tile gid="3046"/>
   <tile/>
   <tile/>
   <tile/>
   <tile/>
   <tile/>
   <tile/>
   <tile/>
   <tile/>
   <tile/>
   <tile/>
   <tile/>
   <tile/>
   <tile/>
   <tile/>
   <tile/>
   <tile/>
   <tile/>
   <tile/>
   <tile/>
   <tile/>
   <tile/>
   <tile/>
   <tile/>
   <tile/>
   <tile/>
   <tile/>
   <tile/>
   <tile/>
   <tile/>
   <tile/>
   <tile/>
   <tile/>
   <tile/>
   <tile/>
   <tile/>
   <tile/>
   <tile/>
   <tile/>
   <tile/>
   <tile/>
   <tile/>
   <tile/>
   <tile/>
   <tile/>
   <tile/>
   <tile/>
   <tile/>
   <tile/>
   <tile/>
   <tile/>
   <tile/>
   <tile/>
   <tile/>
   <tile/>
   <tile/>
   <tile/>
   <tile/>
   <tile/>
   <tile/>
   <tile/>
   <tile/>
   <tile/>
   <tile/>
   <tile/>
   <tile/>
   <tile/>
   <tile/>
   <tile/>
   <tile/>
   <tile/>
   <tile/>
   <tile/>
   <tile/>
   <tile/>
   <tile/>
   <tile/>
   <tile/>
   <tile/>
   <tile/>
   <tile/>
   <tile/>
   <tile/>
   <tile/>
   <tile/>
   <tile/>
   <tile/>
   <tile/>
   <tile/>
   <tile/>
   <tile/>
   <tile/>
   <tile/>
   <tile/>
   <tile/>
   <tile/>
   <tile/>
   <tile/>
   <tile/>
   <tile/>
   <tile/>
   <tile/>
   <tile/>
   <tile/>
   <tile/>
   <tile/>
   <tile/>
   <tile/>
   <tile/>
   <tile/>
   <tile/>
   <tile gid="3042"/>
   <tile gid="3043"/>
   <tile gid="3044"/>
   <tile gid="3045"/>
   <tile gid="3046"/>
   <tile gid="3106"/>
   <tile gid="3107"/>
   <tile gid="3108"/>
   <tile gid="3109"/>
   <tile gid="3110"/>
   <tile/>
   <tile/>
   <tile/>
   <tile/>
   <tile/>
   <tile/>
   <tile/>
   <tile/>
   <tile/>
   <tile/>
   <tile/>
   <tile/>
   <tile/>
   <tile/>
   <tile/>
   <tile/>
   <tile/>
   <tile/>
   <tile/>
   <tile/>
   <tile/>
   <tile/>
   <tile/>
   <tile/>
   <tile/>
   <tile/>
   <tile/>
   <tile/>
   <tile/>
   <tile/>
   <tile/>
   <tile/>
   <tile/>
   <tile/>
   <tile/>
   <tile/>
   <tile/>
   <tile/>
   <tile/>
   <tile/>
   <tile/>
   <tile/>
   <tile/>
   <tile/>
   <tile/>
   <tile/>
   <tile/>
   <tile/>
   <tile/>
   <tile/>
   <tile/>
   <tile/>
   <tile/>
   <tile/>
   <tile/>
   <tile/>
   <tile/>
   <tile/>
   <tile/>
   <tile/>
   <tile/>
   <tile/>
   <tile/>
   <tile/>
   <tile/>
   <tile/>
   <tile/>
   <tile/>
   <tile/>
   <tile/>
   <tile/>
   <tile/>
   <tile/>
   <tile/>
   <tile/>
   <tile/>
   <tile/>
   <tile/>
   <tile/>
   <tile/>
   <tile/>
   <tile/>
   <tile/>
   <tile/>
   <tile/>
   <tile/>
   <tile/>
   <tile/>
   <tile/>
   <tile/>
   <tile/>
   <tile/>
   <tile/>
   <tile/>
   <tile/>
   <tile/>
   <tile/>
   <tile/>
   <tile/>
   <tile/>
   <tile/>
   <tile/>
   <tile/>
   <tile/>
   <tile/>
   <tile/>
   <tile/>
   <tile/>
   <tile/>
   <tile/>
   <tile gid="3106"/>
   <tile gid="3107"/>
   <tile gid="3108"/>
   <tile gid="3109"/>
   <tile gid="3110"/>
   <tile gid="3170"/>
   <tile gid="3171"/>
   <tile gid="3172"/>
   <tile gid="3173"/>
   <tile gid="3174"/>
   <tile/>
   <tile/>
   <tile/>
   <tile/>
   <tile/>
   <tile/>
   <tile/>
   <tile/>
   <tile/>
   <tile/>
   <tile/>
   <tile/>
   <tile/>
   <tile/>
   <tile/>
   <tile/>
   <tile/>
   <tile/>
   <tile/>
   <tile/>
   <tile/>
   <tile/>
   <tile/>
   <tile/>
   <tile/>
   <tile/>
   <tile/>
   <tile/>
   <tile/>
   <tile/>
   <tile/>
   <tile/>
   <tile/>
   <tile/>
   <tile/>
   <tile/>
   <tile/>
   <tile/>
   <tile/>
   <tile/>
   <tile/>
   <tile/>
   <tile/>
   <tile/>
   <tile/>
   <tile/>
   <tile/>
   <tile/>
   <tile/>
   <tile/>
   <tile/>
   <tile/>
   <tile/>
   <tile/>
   <tile/>
   <tile/>
   <tile/>
   <tile/>
   <tile/>
   <tile/>
   <tile/>
   <tile/>
   <tile/>
   <tile/>
   <tile/>
   <tile/>
   <tile/>
   <tile/>
   <tile/>
   <tile/>
   <tile/>
   <tile/>
   <tile/>
   <tile/>
   <tile/>
   <tile/>
   <tile/>
   <tile/>
   <tile/>
   <tile/>
   <tile/>
   <tile/>
   <tile/>
   <tile/>
   <tile/>
   <tile/>
   <tile/>
   <tile/>
   <tile/>
   <tile/>
   <tile/>
   <tile/>
   <tile/>
   <tile/>
   <tile/>
   <tile/>
   <tile/>
   <tile/>
   <tile/>
   <tile/>
   <tile/>
   <tile/>
   <tile/>
   <tile/>
   <tile/>
   <tile/>
   <tile/>
   <tile/>
   <tile/>
   <tile/>
   <tile gid="3170"/>
   <tile gid="3171"/>
   <tile gid="3172"/>
   <tile gid="3173"/>
   <tile gid="3174"/>
   <tile gid="3234"/>
   <tile gid="3235"/>
   <tile gid="3236"/>
   <tile gid="3237"/>
   <tile gid="3238"/>
   <tile/>
   <tile/>
   <tile/>
   <tile/>
   <tile/>
   <tile/>
   <tile/>
   <tile/>
   <tile/>
   <tile/>
   <tile/>
   <tile/>
   <tile/>
   <tile/>
   <tile/>
   <tile/>
   <tile/>
   <tile/>
   <tile/>
   <tile/>
   <tile/>
   <tile/>
   <tile/>
   <tile/>
   <tile/>
   <tile/>
   <tile/>
   <tile/>
   <tile/>
   <tile/>
   <tile/>
   <tile/>
   <tile/>
   <tile/>
   <tile/>
   <tile/>
   <tile/>
   <tile/>
   <tile/>
   <tile/>
   <tile/>
   <tile/>
   <tile/>
   <tile/>
   <tile/>
   <tile/>
   <tile/>
   <tile/>
   <tile/>
   <tile/>
   <tile/>
   <tile/>
   <tile/>
   <tile/>
   <tile/>
   <tile/>
   <tile/>
   <tile/>
   <tile/>
   <tile/>
   <tile/>
   <tile/>
   <tile/>
   <tile/>
   <tile/>
   <tile/>
   <tile/>
   <tile/>
   <tile/>
   <tile/>
   <tile/>
   <tile/>
   <tile/>
   <tile/>
   <tile/>
   <tile/>
   <tile/>
   <tile/>
   <tile/>
   <tile/>
   <tile/>
   <tile/>
   <tile/>
   <tile/>
   <tile/>
   <tile/>
   <tile/>
   <tile/>
   <tile/>
   <tile/>
   <tile/>
   <tile/>
   <tile/>
   <tile/>
   <tile/>
   <tile/>
   <tile/>
   <tile/>
   <tile/>
   <tile/>
   <tile/>
   <tile/>
   <tile/>
   <tile/>
   <tile/>
   <tile/>
   <tile/>
   <tile/>
   <tile/>
   <tile/>
   <tile gid="3234"/>
   <tile gid="3235"/>
   <tile gid="3236"/>
   <tile gid="3237"/>
   <tile gid="3238"/>
   <tile gid="3298"/>
   <tile gid="3299"/>
   <tile gid="3300"/>
   <tile gid="3301"/>
   <tile gid="3302"/>
   <tile gid="5560"/>
   <tile gid="5561"/>
   <tile gid="5562"/>
   <tile gid="5563"/>
   <tile gid="5564"/>
   <tile gid="5565"/>
   <tile gid="5566"/>
   <tile gid="5567"/>
   <tile gid="5568"/>
   <tile/>
   <tile/>
   <tile/>
   <tile/>
   <tile/>
   <tile/>
   <tile/>
   <tile/>
   <tile/>
   <tile/>
   <tile/>
   <tile/>
   <tile/>
   <tile/>
   <tile/>
   <tile/>
   <tile/>
   <tile/>
   <tile/>
   <tile/>
   <tile/>
   <tile/>
   <tile/>
   <tile/>
   <tile/>
   <tile/>
   <tile/>
   <tile/>
   <tile/>
   <tile/>
   <tile/>
   <tile/>
   <tile/>
   <tile/>
   <tile/>
   <tile/>
   <tile/>
   <tile/>
   <tile/>
   <tile/>
   <tile/>
   <tile/>
   <tile/>
   <tile/>
   <tile/>
   <tile/>
   <tile/>
   <tile/>
   <tile/>
   <tile/>
   <tile/>
   <tile/>
   <tile/>
   <tile/>
   <tile/>
   <tile/>
   <tile/>
   <tile/>
   <tile/>
   <tile/>
   <tile/>
   <tile/>
   <tile/>
   <tile/>
   <tile/>
   <tile/>
   <tile/>
   <tile/>
   <tile/>
   <tile/>
   <tile/>
   <tile/>
   <tile/>
   <tile/>
   <tile/>
   <tile/>
   <tile/>
   <tile/>
   <tile/>
   <tile/>
   <tile/>
   <tile/>
   <tile/>
   <tile/>
   <tile/>
   <tile/>
   <tile/>
   <tile/>
   <tile/>
   <tile/>
   <tile/>
   <tile/>
   <tile/>
   <tile/>
   <tile/>
   <tile/>
   <tile/>
   <tile/>
   <tile/>
   <tile/>
   <tile/>
   <tile gid="3298"/>
   <tile gid="3299"/>
   <tile gid="3300"/>
   <tile gid="3301"/>
   <tile gid="3302"/>
   <tile gid="3362"/>
   <tile gid="3363"/>
   <tile gid="3364"/>
   <tile gid="3365"/>
   <tile gid="3366"/>
   <tile gid="5624"/>
   <tile gid="5625"/>
   <tile gid="5626"/>
   <tile gid="5627"/>
   <tile gid="5628"/>
   <tile gid="5629"/>
   <tile gid="5630"/>
   <tile gid="5631"/>
   <tile gid="5632"/>
   <tile/>
   <tile/>
   <tile/>
   <tile/>
   <tile/>
   <tile/>
   <tile/>
   <tile/>
   <tile/>
   <tile/>
   <tile/>
   <tile/>
   <tile/>
   <tile/>
   <tile/>
   <tile/>
   <tile/>
   <tile/>
   <tile/>
   <tile/>
   <tile/>
   <tile/>
   <tile/>
   <tile/>
   <tile/>
   <tile/>
   <tile/>
   <tile/>
   <tile/>
   <tile/>
   <tile/>
   <tile/>
   <tile/>
   <tile/>
   <tile/>
   <tile/>
   <tile/>
   <tile/>
   <tile/>
   <tile/>
   <tile/>
   <tile/>
   <tile/>
   <tile/>
   <tile/>
   <tile/>
   <tile/>
   <tile/>
   <tile/>
   <tile/>
   <tile/>
   <tile/>
   <tile/>
   <tile/>
   <tile/>
   <tile/>
   <tile/>
   <tile/>
   <tile/>
   <tile/>
   <tile/>
   <tile/>
   <tile/>
   <tile/>
   <tile/>
   <tile/>
   <tile/>
   <tile/>
   <tile/>
   <tile/>
   <tile/>
   <tile/>
   <tile/>
   <tile/>
   <tile/>
   <tile/>
   <tile/>
   <tile/>
   <tile/>
   <tile/>
   <tile/>
   <tile/>
   <tile/>
   <tile/>
   <tile/>
   <tile/>
   <tile/>
   <tile/>
   <tile/>
   <tile/>
   <tile/>
   <tile/>
   <tile/>
   <tile/>
   <tile/>
   <tile/>
   <tile/>
   <tile/>
   <tile/>
   <tile/>
   <tile/>
   <tile gid="3362"/>
   <tile gid="3363"/>
   <tile gid="3364"/>
   <tile gid="3365"/>
   <tile gid="3366"/>
   <tile/>
   <tile/>
   <tile/>
   <tile/>
   <tile/>
   <tile gid="5688"/>
   <tile gid="5689"/>
   <tile gid="5690"/>
   <tile gid="5691"/>
   <tile gid="5692"/>
   <tile gid="5693"/>
   <tile gid="5694"/>
   <tile gid="5695"/>
   <tile gid="5696"/>
   <tile/>
   <tile/>
   <tile/>
   <tile/>
   <tile/>
   <tile/>
   <tile/>
   <tile/>
   <tile/>
   <tile/>
   <tile/>
   <tile/>
   <tile/>
   <tile/>
   <tile/>
   <tile/>
   <tile/>
   <tile/>
   <tile/>
   <tile/>
   <tile/>
   <tile/>
   <tile/>
   <tile/>
   <tile/>
   <tile/>
   <tile/>
   <tile/>
   <tile/>
   <tile/>
   <tile/>
   <tile/>
   <tile/>
   <tile/>
   <tile/>
   <tile/>
   <tile/>
   <tile/>
   <tile/>
   <tile/>
   <tile/>
   <tile/>
   <tile/>
   <tile/>
   <tile/>
   <tile/>
   <tile/>
   <tile/>
   <tile/>
   <tile/>
   <tile/>
   <tile/>
   <tile/>
   <tile/>
   <tile/>
   <tile/>
   <tile/>
   <tile/>
   <tile/>
   <tile/>
   <tile/>
   <tile/>
   <tile/>
   <tile/>
   <tile/>
   <tile/>
   <tile/>
   <tile/>
   <tile/>
   <tile/>
   <tile/>
   <tile/>
   <tile/>
   <tile/>
   <tile/>
   <tile/>
   <tile/>
   <tile/>
   <tile/>
   <tile/>
   <tile/>
   <tile/>
   <tile/>
   <tile/>
   <tile/>
   <tile/>
   <tile/>
   <tile/>
   <tile/>
   <tile/>
   <tile gid="5618"/>
   <tile gid="5619"/>
   <tile gid="5620"/>
   <tile gid="5621"/>
   <tile gid="5622"/>
   <tile gid="5623"/>
   <tile gid="5234"/>
   <tile gid="5235"/>
   <tile gid="5236"/>
   <tile gid="5237"/>
   <tile gid="5238"/>
   <tile gid="5239"/>
   <tile/>
   <tile/>
   <tile/>
   <tile/>
   <tile/>
   <tile/>
   <tile/>
   <tile/>
   <tile/>
   <tile gid="5752"/>
   <tile gid="5753"/>
   <tile gid="5754"/>
   <tile gid="5755"/>
   <tile gid="5756"/>
   <tile gid="5757"/>
   <tile gid="5758"/>
   <tile gid="5759"/>
   <tile gid="5760"/>
   <tile/>
   <tile/>
   <tile/>
   <tile/>
   <tile/>
   <tile/>
   <tile/>
   <tile/>
   <tile/>
   <tile/>
   <tile/>
   <tile/>
   <tile/>
   <tile/>
   <tile/>
   <tile/>
   <tile/>
   <tile/>
   <tile/>
   <tile/>
   <tile/>
   <tile/>
   <tile/>
   <tile/>
   <tile/>
   <tile/>
   <tile/>
   <tile/>
   <tile/>
   <tile/>
   <tile/>
   <tile/>
   <tile/>
   <tile/>
   <tile/>
   <tile/>
   <tile/>
   <tile/>
   <tile/>
   <tile/>
   <tile/>
   <tile/>
   <tile/>
   <tile/>
   <tile/>
   <tile/>
   <tile/>
   <tile/>
   <tile/>
   <tile/>
   <tile/>
   <tile/>
   <tile/>
   <tile/>
   <tile/>
   <tile/>
   <tile/>
   <tile/>
   <tile/>
   <tile/>
   <tile/>
   <tile/>
   <tile/>
   <tile/>
   <tile/>
   <tile/>
   <tile/>
   <tile/>
   <tile/>
   <tile/>
   <tile/>
   <tile/>
   <tile/>
   <tile/>
   <tile/>
   <tile/>
   <tile/>
   <tile/>
   <tile/>
   <tile/>
   <tile/>
   <tile/>
   <tile/>
   <tile/>
   <tile/>
   <tile/>
   <tile/>
   <tile/>
   <tile/>
   <tile/>
   <tile gid="5682"/>
   <tile gid="5683"/>
   <tile gid="5684"/>
   <tile gid="5685"/>
   <tile gid="5686"/>
   <tile gid="5687"/>
   <tile gid="5298"/>
   <tile gid="5299"/>
   <tile gid="5300"/>
   <tile gid="5301"/>
   <tile gid="5302"/>
   <tile gid="5303"/>
   <tile/>
   <tile/>
   <tile/>
   <tile/>
   <tile/>
   <tile/>
   <tile/>
   <tile/>
   <tile/>
   <tile gid="5816"/>
   <tile gid="5817"/>
   <tile gid="5818"/>
   <tile gid="5819"/>
   <tile gid="5820"/>
   <tile gid="5821"/>
   <tile gid="5822"/>
   <tile gid="5823"/>
   <tile gid="5824"/>
   <tile/>
   <tile/>
   <tile/>
   <tile/>
   <tile/>
   <tile/>
   <tile/>
   <tile/>
   <tile/>
   <tile/>
   <tile/>
   <tile/>
   <tile/>
   <tile/>
   <tile/>
   <tile/>
   <tile/>
   <tile/>
   <tile/>
   <tile/>
   <tile/>
   <tile/>
   <tile/>
   <tile/>
   <tile/>
   <tile/>
   <tile/>
   <tile/>
   <tile/>
   <tile/>
   <tile/>
   <tile/>
   <tile/>
   <tile/>
   <tile/>
   <tile/>
   <tile/>
   <tile/>
   <tile/>
   <tile/>
   <tile/>
   <tile/>
   <tile/>
   <tile/>
   <tile/>
   <tile/>
   <tile/>
   <tile/>
   <tile/>
   <tile/>
   <tile/>
   <tile/>
   <tile/>
   <tile/>
   <tile/>
   <tile/>
   <tile/>
   <tile/>
   <tile/>
   <tile/>
   <tile/>
   <tile/>
   <tile/>
   <tile/>
   <tile/>
   <tile/>
   <tile/>
   <tile/>
   <tile/>
   <tile/>
   <tile/>
   <tile/>
   <tile/>
   <tile/>
   <tile/>
   <tile/>
   <tile/>
   <tile/>
   <tile/>
   <tile/>
   <tile/>
   <tile/>
   <tile/>
   <tile/>
   <tile/>
   <tile/>
   <tile/>
   <tile/>
   <tile/>
   <tile/>
   <tile gid="5746"/>
   <tile gid="5747"/>
   <tile gid="5748"/>
   <tile gid="5749"/>
   <tile gid="5750"/>
   <tile gid="5751"/>
   <tile gid="5362"/>
   <tile gid="5363"/>
   <tile gid="5364"/>
   <tile gid="5365"/>
   <tile gid="5366"/>
   <tile gid="5367"/>
   <tile/>
   <tile/>
   <tile/>
   <tile/>
   <tile/>
   <tile/>
   <tile/>
   <tile/>
   <tile/>
   <tile gid="5880"/>
   <tile gid="5881"/>
   <tile gid="5882"/>
   <tile gid="5883"/>
   <tile gid="5884"/>
   <tile gid="5885"/>
   <tile gid="5886"/>
   <tile gid="5887"/>
   <tile gid="5888"/>
   <tile/>
   <tile/>
   <tile/>
   <tile/>
   <tile/>
   <tile/>
   <tile/>
   <tile/>
   <tile/>
   <tile/>
   <tile/>
   <tile/>
   <tile/>
   <tile/>
   <tile/>
   <tile/>
   <tile/>
   <tile/>
   <tile/>
   <tile/>
   <tile/>
   <tile/>
   <tile/>
   <tile/>
   <tile/>
   <tile/>
   <tile/>
   <tile/>
   <tile/>
   <tile/>
   <tile/>
   <tile/>
   <tile/>
   <tile/>
   <tile/>
   <tile/>
   <tile/>
   <tile/>
   <tile/>
   <tile/>
   <tile/>
   <tile/>
   <tile/>
   <tile/>
   <tile/>
   <tile/>
   <tile/>
   <tile/>
   <tile/>
   <tile/>
   <tile/>
   <tile/>
   <tile/>
   <tile/>
   <tile/>
   <tile/>
   <tile/>
   <tile/>
   <tile/>
   <tile/>
   <tile/>
   <tile/>
   <tile/>
   <tile/>
   <tile/>
   <tile/>
   <tile/>
   <tile/>
   <tile/>
   <tile/>
   <tile/>
   <tile/>
   <tile/>
   <tile/>
   <tile/>
   <tile/>
   <tile/>
   <tile/>
   <tile/>
   <tile/>
   <tile/>
   <tile/>
   <tile/>
   <tile/>
   <tile/>
   <tile/>
   <tile/>
   <tile/>
   <tile/>
   <tile/>
   <tile gid="5810"/>
   <tile gid="5811"/>
   <tile gid="5812"/>
   <tile gid="5813"/>
   <tile gid="5814"/>
   <tile gid="5815"/>
   <tile gid="5426"/>
   <tile gid="5427"/>
   <tile gid="5428"/>
   <tile gid="5429"/>
   <tile gid="5430"/>
   <tile gid="5431"/>
   <tile/>
   <tile/>
   <tile/>
   <tile/>
   <tile/>
   <tile/>
   <tile/>
   <tile/>
   <tile/>
   <tile gid="5944"/>
   <tile gid="5945"/>
   <tile gid="5946"/>
   <tile gid="5947"/>
   <tile gid="5948"/>
   <tile gid="5949"/>
   <tile gid="5950"/>
   <tile gid="5951"/>
   <tile gid="5952"/>
   <tile/>
   <tile/>
   <tile/>
   <tile/>
   <tile/>
   <tile/>
   <tile/>
   <tile/>
   <tile/>
   <tile/>
   <tile/>
   <tile/>
   <tile/>
   <tile/>
   <tile/>
   <tile/>
   <tile/>
   <tile/>
   <tile/>
   <tile/>
   <tile/>
   <tile/>
   <tile/>
   <tile/>
   <tile/>
   <tile/>
   <tile/>
   <tile/>
   <tile/>
   <tile/>
   <tile/>
   <tile/>
   <tile/>
   <tile/>
   <tile/>
   <tile/>
   <tile/>
   <tile/>
   <tile/>
   <tile/>
   <tile/>
   <tile/>
   <tile/>
   <tile/>
   <tile/>
   <tile/>
   <tile/>
   <tile/>
   <tile/>
   <tile/>
   <tile/>
   <tile/>
   <tile/>
   <tile/>
   <tile/>
   <tile/>
   <tile/>
   <tile/>
   <tile/>
   <tile/>
   <tile/>
   <tile/>
   <tile/>
   <tile/>
   <tile/>
   <tile/>
   <tile/>
   <tile/>
   <tile/>
   <tile/>
   <tile/>
   <tile/>
   <tile/>
   <tile/>
   <tile/>
   <tile/>
   <tile/>
   <tile/>
   <tile/>
   <tile/>
   <tile/>
   <tile/>
   <tile/>
   <tile/>
   <tile/>
   <tile/>
   <tile/>
   <tile/>
   <tile/>
   <tile/>
   <tile gid="5874"/>
   <tile gid="5875"/>
   <tile gid="5876"/>
   <tile gid="5877"/>
   <tile gid="5878"/>
   <tile gid="5879"/>
   <tile gid="5490"/>
   <tile gid="5491"/>
   <tile gid="5492"/>
   <tile gid="5493"/>
   <tile gid="5494"/>
   <tile gid="5495"/>
   <tile/>
   <tile/>
   <tile/>
   <tile/>
   <tile/>
   <tile/>
   <tile/>
   <tile/>
   <tile/>
   <tile gid="6008"/>
   <tile gid="6009"/>
   <tile gid="6010"/>
   <tile gid="6011"/>
   <tile gid="6012"/>
   <tile gid="6013"/>
   <tile gid="6014"/>
   <tile gid="6015"/>
   <tile gid="6016"/>
   <tile/>
   <tile/>
   <tile/>
   <tile/>
   <tile/>
   <tile/>
   <tile/>
   <tile/>
   <tile/>
   <tile/>
   <tile/>
   <tile/>
   <tile/>
   <tile/>
   <tile/>
   <tile/>
   <tile/>
   <tile/>
   <tile/>
   <tile/>
   <tile/>
   <tile/>
   <tile/>
   <tile/>
   <tile/>
   <tile/>
   <tile/>
   <tile/>
   <tile/>
   <tile/>
   <tile/>
   <tile/>
   <tile/>
   <tile/>
   <tile/>
   <tile/>
   <tile/>
   <tile/>
   <tile/>
   <tile/>
   <tile/>
   <tile/>
   <tile/>
   <tile/>
   <tile/>
   <tile/>
   <tile/>
   <tile/>
   <tile/>
   <tile/>
   <tile/>
   <tile/>
   <tile/>
   <tile/>
   <tile/>
   <tile/>
   <tile/>
   <tile/>
   <tile/>
   <tile/>
   <tile/>
   <tile/>
   <tile/>
   <tile/>
   <tile/>
   <tile/>
   <tile/>
   <tile/>
   <tile/>
   <tile/>
   <tile/>
   <tile/>
   <tile/>
   <tile/>
   <tile/>
   <tile/>
   <tile/>
   <tile/>
   <tile/>
   <tile/>
   <tile/>
   <tile/>
   <tile/>
   <tile/>
   <tile/>
   <tile/>
   <tile/>
   <tile/>
   <tile/>
   <tile/>
   <tile gid="5938"/>
   <tile gid="5939"/>
   <tile gid="5940"/>
   <tile gid="5941"/>
   <tile gid="5942"/>
   <tile gid="5943"/>
   <tile/>
   <tile/>
   <tile/>
   <tile/>
   <tile/>
   <tile/>
   <tile/>
   <tile/>
   <tile/>
   <tile/>
   <tile/>
   <tile/>
   <tile/>
   <tile/>
   <tile/>
   <tile gid="6072"/>
   <tile gid="6073"/>
   <tile gid="6074"/>
   <tile gid="6075"/>
   <tile gid="6076"/>
   <tile gid="6077"/>
   <tile gid="6078"/>
   <tile gid="6079"/>
   <tile gid="6080"/>
   <tile/>
   <tile/>
   <tile/>
   <tile/>
   <tile/>
   <tile/>
   <tile/>
   <tile/>
   <tile/>
   <tile/>
   <tile/>
   <tile/>
   <tile/>
   <tile/>
   <tile/>
   <tile/>
   <tile/>
   <tile/>
   <tile/>
   <tile/>
   <tile/>
   <tile/>
   <tile/>
   <tile/>
   <tile/>
   <tile/>
   <tile/>
   <tile/>
   <tile/>
   <tile/>
   <tile/>
   <tile/>
   <tile/>
   <tile/>
   <tile/>
   <tile/>
   <tile/>
   <tile/>
   <tile/>
   <tile/>
   <tile/>
   <tile/>
   <tile/>
   <tile/>
   <tile/>
   <tile/>
   <tile/>
   <tile/>
   <tile/>
   <tile/>
   <tile/>
   <tile/>
   <tile/>
   <tile/>
   <tile/>
   <tile/>
   <tile/>
   <tile/>
   <tile/>
   <tile/>
   <tile/>
   <tile/>
   <tile/>
   <tile/>
   <tile/>
   <tile/>
   <tile/>
   <tile/>
   <tile/>
   <tile/>
   <tile/>
   <tile/>
   <tile/>
   <tile/>
   <tile/>
   <tile/>
   <tile/>
   <tile/>
   <tile/>
   <tile/>
   <tile/>
   <tile/>
   <tile/>
   <tile/>
   <tile/>
   <tile/>
   <tile/>
   <tile/>
   <tile/>
   <tile/>
   <tile gid="6002"/>
   <tile gid="6003"/>
   <tile gid="6004"/>
   <tile gid="6005"/>
   <tile gid="6006"/>
   <tile gid="6007"/>
   <tile/>
   <tile/>
   <tile/>
   <tile/>
   <tile/>
   <tile/>
   <tile/>
   <tile/>
   <tile/>
   <tile/>
   <tile/>
   <tile/>
   <tile/>
   <tile/>
   <tile/>
   <tile/>
   <tile/>
   <tile/>
   <tile/>
   <tile/>
   <tile/>
   <tile/>
   <tile/>
   <tile/>
   <tile/>
   <tile/>
   <tile/>
   <tile/>
   <tile/>
   <tile/>
   <tile/>
   <tile/>
   <tile/>
   <tile/>
   <tile/>
   <tile/>
   <tile/>
   <tile/>
   <tile/>
   <tile/>
   <tile/>
   <tile/>
   <tile/>
   <tile/>
   <tile/>
   <tile/>
   <tile/>
   <tile/>
   <tile/>
   <tile/>
   <tile/>
   <tile/>
   <tile/>
   <tile/>
   <tile/>
   <tile/>
   <tile/>
   <tile/>
   <tile/>
   <tile/>
   <tile/>
   <tile/>
   <tile/>
   <tile/>
   <tile/>
   <tile/>
   <tile/>
   <tile/>
   <tile/>
   <tile/>
   <tile/>
   <tile/>
   <tile/>
   <tile/>
   <tile/>
   <tile/>
   <tile/>
   <tile/>
   <tile/>
   <tile/>
   <tile/>
   <tile/>
   <tile/>
   <tile/>
   <tile/>
   <tile/>
   <tile/>
   <tile/>
   <tile/>
   <tile/>
   <tile/>
   <tile/>
   <tile/>
   <tile/>
   <tile/>
   <tile/>
   <tile/>
   <tile/>
   <tile/>
   <tile/>
   <tile/>
   <tile/>
   <tile/>
   <tile/>
   <tile/>
   <tile/>
   <tile/>
   <tile/>
   <tile/>
   <tile/>
   <tile/>
   <tile/>
   <tile/>
   <tile/>
   <tile/>
   <tile/>
   <tile/>
   <tile/>
   <tile/>
   <tile/>
   <tile/>
   <tile/>
   <tile/>
   <tile/>
   <tile/>
   <tile/>
   <tile/>
   <tile/>
   <tile/>
   <tile/>
   <tile/>
   <tile/>
   <tile/>
   <tile/>
   <tile/>
   <tile/>
   <tile/>
   <tile/>
   <tile/>
   <tile/>
   <tile/>
   <tile/>
   <tile/>
   <tile/>
   <tile/>
   <tile/>
   <tile/>
   <tile/>
   <tile/>
   <tile/>
   <tile/>
   <tile/>
   <tile/>
   <tile/>
   <tile/>
   <tile/>
   <tile/>
   <tile/>
   <tile/>
   <tile/>
   <tile/>
   <tile/>
   <tile/>
   <tile/>
   <tile/>
   <tile/>
   <tile/>
   <tile/>
   <tile/>
   <tile/>
   <tile/>
   <tile/>
   <tile/>
   <tile/>
   <tile/>
   <tile/>
   <tile/>
   <tile/>
   <tile/>
   <tile/>
   <tile/>
   <tile/>
   <tile/>
   <tile/>
   <tile/>
   <tile/>
   <tile/>
   <tile/>
   <tile/>
   <tile/>
   <tile/>
   <tile/>
   <tile/>
   <tile/>
   <tile/>
   <tile/>
   <tile/>
   <tile/>
   <tile/>
   <tile/>
   <tile/>
   <tile/>
   <tile/>
   <tile/>
   <tile/>
   <tile/>
   <tile/>
   <tile/>
   <tile/>
   <tile/>
   <tile/>
   <tile/>
   <tile/>
   <tile/>
   <tile/>
   <tile/>
   <tile/>
   <tile/>
   <tile/>
   <tile/>
   <tile/>
   <tile/>
   <tile/>
   <tile/>
   <tile/>
   <tile/>
   <tile/>
   <tile/>
   <tile/>
   <tile/>
   <tile/>
   <tile/>
   <tile/>
   <tile/>
   <tile/>
   <tile/>
   <tile/>
   <tile/>
   <tile/>
   <tile/>
   <tile/>
   <tile/>
   <tile/>
   <tile/>
   <tile/>
   <tile/>
   <tile/>
   <tile/>
   <tile/>
   <tile/>
   <tile/>
   <tile/>
   <tile/>
   <tile/>
   <tile/>
   <tile/>
   <tile/>
   <tile/>
   <tile/>
   <tile/>
   <tile/>
   <tile/>
   <tile/>
   <tile/>
   <tile/>
   <tile/>
   <tile/>
   <tile/>
   <tile/>
   <tile/>
   <tile/>
   <tile/>
   <tile/>
   <tile/>
   <tile/>
   <tile/>
   <tile/>
   <tile/>
   <tile/>
   <tile/>
   <tile/>
   <tile/>
   <tile/>
   <tile/>
   <tile/>
   <tile/>
   <tile/>
   <tile/>
   <tile/>
   <tile/>
   <tile/>
   <tile/>
   <tile/>
   <tile/>
   <tile/>
   <tile/>
   <tile/>
   <tile/>
   <tile/>
   <tile/>
   <tile/>
   <tile/>
   <tile/>
   <tile/>
   <tile/>
   <tile/>
   <tile/>
   <tile/>
   <tile/>
   <tile/>
   <tile/>
   <tile/>
   <tile/>
   <tile/>
   <tile/>
   <tile/>
   <tile/>
   <tile/>
   <tile/>
   <tile/>
   <tile/>
   <tile/>
   <tile/>
   <tile/>
   <tile/>
   <tile/>
   <tile/>
   <tile/>
   <tile/>
   <tile/>
   <tile/>
   <tile/>
   <tile/>
   <tile/>
   <tile/>
   <tile/>
   <tile/>
   <tile/>
   <tile/>
   <tile/>
   <tile/>
   <tile/>
   <tile/>
   <tile/>
   <tile/>
   <tile/>
   <tile/>
   <tile/>
   <tile/>
   <tile/>
   <tile/>
   <tile/>
   <tile/>
   <tile/>
   <tile/>
   <tile/>
   <tile/>
   <tile/>
   <tile/>
   <tile/>
   <tile/>
   <tile/>
   <tile/>
   <tile/>
   <tile/>
   <tile/>
   <tile/>
   <tile/>
   <tile/>
   <tile/>
   <tile/>
   <tile/>
   <tile/>
   <tile/>
   <tile/>
   <tile/>
   <tile/>
   <tile/>
   <tile/>
   <tile/>
   <tile/>
   <tile/>
   <tile/>
   <tile/>
   <tile/>
   <tile/>
   <tile/>
   <tile/>
   <tile/>
   <tile/>
   <tile/>
   <tile/>
   <tile/>
   <tile/>
   <tile/>
   <tile/>
   <tile/>
   <tile/>
   <tile/>
   <tile/>
   <tile/>
   <tile/>
   <tile/>
   <tile/>
   <tile/>
   <tile/>
   <tile/>
   <tile/>
   <tile/>
   <tile/>
   <tile/>
   <tile/>
   <tile/>
   <tile/>
   <tile/>
   <tile/>
   <tile/>
   <tile/>
   <tile/>
   <tile/>
   <tile/>
   <tile/>
   <tile/>
   <tile/>
   <tile/>
   <tile/>
   <tile/>
   <tile/>
   <tile/>
   <tile/>
   <tile/>
   <tile/>
   <tile/>
   <tile/>
   <tile/>
   <tile/>
   <tile/>
   <tile/>
   <tile/>
   <tile/>
   <tile/>
   <tile/>
   <tile/>
   <tile/>
   <tile/>
   <tile/>
   <tile/>
   <tile/>
   <tile/>
   <tile/>
   <tile/>
   <tile/>
   <tile/>
   <tile/>
   <tile/>
   <tile/>
   <tile/>
   <tile/>
   <tile/>
   <tile/>
   <tile/>
   <tile/>
   <tile/>
   <tile/>
   <tile/>
   <tile/>
   <tile/>
   <tile/>
   <tile/>
   <tile/>
   <tile/>
   <tile/>
   <tile/>
   <tile/>
   <tile/>
   <tile/>
   <tile/>
   <tile/>
   <tile/>
   <tile/>
   <tile/>
   <tile/>
   <tile/>
   <tile/>
   <tile/>
   <tile/>
   <tile/>
   <tile/>
   <tile/>
   <tile/>
   <tile/>
   <tile/>
   <tile/>
   <tile/>
   <tile/>
   <tile/>
   <tile/>
   <tile/>
   <tile/>
   <tile/>
   <tile/>
   <tile/>
   <tile/>
   <tile/>
   <tile/>
   <tile/>
   <tile/>
   <tile/>
   <tile/>
   <tile/>
   <tile/>
   <tile/>
   <tile/>
   <tile/>
   <tile/>
   <tile/>
   <tile/>
   <tile/>
   <tile/>
   <tile/>
   <tile/>
   <tile/>
   <tile/>
   <tile/>
   <tile/>
   <tile/>
   <tile/>
   <tile/>
   <tile/>
   <tile/>
   <tile/>
   <tile/>
   <tile/>
   <tile/>
   <tile/>
   <tile/>
   <tile/>
   <tile/>
   <tile/>
   <tile/>
   <tile/>
   <tile/>
   <tile/>
   <tile/>
   <tile/>
   <tile/>
   <tile/>
   <tile/>
   <tile/>
   <tile/>
   <tile/>
   <tile/>
   <tile/>
   <tile/>
   <tile/>
   <tile/>
   <tile/>
   <tile/>
   <tile/>
   <tile/>
   <tile/>
   <tile/>
   <tile/>
   <tile/>
   <tile/>
   <tile/>
   <tile/>
   <tile/>
   <tile/>
   <tile/>
   <tile/>
   <tile/>
   <tile/>
   <tile/>
   <tile/>
   <tile/>
   <tile/>
   <tile/>
   <tile/>
   <tile/>
   <tile/>
   <tile/>
   <tile/>
   <tile/>
   <tile/>
   <tile/>
   <tile/>
   <tile/>
   <tile/>
   <tile/>
   <tile/>
   <tile/>
   <tile/>
   <tile/>
   <tile/>
   <tile/>
   <tile/>
   <tile/>
   <tile/>
   <tile/>
   <tile/>
   <tile/>
   <tile/>
   <tile/>
   <tile/>
   <tile/>
   <tile/>
   <tile/>
   <tile/>
   <tile/>
   <tile/>
   <tile/>
   <tile/>
   <tile/>
   <tile/>
   <tile/>
   <tile/>
   <tile/>
   <tile/>
   <tile/>
   <tile/>
   <tile/>
   <tile/>
   <tile/>
   <tile/>
   <tile/>
   <tile/>
   <tile/>
   <tile/>
   <tile/>
   <tile/>
   <tile/>
   <tile/>
   <tile/>
   <tile/>
   <tile/>
   <tile/>
   <tile/>
   <tile/>
   <tile/>
   <tile/>
   <tile/>
   <tile/>
   <tile/>
   <tile/>
   <tile/>
   <tile/>
   <tile/>
   <tile/>
   <tile/>
   <tile/>
   <tile/>
   <tile/>
   <tile/>
   <tile/>
   <tile/>
   <tile/>
   <tile/>
   <tile/>
   <tile/>
   <tile/>
   <tile/>
   <tile/>
   <tile/>
   <tile/>
   <tile/>
   <tile/>
   <tile/>
   <tile/>
   <tile/>
   <tile/>
   <tile/>
   <tile/>
   <tile/>
   <tile/>
   <tile/>
   <tile/>
   <tile/>
   <tile/>
   <tile/>
   <tile/>
   <tile/>
   <tile/>
   <tile/>
   <tile/>
   <tile/>
   <tile/>
   <tile/>
   <tile/>
   <tile/>
   <tile/>
   <tile/>
   <tile/>
   <tile/>
   <tile/>
   <tile/>
   <tile/>
   <tile/>
   <tile/>
   <tile/>
   <tile/>
   <tile/>
   <tile/>
   <tile/>
   <tile/>
   <tile/>
   <tile/>
   <tile/>
   <tile/>
   <tile/>
   <tile/>
   <tile/>
   <tile/>
   <tile/>
   <tile/>
   <tile/>
   <tile/>
   <tile/>
   <tile/>
   <tile/>
   <tile/>
   <tile/>
   <tile/>
   <tile/>
   <tile/>
   <tile/>
   <tile/>
   <tile/>
   <tile/>
   <tile/>
   <tile/>
   <tile/>
   <tile/>
   <tile/>
   <tile/>
   <tile/>
   <tile/>
   <tile/>
   <tile/>
   <tile/>
   <tile/>
   <tile/>
   <tile/>
   <tile/>
   <tile/>
   <tile/>
   <tile/>
   <tile/>
   <tile/>
   <tile/>
   <tile/>
   <tile/>
   <tile/>
   <tile/>
   <tile/>
   <tile/>
   <tile/>
   <tile/>
   <tile/>
   <tile/>
   <tile/>
   <tile/>
   <tile/>
   <tile/>
   <tile/>
   <tile/>
   <tile/>
   <tile/>
   <tile/>
   <tile/>
   <tile/>
   <tile/>
   <tile/>
   <tile/>
   <tile/>
   <tile/>
   <tile/>
   <tile/>
   <tile/>
   <tile/>
   <tile/>
   <tile/>
   <tile/>
   <tile/>
   <tile/>
   <tile/>
   <tile/>
   <tile/>
   <tile/>
   <tile/>
   <tile/>
   <tile/>
   <tile/>
   <tile/>
   <tile/>
   <tile/>
   <tile/>
   <tile/>
   <tile/>
   <tile/>
   <tile/>
   <tile/>
   <tile/>
   <tile/>
   <tile/>
   <tile/>
   <tile/>
   <tile/>
   <tile/>
   <tile/>
   <tile/>
   <tile/>
   <tile/>
   <tile/>
   <tile/>
   <tile/>
   <tile/>
   <tile/>
   <tile/>
   <tile/>
   <tile/>
   <tile/>
   <tile/>
   <tile/>
   <tile/>
   <tile/>
   <tile/>
   <tile/>
   <tile/>
   <tile/>
   <tile/>
   <tile/>
   <tile/>
   <tile/>
   <tile/>
   <tile/>
   <tile/>
   <tile/>
   <tile/>
   <tile/>
   <tile/>
   <tile/>
   <tile/>
   <tile/>
   <tile/>
   <tile/>
   <tile/>
   <tile/>
   <tile/>
   <tile/>
   <tile/>
   <tile/>
   <tile/>
   <tile/>
   <tile/>
   <tile/>
   <tile/>
   <tile/>
   <tile/>
   <tile/>
   <tile/>
   <tile/>
   <tile/>
   <tile/>
   <tile/>
   <tile/>
   <tile/>
   <tile/>
   <tile/>
   <tile/>
   <tile/>
   <tile/>
   <tile/>
   <tile/>
   <tile/>
   <tile/>
   <tile/>
   <tile/>
   <tile/>
   <tile/>
   <tile/>
   <tile/>
   <tile/>
   <tile/>
   <tile/>
   <tile/>
   <tile/>
   <tile/>
   <tile/>
   <tile/>
   <tile/>
   <tile/>
   <tile/>
   <tile/>
   <tile/>
   <tile/>
   <tile/>
   <tile/>
   <tile/>
   <tile/>
   <tile/>
   <tile/>
   <tile/>
   <tile/>
   <tile/>
   <tile/>
   <tile/>
   <tile/>
   <tile/>
   <tile/>
   <tile/>
   <tile/>
   <tile/>
   <tile/>
   <tile/>
   <tile/>
   <tile/>
   <tile/>
   <tile/>
   <tile/>
   <tile/>
   <tile/>
   <tile/>
   <tile/>
   <tile/>
   <tile/>
   <tile/>
   <tile/>
   <tile/>
   <tile/>
   <tile/>
   <tile/>
   <tile/>
   <tile/>
   <tile/>
   <tile/>
   <tile/>
   <tile/>
   <tile/>
   <tile/>
   <tile/>
   <tile/>
   <tile/>
   <tile/>
   <tile/>
   <tile/>
   <tile/>
   <tile/>
   <tile/>
   <tile/>
   <tile/>
   <tile/>
   <tile/>
   <tile/>
   <tile/>
   <tile/>
   <tile/>
   <tile/>
   <tile/>
   <tile/>
   <tile/>
   <tile/>
   <tile/>
   <tile/>
   <tile/>
   <tile/>
   <tile/>
   <tile/>
   <tile/>
   <tile/>
   <tile/>
   <tile/>
   <tile/>
   <tile/>
   <tile/>
   <tile/>
   <tile/>
   <tile/>
   <tile/>
   <tile/>
   <tile/>
   <tile/>
   <tile/>
   <tile/>
   <tile/>
   <tile/>
   <tile/>
   <tile/>
   <tile/>
   <tile/>
   <tile/>
   <tile/>
   <tile/>
   <tile/>
   <tile/>
   <tile/>
   <tile/>
   <tile/>
   <tile/>
   <tile/>
   <tile/>
   <tile/>
   <tile/>
   <tile/>
   <tile/>
   <tile/>
   <tile/>
   <tile/>
   <tile/>
   <tile/>
   <tile/>
   <tile/>
   <tile/>
   <tile/>
   <tile/>
   <tile/>
   <tile/>
   <tile/>
   <tile/>
   <tile/>
   <tile/>
   <tile/>
   <tile/>
   <tile/>
   <tile/>
   <tile/>
   <tile/>
   <tile/>
   <tile/>
   <tile/>
   <tile/>
   <tile/>
   <tile/>
   <tile/>
   <tile/>
   <tile/>
   <tile/>
   <tile/>
   <tile/>
   <tile/>
   <tile/>
   <tile/>
   <tile/>
   <tile/>
   <tile/>
   <tile/>
   <tile/>
   <tile/>
   <tile/>
   <tile/>
   <tile/>
   <tile/>
   <tile/>
   <tile/>
   <tile/>
   <tile/>
   <tile/>
   <tile/>
   <tile/>
   <tile/>
   <tile/>
   <tile/>
   <tile/>
   <tile/>
   <tile/>
   <tile/>
   <tile/>
   <tile/>
   <tile/>
   <tile/>
   <tile/>
   <tile/>
   <tile/>
   <tile/>
   <tile/>
   <tile/>
   <tile/>
   <tile/>
   <tile/>
   <tile/>
   <tile/>
   <tile/>
   <tile/>
   <tile/>
   <tile/>
   <tile/>
   <tile/>
   <tile/>
   <tile/>
   <tile/>
   <tile/>
   <tile/>
   <tile/>
   <tile/>
   <tile/>
   <tile/>
   <tile/>
   <tile/>
   <tile/>
   <tile/>
   <tile/>
   <tile/>
   <tile/>
   <tile/>
   <tile/>
   <tile/>
   <tile/>
   <tile/>
   <tile/>
   <tile/>
   <tile/>
   <tile/>
   <tile/>
   <tile/>
   <tile/>
   <tile/>
   <tile/>
   <tile/>
   <tile/>
   <tile/>
   <tile/>
   <tile/>
   <tile/>
   <tile/>
   <tile/>
   <tile/>
   <tile/>
   <tile/>
   <tile/>
   <tile/>
   <tile/>
   <tile/>
   <tile/>
   <tile/>
   <tile/>
   <tile/>
   <tile/>
   <tile/>
   <tile/>
   <tile/>
   <tile/>
   <tile/>
   <tile/>
   <tile/>
   <tile/>
   <tile/>
   <tile/>
   <tile/>
   <tile/>
   <tile/>
   <tile/>
   <tile/>
   <tile/>
   <tile/>
   <tile/>
   <tile/>
   <tile/>
   <tile/>
   <tile/>
   <tile/>
   <tile/>
   <tile/>
   <tile/>
   <tile/>
   <tile/>
   <tile/>
   <tile/>
   <tile/>
   <tile/>
   <tile/>
   <tile/>
   <tile/>
   <tile/>
   <tile/>
   <tile/>
   <tile/>
   <tile/>
   <tile/>
   <tile/>
   <tile/>
   <tile/>
   <tile/>
   <tile/>
   <tile/>
   <tile/>
   <tile/>
   <tile/>
   <tile/>
   <tile/>
   <tile/>
   <tile/>
   <tile/>
   <tile/>
   <tile/>
   <tile/>
   <tile/>
   <tile/>
   <tile/>
   <tile/>
   <tile/>
   <tile/>
   <tile/>
   <tile/>
   <tile/>
   <tile/>
   <tile/>
   <tile/>
   <tile/>
   <tile/>
   <tile/>
   <tile/>
   <tile/>
   <tile/>
   <tile/>
   <tile/>
   <tile/>
   <tile/>
   <tile/>
   <tile/>
   <tile/>
   <tile/>
   <tile/>
   <tile/>
   <tile/>
   <tile/>
   <tile/>
   <tile/>
   <tile/>
   <tile/>
   <tile/>
   <tile/>
   <tile/>
   <tile/>
   <tile/>
   <tile/>
   <tile/>
   <tile/>
   <tile/>
   <tile/>
   <tile/>
   <tile/>
   <tile/>
   <tile/>
   <tile/>
   <tile/>
   <tile/>
   <tile/>
   <tile/>
   <tile/>
   <tile/>
   <tile/>
   <tile/>
   <tile/>
   <tile/>
   <tile/>
   <tile/>
   <tile/>
   <tile/>
   <tile/>
   <tile/>
   <tile/>
   <tile/>
   <tile/>
   <tile/>
   <tile/>
   <tile/>
   <tile/>
   <tile/>
   <tile/>
   <tile/>
   <tile/>
   <tile/>
   <tile/>
   <tile/>
   <tile/>
   <tile/>
   <tile/>
   <tile/>
   <tile/>
   <tile/>
   <tile/>
   <tile/>
   <tile/>
   <tile/>
   <tile/>
   <tile/>
   <tile/>
   <tile/>
   <tile/>
   <tile/>
   <tile/>
   <tile/>
   <tile/>
   <tile/>
   <tile/>
   <tile/>
   <tile/>
   <tile/>
   <tile/>
   <tile/>
   <tile/>
   <tile/>
   <tile/>
   <tile/>
   <tile/>
   <tile/>
   <tile/>
   <tile/>
   <tile/>
   <tile/>
   <tile/>
   <tile/>
   <tile/>
   <tile/>
   <tile/>
   <tile/>
   <tile/>
   <tile/>
   <tile/>
   <tile/>
   <tile/>
   <tile/>
   <tile/>
   <tile/>
   <tile/>
   <tile/>
   <tile/>
   <tile/>
   <tile/>
   <tile/>
   <tile/>
   <tile/>
   <tile/>
   <tile/>
   <tile/>
   <tile/>
   <tile/>
   <tile/>
   <tile/>
   <tile/>
   <tile/>
   <tile/>
   <tile/>
   <tile/>
   <tile/>
   <tile/>
   <tile/>
   <tile/>
   <tile/>
   <tile/>
   <tile/>
   <tile/>
   <tile/>
   <tile/>
   <tile/>
   <tile/>
   <tile/>
   <tile/>
   <tile/>
   <tile/>
   <tile/>
   <tile/>
   <tile/>
   <tile/>
   <tile/>
   <tile/>
   <tile/>
   <tile/>
   <tile/>
   <tile/>
   <tile/>
   <tile/>
   <tile/>
   <tile/>
   <tile/>
   <tile/>
   <tile/>
   <tile/>
   <tile/>
   <tile/>
   <tile/>
   <tile/>
   <tile/>
   <tile/>
   <tile/>
   <tile/>
   <tile/>
   <tile/>
   <tile/>
   <tile/>
   <tile/>
   <tile/>
   <tile/>
   <tile/>
   <tile/>
   <tile/>
   <tile/>
   <tile/>
   <tile/>
   <tile/>
   <tile/>
   <tile/>
   <tile/>
   <tile/>
   <tile/>
   <tile/>
   <tile/>
   <tile/>
   <tile/>
   <tile/>
   <tile/>
   <tile/>
   <tile/>
   <tile/>
   <tile/>
   <tile/>
   <tile/>
   <tile/>
   <tile/>
   <tile/>
   <tile/>
   <tile/>
   <tile/>
   <tile/>
   <tile/>
   <tile/>
   <tile/>
   <tile/>
   <tile/>
   <tile/>
   <tile/>
   <tile/>
   <tile/>
   <tile/>
   <tile/>
   <tile/>
   <tile/>
   <tile/>
   <tile/>
   <tile/>
   <tile/>
   <tile/>
   <tile/>
   <tile/>
   <tile/>
   <tile/>
   <tile/>
   <tile/>
   <tile/>
   <tile/>
   <tile/>
   <tile/>
   <tile/>
   <tile/>
   <tile/>
   <tile/>
   <tile/>
   <tile/>
   <tile/>
   <tile/>
   <tile/>
   <tile/>
   <tile/>
   <tile/>
   <tile/>
   <tile/>
   <tile/>
   <tile/>
   <tile/>
   <tile/>
   <tile/>
   <tile/>
   <tile/>
   <tile/>
   <tile/>
   <tile/>
   <tile/>
   <tile/>
   <tile/>
   <tile/>
   <tile/>
   <tile/>
   <tile/>
   <tile/>
   <tile/>
   <tile/>
   <tile/>
   <tile/>
   <tile/>
   <tile/>
   <tile/>
   <tile/>
   <tile/>
   <tile/>
   <tile/>
   <tile/>
   <tile/>
   <tile/>
   <tile/>
   <tile/>
   <tile/>
   <tile/>
   <tile/>
   <tile/>
   <tile/>
   <tile/>
   <tile/>
   <tile/>
   <tile/>
   <tile/>
   <tile/>
   <tile/>
   <tile/>
   <tile/>
   <tile/>
   <tile/>
   <tile/>
   <tile/>
   <tile/>
   <tile/>
   <tile/>
   <tile/>
   <tile/>
   <tile/>
   <tile/>
   <tile/>
   <tile/>
   <tile/>
   <tile/>
   <tile/>
   <tile/>
   <tile/>
   <tile/>
   <tile/>
   <tile/>
   <tile/>
   <tile/>
   <tile/>
   <tile/>
   <tile/>
   <tile/>
   <tile/>
   <tile/>
   <tile/>
   <tile/>
   <tile/>
   <tile/>
   <tile/>
   <tile/>
   <tile/>
   <tile/>
   <tile/>
   <tile/>
   <tile/>
   <tile/>
   <tile/>
   <tile/>
   <tile/>
   <tile/>
   <tile/>
   <tile/>
   <tile/>
   <tile/>
   <tile/>
   <tile/>
   <tile/>
   <tile/>
   <tile/>
   <tile/>
   <tile/>
  </data>
 </layer>
</map>
