<?xml version="1.0" encoding="UTF-8"?>
<map version="1.10" tiledversion="1.11.2" orientation="orthogonal" renderorder="right-down" width="120" height="90" tilewidth="16" tileheight="16" infinite="0" nextlayerid="5" nextobjectid="1">
 <tileset firstgid="1" source="tileset-cueva-azul.tsx"/>
 <layer id="4" name="suelo" width="120" height="90">
  <data>
   <tile/>
   <tile/>
   <tile/>
   <tile/>
   <tile/>
   <tile/>
   <tile/>
   <tile/>
   <tile/>
   <tile/>
   <tile/>
   <tile/>
   <tile/>
   <tile/>
   <tile/>
   <tile/>
   <tile/>
   <tile/>
   <tile/>
   <tile/>
   <tile/>
   <tile/>
   <tile/>
   <tile/>
   <tile/>
   <tile/>
   <tile/>
   <tile/>
   <tile/>
   <tile/>
   <tile/>
   <tile/>
   <tile/>
   <tile/>
   <tile/>
   <tile/>
   <tile/>
   <tile/>
   <tile/>
   <tile/>
   <tile/>
   <tile/>
   <tile/>
   <tile/>
   <tile/>
   <tile/>
   <tile/>
   <tile/>
   <tile/>
   <tile/>
   <tile/>
   <tile/>
   <tile/>
   <tile/>
   <tile/>
   <tile/>
   <tile/>
   <tile/>
   <tile/>
   <tile/>
   <tile/>
   <tile/>
   <tile/>
   <tile/>
   <tile/>
   <tile/>
   <tile/>
   <tile/>
   <tile/>
   <tile/>
   <tile/>
   <tile/>
   <tile/>
   <tile/>
   <tile/>
   <tile/>
   <tile/>
   <tile/>
   <tile/>
   <tile/>
   <tile/>
   <tile/>
   <tile/>
   <tile/>
   <tile/>
   <tile/>
   <tile/>
   <tile/>
   <tile/>
   <tile/>
   <tile/>
   <tile/>
   <tile/>
   <tile/>
   <tile/>
   <tile/>
   <tile/>
   <tile/>
   <tile/>
   <tile/>
   <tile/>
   <tile/>
   <tile/>
   <tile/>
   <tile/>
   <tile/>
   <tile/>
   <tile/>
   <tile/>
   <tile/>
   <tile/>
   <tile/>
   <tile/>
   <tile/>
   <tile/>
   <tile/>
   <tile/>
   <tile/>
   <tile/>
   <tile/>
   <tile/>
   <tile/>
   <tile/>
   <tile/>
   <tile/>
   <tile/>
   <tile/>
   <tile/>
   <tile/>
   <tile/>
   <tile/>
   <tile/>
   <tile/>
   <tile/>
   <tile/>
   <tile/>
   <tile/>
   <tile/>
   <tile/>
   <tile/>
   <tile/>
   <tile/>
   <tile/>
   <tile/>
   <tile/>
   <tile/>
   <tile/>
   <tile/>
   <tile/>
   <tile/>
   <tile/>
   <tile/>
   <tile/>
   <tile/>
   <tile/>
   <tile/>
   <tile/>
   <tile/>
   <tile/>
   <tile/>
   <tile/>
   <tile/>
   <tile/>
   <tile/>
   <tile/>
   <tile/>
   <tile/>
   <tile/>
   <tile/>
   <tile/>
   <tile/>
   <tile/>
   <tile/>
   <tile/>
   <tile/>
   <tile/>
   <tile/>
   <tile/>
   <tile/>
   <tile/>
   <tile/>
   <tile/>
   <tile/>
   <tile/>
   <tile/>
   <tile/>
   <tile/>
   <tile/>
   <tile/>
   <tile/>
   <tile/>
   <tile/>
   <tile/>
   <tile/>
   <tile/>
   <tile/>
   <tile/>
   <tile/>
   <tile/>
   <tile/>
   <tile/>
   <tile/>
   <tile/>
   <tile/>
   <tile/>
   <tile/>
   <tile/>
   <tile/>
   <tile/>
   <tile/>
   <tile/>
   <tile/>
   <tile/>
   <tile/>
   <tile/>
   <tile/>
   <tile/>
   <tile/>
   <tile/>
   <tile/>
   <tile/>
   <tile/>
   <tile/>
   <tile/>
   <tile/>
   <tile/>
   <tile/>
   <tile/>
   <tile/>
   <tile/>
   <tile/>
   <tile/>
   <tile/>
   <tile/>
   <tile/>
   <tile/>
   <tile/>
   <tile/>
   <tile/>
   <tile/>
   <tile/>
   <tile/>
   <tile/>
   <tile/>
   <tile/>
   <tile/>
   <tile/>
   <tile/>
   <tile/>
   <tile/>
   <tile/>
   <tile/>
   <tile/>
   <tile/>
   <tile/>
   <tile/>
   <tile/>
   <tile/>
   <tile/>
   <tile/>
   <tile/>
   <tile/>
   <tile/>
   <tile/>
   <tile/>
   <tile/>
   <tile/>
   <tile/>
   <tile/>
   <tile/>
   <tile/>
   <tile/>
   <tile/>
   <tile/>
   <tile/>
   <tile/>
   <tile/>
   <tile/>
   <tile/>
   <tile/>
   <tile/>
   <tile/>
   <tile/>
   <tile/>
   <tile/>
   <tile/>
   <tile/>
   <tile/>
   <tile/>
   <tile/>
   <tile/>
   <tile/>
   <tile/>
   <tile/>
   <tile/>
   <tile/>
   <tile/>
   <tile/>
   <tile/>
   <tile/>
   <tile/>
   <tile/>
   <tile/>
   <tile/>
   <tile/>
   <tile/>
   <tile/>
   <tile/>
   <tile/>
   <tile/>
   <tile/>
   <tile/>
   <tile/>
   <tile/>
   <tile/>
   <tile/>
   <tile/>
   <tile/>
   <tile/>
   <tile/>
   <tile/>
   <tile/>
   <tile/>
   <tile/>
   <tile/>
   <tile/>
   <tile/>
   <tile/>
   <tile/>
   <tile/>
   <tile/>
   <tile/>
   <tile/>
   <tile/>
   <tile/>
   <tile/>
   <tile/>
   <tile/>
   <tile/>
   <tile/>
   <tile/>
   <tile/>
   <tile/>
   <tile/>
   <tile/>
   <tile/>
   <tile/>
   <tile/>
   <tile/>
   <tile/>
   <tile/>
   <tile/>
   <tile/>
   <tile/>
   <tile/>
   <tile/>
   <tile/>
   <tile/>
   <tile/>
   <tile/>
   <tile/>
   <tile/>
   <tile/>
   <tile/>
   <tile/>
   <tile/>
   <tile/>
   <tile/>
   <tile/>
   <tile/>
   <tile/>
   <tile/>
   <tile/>
   <tile/>
   <tile/>
   <tile/>
   <tile/>
   <tile/>
   <tile/>
   <tile/>
   <tile/>
   <tile/>
   <tile/>
   <tile/>
   <tile/>
   <tile/>
   <tile/>
   <tile/>
   <tile/>
   <tile/>
   <tile/>
   <tile/>
   <tile/>
   <tile/>
   <tile/>
   <tile/>
   <tile/>
   <tile/>
   <tile/>
   <tile/>
   <tile/>
   <tile/>
   <tile/>
   <tile/>
   <tile/>
   <tile/>
   <tile/>
   <tile/>
   <tile/>
   <tile/>
   <tile/>
   <tile/>
   <tile/>
   <tile/>
   <tile/>
   <tile/>
   <tile/>
   <tile/>
   <tile/>
   <tile/>
   <tile/>
   <tile/>
   <tile/>
   <tile/>
   <tile/>
   <tile/>
   <tile/>
   <tile/>
   <tile/>
   <tile/>
   <tile/>
   <tile/>
   <tile/>
   <tile/>
   <tile/>
   <tile/>
   <tile/>
   <tile/>
   <tile/>
   <tile/>
   <tile/>
   <tile/>
   <tile/>
   <tile/>
   <tile/>
   <tile/>
   <tile/>
   <tile/>
   <tile/>
   <tile/>
   <tile/>
   <tile/>
   <tile/>
   <tile/>
   <tile/>
   <tile/>
   <tile/>
   <tile/>
   <tile/>
   <tile/>
   <tile/>
   <tile/>
   <tile/>
   <tile/>
   <tile/>
   <tile/>
   <tile/>
   <tile/>
   <tile/>
   <tile/>
   <tile/>
   <tile/>
   <tile/>
   <tile/>
   <tile/>
   <tile/>
   <tile/>
   <tile/>
   <tile/>
   <tile/>
   <tile/>
   <tile/>
   <tile/>
   <tile/>
   <tile/>
   <tile/>
   <tile/>
   <tile/>
   <tile/>
   <tile/>
   <tile/>
   <tile/>
   <tile/>
   <tile/>
   <tile/>
   <tile/>
   <tile/>
   <tile/>
   <tile/>
   <tile/>
   <tile/>
   <tile/>
   <tile/>
   <tile/>
   <tile/>
   <tile/>
   <tile/>
   <tile/>
   <tile/>
   <tile/>
   <tile/>
   <tile/>
   <tile/>
   <tile/>
   <tile/>
   <tile/>
   <tile/>
   <tile/>
   <tile/>
   <tile/>
   <tile/>
   <tile/>
   <tile/>
   <tile/>
   <tile/>
   <tile/>
   <tile/>
   <tile/>
   <tile/>
   <tile/>
   <tile/>
   <tile/>
   <tile/>
   <tile/>
   <tile/>
   <tile/>
   <tile/>
   <tile/>
   <tile/>
   <tile/>
   <tile/>
   <tile/>
   <tile/>
   <tile/>
   <tile/>
   <tile/>
   <tile/>
   <tile/>
   <tile/>
   <tile/>
   <tile/>
   <tile/>
   <tile/>
   <tile/>
   <tile/>
   <tile/>
   <tile/>
   <tile/>
   <tile/>
   <tile/>
   <tile/>
   <tile/>
   <tile/>
   <tile/>
   <tile/>
   <tile/>
   <tile/>
   <tile/>
   <tile/>
   <tile/>
   <tile/>
   <tile/>
   <tile/>
   <tile/>
   <tile/>
   <tile/>
   <tile/>
   <tile/>
   <tile/>
   <tile/>
   <tile/>
   <tile/>
   <tile/>
   <tile/>
   <tile/>
   <tile/>
   <tile/>
   <tile/>
   <tile/>
   <tile/>
   <tile/>
   <tile/>
   <tile/>
   <tile/>
   <tile/>
   <tile/>
   <tile/>
   <tile/>
   <tile/>
   <tile/>
   <tile/>
   <tile/>
   <tile/>
   <tile/>
   <tile/>
   <tile/>
   <tile/>
   <tile/>
   <tile/>
   <tile/>
   <tile/>
   <tile/>
   <tile/>
   <tile/>
   <tile/>
   <tile/>
   <tile/>
   <tile/>
   <tile/>
   <tile/>
   <tile/>
   <tile/>
   <tile/>
   <tile/>
   <tile/>
   <tile/>
   <tile/>
   <tile/>
   <tile/>
   <tile/>
   <tile/>
   <tile/>
   <tile/>
   <tile/>
   <tile/>
   <tile/>
   <tile/>
   <tile/>
   <tile/>
   <tile/>
   <tile/>
   <tile/>
   <tile/>
   <tile/>
   <tile/>
   <tile/>
   <tile/>
   <tile/>
   <tile/>
   <tile/>
   <tile/>
   <tile/>
   <tile/>
   <tile/>
   <tile/>
   <tile/>
   <tile/>
   <tile/>
   <tile/>
   <tile/>
   <tile/>
   <tile/>
   <tile/>
   <tile/>
   <tile/>
   <tile/>
   <tile/>
   <tile/>
   <tile/>
   <tile/>
   <tile/>
   <tile/>
   <tile/>
   <tile/>
   <tile/>
   <tile/>
   <tile/>
   <tile/>
   <tile/>
   <tile/>
   <tile/>
   <tile/>
   <tile/>
   <tile/>
   <tile/>
   <tile/>
   <tile/>
   <tile/>
   <tile/>
   <tile/>
   <tile/>
   <tile/>
   <tile/>
   <tile/>
   <tile/>
   <tile/>
   <tile/>
   <tile/>
   <tile/>
   <tile/>
   <tile/>
   <tile/>
   <tile/>
   <tile/>
   <tile/>
   <tile/>
   <tile/>
   <tile/>
   <tile/>
   <tile/>
   <tile/>
   <tile/>
   <tile/>
   <tile/>
   <tile/>
   <tile/>
   <tile/>
   <tile/>
   <tile/>
   <tile/>
   <tile/>
   <tile/>
   <tile/>
   <tile/>
   <tile/>
   <tile/>
   <tile/>
   <tile/>
   <tile/>
   <tile/>
   <tile/>
   <tile/>
   <tile/>
   <tile/>
   <tile/>
   <tile/>
   <tile/>
   <tile/>
   <tile/>
   <tile/>
   <tile/>
   <tile/>
   <tile/>
   <tile/>
   <tile/>
   <tile/>
   <tile/>
   <tile/>
   <tile/>
   <tile/>
   <tile/>
   <tile/>
   <tile/>
   <tile/>
   <tile/>
   <tile/>
   <tile/>
   <tile/>
   <tile/>
   <tile/>
   <tile/>
   <tile/>
   <tile/>
   <tile/>
   <tile/>
   <tile/>
   <tile/>
   <tile/>
   <tile/>
   <tile/>
   <tile/>
   <tile/>
   <tile/>
   <tile/>
   <tile/>
   <tile/>
   <tile/>
   <tile/>
   <tile/>
   <tile/>
   <tile/>
   <tile/>
   <tile/>
   <tile/>
   <tile/>
   <tile/>
   <tile/>
   <tile/>
   <tile/>
   <tile/>
   <tile/>
   <tile/>
   <tile/>
   <tile/>
   <tile/>
   <tile/>
   <tile/>
   <tile/>
   <tile/>
   <tile/>
   <tile/>
   <tile/>
   <tile/>
   <tile/>
   <tile/>
   <tile/>
   <tile/>
   <tile/>
   <tile/>
   <tile/>
   <tile/>
   <tile/>
   <tile/>
   <tile/>
   <tile/>
   <tile/>
   <tile/>
   <tile/>
   <tile/>
   <tile/>
   <tile/>
   <tile/>
   <tile/>
   <tile/>
   <tile/>
   <tile/>
   <tile/>
   <tile/>
   <tile/>
   <tile/>
   <tile/>
   <tile/>
   <tile/>
   <tile/>
   <tile/>
   <tile/>
   <tile/>
   <tile/>
   <tile/>
   <tile/>
   <tile/>
   <tile/>
   <tile/>
   <tile/>
   <tile/>
   <tile/>
   <tile/>
   <tile/>
   <tile/>
   <tile/>
   <tile/>
   <tile/>
   <tile/>
   <tile/>
   <tile/>
   <tile/>
   <tile/>
   <tile/>
   <tile/>
   <tile/>
   <tile/>
   <tile/>
   <tile/>
   <tile/>
   <tile/>
   <tile/>
   <tile/>
   <tile/>
   <tile/>
   <tile/>
   <tile/>
   <tile/>
   <tile/>
   <tile/>
   <tile/>
   <tile/>
   <tile/>
   <tile/>
   <tile/>
   <tile/>
   <tile/>
   <tile/>
   <tile/>
   <tile/>
   <tile/>
   <tile/>
   <tile/>
   <tile/>
   <tile/>
   <tile/>
   <tile/>
   <tile/>
   <tile/>
   <tile/>
   <tile/>
   <tile/>
   <tile/>
   <tile/>
   <tile/>
   <tile/>
   <tile/>
   <tile/>
   <tile/>
   <tile/>
   <tile/>
   <tile/>
   <tile/>
   <tile/>
   <tile/>
   <tile/>
   <tile/>
   <tile/>
   <tile/>
   <tile/>
   <tile/>
   <tile/>
   <tile/>
   <tile/>
   <tile/>
   <tile/>
   <tile/>
   <tile/>
   <tile/>
   <tile/>
   <tile/>
   <tile/>
   <tile/>
   <tile/>
   <tile/>
   <tile/>
   <tile/>
   <tile/>
   <tile/>
   <tile/>
   <tile/>
   <tile/>
   <tile/>
   <tile/>
   <tile/>
   <tile/>
   <tile/>
   <tile/>
   <tile/>
   <tile/>
   <tile/>
   <tile/>
   <tile/>
   <tile/>
   <tile/>
   <tile/>
   <tile/>
   <tile/>
   <tile/>
   <tile/>
   <tile/>
   <tile/>
   <tile/>
   <tile/>
   <tile/>
   <tile/>
   <tile/>
   <tile/>
   <tile/>
   <tile/>
   <tile/>
   <tile/>
   <tile/>
   <tile/>
   <tile/>
   <tile/>
   <tile/>
   <tile/>
   <tile/>
   <tile/>
   <tile/>
   <tile/>
   <tile/>
   <tile/>
   <tile/>
   <tile/>
   <tile/>
   <tile/>
   <tile/>
   <tile/>
   <tile/>
   <tile/>
   <tile/>
   <tile/>
   <tile/>
   <tile/>
   <tile/>
   <tile/>
   <tile/>
   <tile/>
   <tile/>
   <tile/>
   <tile/>
   <tile/>
   <tile/>
   <tile/>
   <tile/>
   <tile/>
   <tile/>
   <tile/>
   <tile/>
   <tile/>
   <tile/>
   <tile/>
   <tile/>
   <tile/>
   <tile/>
   <tile/>
   <tile/>
   <tile/>
   <tile/>
   <tile/>
   <tile/>
   <tile/>
   <tile/>
   <tile/>
   <tile/>
   <tile/>
   <tile/>
   <tile/>
   <tile/>
   <tile/>
   <tile/>
   <tile/>
   <tile/>
   <tile/>
   <tile/>
   <tile/>
   <tile/>
   <tile/>
   <tile/>
   <tile/>
   <tile/>
   <tile/>
   <tile/>
   <tile/>
   <tile/>
   <tile/>
   <tile/>
   <tile/>
   <tile/>
   <tile/>
   <tile/>
   <tile/>
   <tile/>
   <tile/>
   <tile/>
   <tile/>
   <tile/>
   <tile/>
   <tile/>
   <tile/>
   <tile/>
   <tile/>
   <tile/>
   <tile/>
   <tile/>
   <tile/>
   <tile/>
   <tile/>
   <tile/>
   <tile/>
   <tile/>
   <tile/>
   <tile/>
   <tile/>
   <tile/>
   <tile/>
   <tile/>
   <tile/>
   <tile/>
   <tile/>
   <tile/>
   <tile/>
   <tile/>
   <tile/>
   <tile/>
   <tile/>
   <tile/>
   <tile/>
   <tile/>
   <tile/>
   <tile/>
   <tile/>
   <tile/>
   <tile/>
   <tile/>
   <tile/>
   <tile/>
   <tile/>
   <tile/>
   <tile/>
   <tile/>
   <tile/>
   <tile/>
   <tile/>
   <tile/>
   <tile/>
   <tile/>
   <tile/>
   <tile/>
   <tile/>
   <tile/>
   <tile/>
   <tile/>
   <tile/>
   <tile/>
   <tile/>
   <tile/>
   <tile/>
   <tile/>
   <tile/>
   <tile/>
   <tile/>
   <tile/>
   <tile/>
   <tile/>
   <tile/>
   <tile/>
   <tile/>
   <tile/>
   <tile/>
   <tile/>
   <tile/>
   <tile/>
   <tile/>
   <tile/>
   <tile/>
   <tile/>
   <tile/>
   <tile/>
   <tile/>
   <tile/>
   <tile/>
   <tile/>
   <tile/>
   <tile/>
   <tile/>
   <tile/>
   <tile/>
   <tile/>
   <tile/>
   <tile/>
   <tile/>
   <tile/>
   <tile/>
   <tile/>
   <tile/>
   <tile/>
   <tile/>
   <tile/>
   <tile/>
   <tile/>
   <tile/>
   <tile/>
   <tile/>
   <tile/>
   <tile/>
   <tile/>
   <tile/>
   <tile/>
   <tile/>
   <tile/>
   <tile/>
   <tile/>
   <tile/>
   <tile/>
   <tile/>
   <tile/>
   <tile/>
   <tile/>
   <tile/>
   <tile/>
   <tile/>
   <tile/>
   <tile/>
   <tile/>
   <tile/>
   <tile/>
   <tile/>
   <tile/>
   <tile/>
   <tile/>
   <tile/>
   <tile/>
   <tile/>
   <tile/>
   <tile/>
   <tile/>
   <tile/>
   <tile/>
   <tile/>
   <tile/>
   <tile/>
   <tile/>
   <tile/>
   <tile/>
   <tile/>
   <tile/>
   <tile/>
   <tile/>
   <tile/>
   <tile/>
   <tile/>
   <tile/>
   <tile/>
   <tile/>
   <tile/>
   <tile/>
   <tile/>
   <tile/>
   <tile/>
   <tile/>
   <tile/>
   <tile/>
   <tile/>
   <tile/>
   <tile/>
   <tile/>
   <tile/>
   <tile/>
   <tile/>
   <tile/>
   <tile/>
   <tile/>
   <tile/>
   <tile/>
   <tile/>
   <tile/>
   <tile/>
   <tile/>
   <tile/>
   <tile/>
   <tile/>
   <tile/>
   <tile/>
   <tile/>
   <tile/>
   <tile/>
   <tile/>
   <tile/>
   <tile/>
   <tile/>
   <tile/>
   <tile/>
   <tile/>
   <tile/>
   <tile/>
   <tile/>
   <tile/>
   <tile/>
   <tile/>
   <tile/>
   <tile/>
   <tile/>
   <tile/>
   <tile/>
   <tile/>
   <tile/>
   <tile/>
   <tile/>
   <tile/>
   <tile/>
   <tile/>
   <tile/>
   <tile/>
   <tile/>
   <tile/>
   <tile/>
   <tile/>
   <tile/>
   <tile/>
   <tile/>
   <tile/>
   <tile/>
   <tile/>
   <tile/>
   <tile/>
   <tile/>
   <tile/>
   <tile/>
   <tile/>
   <tile/>
   <tile/>
   <tile/>
   <tile/>
   <tile/>
   <tile/>
   <tile/>
   <tile/>
   <tile/>
   <tile/>
   <tile/>
   <tile/>
   <tile/>
   <tile/>
   <tile/>
   <tile/>
   <tile/>
   <tile/>
   <tile/>
   <tile/>
   <tile/>
   <tile/>
   <tile/>
   <tile/>
   <tile/>
   <tile/>
   <tile/>
   <tile/>
   <tile/>
   <tile/>
   <tile/>
   <tile/>
   <tile/>
   <tile/>
   <tile gid="4201"/>
   <tile gid="4201"/>
   <tile gid="4201"/>
   <tile gid="4201"/>
   <tile gid="4201"/>
   <tile gid="4201"/>
   <tile gid="4201"/>
   <tile gid="4201"/>
   <tile gid="4201"/>
   <tile gid="4201"/>
   <tile gid="4201"/>
   <tile gid="4201"/>
   <tile gid="4201"/>
   <tile gid="4201"/>
   <tile gid="4201"/>
   <tile gid="4201"/>
   <tile gid="4201"/>
   <tile gid="4201"/>
   <tile gid="4201"/>
   <tile gid="4201"/>
   <tile gid="4201"/>
   <tile gid="4201"/>
   <tile gid="4201"/>
   <tile gid="4201"/>
   <tile gid="4201"/>
   <tile gid="4201"/>
   <tile gid="4201"/>
   <tile gid="4201"/>
   <tile gid="4201"/>
   <tile gid="4201"/>
   <tile gid="4201"/>
   <tile gid="4201"/>
   <tile gid="4201"/>
   <tile gid="4201"/>
   <tile gid="4201"/>
   <tile gid="4201"/>
   <tile gid="4201"/>
   <tile gid="4201"/>
   <tile gid="4201"/>
   <tile gid="4201"/>
   <tile gid="4201"/>
   <tile gid="4201"/>
   <tile gid="4201"/>
   <tile gid="4201"/>
   <tile gid="4201"/>
   <tile gid="4201"/>
   <tile gid="4201"/>
   <tile gid="4201"/>
   <tile gid="4201"/>
   <tile gid="4201"/>
   <tile gid="4201"/>
   <tile gid="2152"/>
   <tile gid="2152"/>
   <tile gid="4201"/>
   <tile gid="4201"/>
   <tile gid="4201"/>
   <tile gid="4201"/>
   <tile gid="4201"/>
   <tile gid="4201"/>
   <tile gid="4201"/>
   <tile gid="4201"/>
   <tile gid="4201"/>
   <tile gid="4201"/>
   <tile gid="4201"/>
   <tile gid="4201"/>
   <tile gid="4201"/>
   <tile gid="4201"/>
   <tile gid="4201"/>
   <tile gid="4201"/>
   <tile gid="4201"/>
   <tile gid="4201"/>
   <tile gid="4201"/>
   <tile gid="4201"/>
   <tile gid="4201"/>
   <tile gid="4201"/>
   <tile gid="4201"/>
   <tile gid="4201"/>
   <tile gid="4201"/>
   <tile gid="4201"/>
   <tile gid="4201"/>
   <tile gid="4201"/>
   <tile gid="4201"/>
   <tile gid="4201"/>
   <tile gid="4201"/>
   <tile gid="4201"/>
   <tile gid="4201"/>
   <tile gid="4201"/>
   <tile gid="4201"/>
   <tile gid="4201"/>
   <tile gid="4201"/>
   <tile gid="4201"/>
   <tile gid="4201"/>
   <tile gid="4201"/>
   <tile gid="4201"/>
   <tile gid="4201"/>
   <tile gid="4201"/>
   <tile gid="4201"/>
   <tile gid="4201"/>
   <tile gid="4201"/>
   <tile gid="4201"/>
   <tile gid="4201"/>
   <tile gid="4201"/>
   <tile gid="4201"/>
   <tile gid="4201"/>
   <tile gid="4201"/>
   <tile gid="4201"/>
   <tile gid="4201"/>
   <tile gid="4201"/>
   <tile gid="4201"/>
   <tile gid="4201"/>
   <tile gid="4201"/>
   <tile gid="4201"/>
   <tile gid="4201"/>
   <tile gid="4201"/>
   <tile gid="4201"/>
   <tile gid="4201"/>
   <tile gid="4201"/>
   <tile gid="4201"/>
   <tile gid="4201"/>
   <tile gid="4201"/>
   <tile gid="4201"/>
   <tile gid="4201"/>
   <tile gid="4201"/>
   <tile gid="4201"/>
   <tile gid="4201"/>
   <tile gid="4201"/>
   <tile gid="4201"/>
   <tile gid="4201"/>
   <tile gid="4201"/>
   <tile gid="4201"/>
   <tile gid="4201"/>
   <tile gid="4201"/>
   <tile gid="4201"/>
   <tile gid="4201"/>
   <tile gid="4201"/>
   <tile gid="4201"/>
   <tile gid="4201"/>
   <tile gid="4201"/>
   <tile gid="4201"/>
   <tile gid="4201"/>
   <tile gid="4201"/>
   <tile gid="4201"/>
   <tile gid="4201"/>
   <tile gid="4201"/>
   <tile gid="4201"/>
   <tile gid="4201"/>
   <tile gid="4201"/>
   <tile gid="4201"/>
   <tile gid="4201"/>
   <tile gid="4201"/>
   <tile gid="4201"/>
   <tile gid="4201"/>
   <tile gid="4201"/>
   <tile gid="4201"/>
   <tile gid="4201"/>
   <tile gid="4201"/>
   <tile gid="4201"/>
   <tile gid="4201"/>
   <tile gid="4201"/>
   <tile gid="4201"/>
   <tile gid="4201"/>
   <tile gid="4201"/>
   <tile gid="4201"/>
   <tile gid="4201"/>
   <tile gid="4201"/>
   <tile gid="4201"/>
   <tile gid="4201"/>
   <tile gid="4201"/>
   <tile gid="4201"/>
   <tile gid="4201"/>
   <tile gid="2152"/>
   <tile gid="2152"/>
   <tile gid="2152"/>
   <tile gid="2152"/>
   <tile gid="2152"/>
   <tile gid="2152"/>
   <tile gid="4201"/>
   <tile gid="4201"/>
   <tile gid="4201"/>
   <tile gid="4201"/>
   <tile gid="4201"/>
   <tile gid="4201"/>
   <tile gid="4201"/>
   <tile gid="4201"/>
   <tile gid="4201"/>
   <tile gid="4201"/>
   <tile gid="4201"/>
   <tile gid="4201"/>
   <tile gid="4201"/>
   <tile gid="4201"/>
   <tile gid="4201"/>
   <tile gid="4201"/>
   <tile gid="4201"/>
   <tile gid="4201"/>
   <tile gid="4201"/>
   <tile gid="4201"/>
   <tile gid="4201"/>
   <tile gid="4201"/>
   <tile gid="4201"/>
   <tile gid="4201"/>
   <tile gid="4201"/>
   <tile gid="4201"/>
   <tile gid="4201"/>
   <tile gid="4201"/>
   <tile gid="4201"/>
   <tile gid="4201"/>
   <tile gid="4201"/>
   <tile gid="4201"/>
   <tile gid="4201"/>
   <tile gid="4201"/>
   <tile gid="4201"/>
   <tile gid="4201"/>
   <tile gid="4201"/>
   <tile gid="4201"/>
   <tile gid="4201"/>
   <tile gid="4201"/>
   <tile gid="4201"/>
   <tile gid="4201"/>
   <tile gid="4201"/>
   <tile gid="1713"/>
   <tile/>
   <tile/>
   <tile gid="1713"/>
   <tile gid="1713"/>
   <tile gid="4201"/>
   <tile gid="4201"/>
   <tile gid="4201"/>
   <tile gid="4201"/>
   <tile gid="4201"/>
   <tile gid="4201"/>
   <tile gid="4201"/>
   <tile gid="4201"/>
   <tile gid="4201"/>
   <tile/>
   <tile/>
   <tile gid="4201"/>
   <tile gid="4201"/>
   <tile gid="4201"/>
   <tile gid="4201"/>
   <tile gid="4201"/>
   <tile gid="4201"/>
   <tile gid="4201"/>
   <tile gid="4201"/>
   <tile gid="4201"/>
   <tile gid="4201"/>
   <tile gid="4201"/>
   <tile gid="4201"/>
   <tile gid="4201"/>
   <tile gid="4201"/>
   <tile gid="4201"/>
   <tile gid="4201"/>
   <tile gid="4201"/>
   <tile gid="4201"/>
   <tile gid="4201"/>
   <tile gid="4201"/>
   <tile gid="4201"/>
   <tile gid="4201"/>
   <tile gid="4201"/>
   <tile gid="1698"/>
   <tile gid="1699"/>
   <tile gid="1700"/>
   <tile gid="1701"/>
   <tile gid="1702"/>
   <tile gid="1703"/>
   <tile gid="1704"/>
   <tile gid="1705"/>
   <tile gid="1706"/>
   <tile gid="1707"/>
   <tile gid="1708"/>
   <tile gid="1709"/>
   <tile gid="1710"/>
   <tile gid="1711"/>
   <tile gid="1712"/>
   <tile gid="4201"/>
   <tile gid="4201"/>
   <tile gid="4201"/>
   <tile gid="4201"/>
   <tile gid="4201"/>
   <tile gid="4201"/>
   <tile gid="4201"/>
   <tile gid="4201"/>
   <tile gid="4201"/>
   <tile gid="4201"/>
   <tile gid="4201"/>
   <tile gid="4201"/>
   <tile gid="4201"/>
   <tile gid="4201"/>
   <tile gid="4201"/>
   <tile gid="4201"/>
   <tile gid="4201"/>
   <tile gid="2152"/>
   <tile/>
   <tile/>
   <tile/>
   <tile gid="2152"/>
   <tile gid="2152"/>
   <tile gid="4201"/>
   <tile gid="4201"/>
   <tile gid="4201"/>
   <tile gid="4201"/>
   <tile gid="4201"/>
   <tile gid="4201"/>
   <tile gid="4201"/>
   <tile gid="4201"/>
   <tile gid="4201"/>
   <tile gid="4201"/>
   <tile gid="4201"/>
   <tile gid="4201"/>
   <tile gid="4201"/>
   <tile gid="4201"/>
   <tile gid="4201"/>
   <tile gid="4201"/>
   <tile gid="4201"/>
   <tile gid="4201"/>
   <tile gid="4201"/>
   <tile gid="4201"/>
   <tile gid="4201"/>
   <tile gid="4201"/>
   <tile gid="4201"/>
   <tile gid="4201"/>
   <tile gid="4201"/>
   <tile gid="4201"/>
   <tile gid="4201"/>
   <tile gid="4201"/>
   <tile gid="4201"/>
   <tile gid="4201"/>
   <tile gid="4201"/>
   <tile gid="4201"/>
   <tile gid="4201"/>
   <tile gid="4201"/>
   <tile gid="4201"/>
   <tile gid="4201"/>
   <tile gid="4201"/>
   <tile gid="4201"/>
   <tile gid="4201"/>
   <tile gid="4201"/>
   <tile gid="4201"/>
   <tile gid="4201"/>
   <tile gid="4201"/>
   <tile gid="1713"/>
   <tile/>
   <tile/>
   <tile/>
   <tile gid="1713"/>
   <tile gid="4201"/>
   <tile gid="4201"/>
   <tile gid="4201"/>
   <tile gid="4201"/>
   <tile gid="4201"/>
   <tile gid="4201"/>
   <tile gid="4201"/>
   <tile gid="4201"/>
   <tile gid="4201"/>
   <tile/>
   <tile/>
   <tile/>
   <tile gid="4201"/>
   <tile gid="4201"/>
   <tile gid="4201"/>
   <tile gid="4201"/>
   <tile gid="4201"/>
   <tile gid="4201"/>
   <tile gid="4201"/>
   <tile gid="4201"/>
   <tile gid="4201"/>
   <tile gid="4201"/>
   <tile gid="4201"/>
   <tile gid="4201"/>
   <tile gid="4201"/>
   <tile gid="4201"/>
   <tile gid="4201"/>
   <tile gid="4201"/>
   <tile gid="4201"/>
   <tile gid="4201"/>
   <tile gid="4201"/>
   <tile gid="4201"/>
   <tile gid="4201"/>
   <tile gid="4201"/>
   <tile gid="1762"/>
   <tile gid="1763"/>
   <tile gid="1764"/>
   <tile gid="1765"/>
   <tile gid="1766"/>
   <tile gid="1767"/>
   <tile gid="1768"/>
   <tile gid="1769"/>
   <tile gid="1770"/>
   <tile gid="1771"/>
   <tile gid="1772"/>
   <tile gid="1773"/>
   <tile gid="1774"/>
   <tile gid="1775"/>
   <tile gid="1776"/>
   <tile gid="4201"/>
   <tile gid="4201"/>
   <tile gid="4201"/>
   <tile gid="4201"/>
   <tile gid="4201"/>
   <tile gid="4201"/>
   <tile gid="4201"/>
   <tile gid="4201"/>
   <tile gid="4201"/>
   <tile gid="4201"/>
   <tile gid="4201"/>
   <tile gid="4201"/>
   <tile gid="4201"/>
   <tile gid="4201"/>
   <tile gid="4201"/>
   <tile gid="4201"/>
   <tile gid="4201"/>
   <tile/>
   <tile/>
   <tile/>
   <tile/>
   <tile/>
   <tile gid="2152"/>
   <tile gid="4201"/>
   <tile gid="4201"/>
   <tile gid="4201"/>
   <tile gid="4201"/>
   <tile gid="4201"/>
   <tile gid="4201"/>
   <tile gid="4201"/>
   <tile gid="4201"/>
   <tile gid="4201"/>
   <tile gid="4201"/>
   <tile gid="4201"/>
   <tile gid="4201"/>
   <tile gid="2152"/>
   <tile gid="2152"/>
   <tile gid="2152"/>
   <tile gid="2152"/>
   <tile gid="2152"/>
   <tile gid="2152"/>
   <tile gid="2152"/>
   <tile gid="4201"/>
   <tile gid="4201"/>
   <tile gid="4201"/>
   <tile gid="4201"/>
   <tile gid="4201"/>
   <tile gid="4201"/>
   <tile gid="4201"/>
   <tile gid="4201"/>
   <tile gid="4201"/>
   <tile gid="4201"/>
   <tile gid="4201"/>
   <tile gid="4201"/>
   <tile gid="4201"/>
   <tile gid="4201"/>
   <tile gid="4201"/>
   <tile gid="4201"/>
   <tile gid="4201"/>
   <tile gid="4201"/>
   <tile gid="4201"/>
   <tile gid="4201"/>
   <tile gid="4201"/>
   <tile gid="4201"/>
   <tile gid="4201"/>
   <tile gid="4201"/>
   <tile/>
   <tile/>
   <tile/>
   <tile/>
   <tile/>
   <tile gid="4201"/>
   <tile gid="4201"/>
   <tile gid="4201"/>
   <tile gid="4201"/>
   <tile gid="4201"/>
   <tile gid="4201"/>
   <tile gid="4201"/>
   <tile gid="4201"/>
   <tile/>
   <tile/>
   <tile/>
   <tile/>
   <tile/>
   <tile gid="4201"/>
   <tile gid="4201"/>
   <tile gid="4201"/>
   <tile gid="4201"/>
   <tile gid="4201"/>
   <tile gid="4201"/>
   <tile gid="4201"/>
   <tile gid="4201"/>
   <tile gid="4201"/>
   <tile gid="4201"/>
   <tile gid="4201"/>
   <tile gid="4201"/>
   <tile gid="4201"/>
   <tile gid="4201"/>
   <tile gid="4201"/>
   <tile gid="4201"/>
   <tile gid="4201"/>
   <tile gid="4201"/>
   <tile gid="4201"/>
   <tile gid="4201"/>
   <tile gid="4201"/>
   <tile gid="1826"/>
   <tile gid="1827"/>
   <tile gid="1828"/>
   <tile gid="1829"/>
   <tile gid="1830"/>
   <tile gid="1831"/>
   <tile gid="1832"/>
   <tile gid="1833"/>
   <tile gid="1834"/>
   <tile gid="1835"/>
   <tile gid="1836"/>
   <tile gid="1837"/>
   <tile gid="1838"/>
   <tile gid="1839"/>
   <tile gid="1840"/>
   <tile gid="4201"/>
   <tile gid="4201"/>
   <tile gid="4201"/>
   <tile gid="4201"/>
   <tile gid="4201"/>
   <tile gid="4201"/>
   <tile gid="4201"/>
   <tile gid="4201"/>
   <tile gid="4201"/>
   <tile gid="4201"/>
   <tile gid="4201"/>
   <tile gid="4201"/>
   <tile gid="4201"/>
   <tile gid="4201"/>
   <tile gid="4201"/>
   <tile gid="4201"/>
   <tile gid="4201"/>
   <tile/>
   <tile/>
   <tile/>
   <tile/>
   <tile/>
   <tile gid="2152"/>
   <tile gid="4201"/>
   <tile gid="4201"/>
   <tile gid="4201"/>
   <tile gid="4201"/>
   <tile gid="4201"/>
   <tile gid="4201"/>
   <tile gid="4201"/>
   <tile gid="4201"/>
   <tile gid="4201"/>
   <tile gid="4201"/>
   <tile gid="4201"/>
   <tile gid="4201"/>
   <tile gid="2152"/>
   <tile/>
   <tile/>
   <tile/>
   <tile/>
   <tile/>
   <tile gid="2152"/>
   <tile gid="4201"/>
   <tile gid="4201"/>
   <tile gid="4201"/>
   <tile gid="4201"/>
   <tile gid="4201"/>
   <tile gid="4201"/>
   <tile gid="4201"/>
   <tile gid="4201"/>
   <tile gid="4201"/>
   <tile gid="4201"/>
   <tile gid="4201"/>
   <tile gid="4201"/>
   <tile gid="4201"/>
   <tile gid="4201"/>
   <tile gid="4201"/>
   <tile gid="4201"/>
   <tile gid="4201"/>
   <tile gid="4201"/>
   <tile gid="4201"/>
   <tile gid="4201"/>
   <tile gid="4201"/>
   <tile gid="4201"/>
   <tile gid="4201"/>
   <tile gid="4201"/>
   <tile/>
   <tile/>
   <tile/>
   <tile/>
   <tile/>
   <tile gid="4201"/>
   <tile gid="4201"/>
   <tile gid="4201"/>
   <tile gid="4201"/>
   <tile gid="4201"/>
   <tile gid="4201"/>
   <tile gid="4201"/>
   <tile gid="4201"/>
   <tile/>
   <tile/>
   <tile/>
   <tile/>
   <tile/>
   <tile gid="4201"/>
   <tile gid="4201"/>
   <tile gid="4201"/>
   <tile gid="4201"/>
   <tile gid="4201"/>
   <tile gid="4201"/>
   <tile gid="4201"/>
   <tile gid="4201"/>
   <tile gid="4201"/>
   <tile gid="4201"/>
   <tile gid="4201"/>
   <tile gid="4201"/>
   <tile gid="4201"/>
   <tile gid="4201"/>
   <tile gid="4201"/>
   <tile gid="4201"/>
   <tile gid="4201"/>
   <tile gid="4201"/>
   <tile gid="4201"/>
   <tile gid="4201"/>
   <tile gid="4201"/>
   <tile gid="1890"/>
   <tile gid="1891"/>
   <tile gid="1892"/>
   <tile gid="1893"/>
   <tile gid="1894"/>
   <tile gid="1895"/>
   <tile gid="1896"/>
   <tile gid="1897"/>
   <tile gid="1898"/>
   <tile gid="1899"/>
   <tile gid="1900"/>
   <tile gid="1901"/>
   <tile gid="1902"/>
   <tile gid="1903"/>
   <tile gid="1904"/>
   <tile gid="4201"/>
   <tile gid="4201"/>
   <tile gid="4201"/>
   <tile gid="4201"/>
   <tile gid="4201"/>
   <tile gid="4201"/>
   <tile gid="4201"/>
   <tile gid="4201"/>
   <tile gid="4201"/>
   <tile gid="4201"/>
   <tile gid="4201"/>
   <tile gid="4201"/>
   <tile gid="4201"/>
   <tile gid="4201"/>
   <tile gid="4201"/>
   <tile gid="4201"/>
   <tile gid="4201"/>
   <tile/>
   <tile/>
   <tile/>
   <tile/>
   <tile/>
   <tile gid="2152"/>
   <tile gid="4201"/>
   <tile gid="4201"/>
   <tile gid="4201"/>
   <tile gid="4201"/>
   <tile gid="4201"/>
   <tile gid="4201"/>
   <tile gid="4201"/>
   <tile gid="4201"/>
   <tile gid="4201"/>
   <tile gid="4201"/>
   <tile gid="4201"/>
   <tile gid="4201"/>
   <tile gid="2152"/>
   <tile/>
   <tile/>
   <tile/>
   <tile/>
   <tile/>
   <tile gid="2152"/>
   <tile gid="4201"/>
   <tile gid="4201"/>
   <tile gid="4201"/>
   <tile gid="4201"/>
   <tile gid="4201"/>
   <tile gid="4201"/>
   <tile gid="4201"/>
   <tile gid="4201"/>
   <tile gid="4201"/>
   <tile gid="4201"/>
   <tile gid="4201"/>
   <tile gid="4201"/>
   <tile gid="4201"/>
   <tile gid="4201"/>
   <tile gid="4201"/>
   <tile gid="4201"/>
   <tile gid="4201"/>
   <tile gid="4201"/>
   <tile gid="4201"/>
   <tile gid="4201"/>
   <tile gid="4201"/>
   <tile gid="4201"/>
   <tile gid="4201"/>
   <tile gid="4201"/>
   <tile/>
   <tile/>
   <tile/>
   <tile/>
   <tile/>
   <tile gid="4201"/>
   <tile gid="4201"/>
   <tile gid="4201"/>
   <tile gid="4201"/>
   <tile gid="4201"/>
   <tile gid="4201"/>
   <tile gid="4201"/>
   <tile gid="4201"/>
   <tile/>
   <tile/>
   <tile/>
   <tile/>
   <tile/>
   <tile gid="4201"/>
   <tile gid="4201"/>
   <tile gid="4201"/>
   <tile gid="4201"/>
   <tile gid="4201"/>
   <tile gid="4201"/>
   <tile gid="4201"/>
   <tile gid="4201"/>
   <tile gid="4201"/>
   <tile gid="4201"/>
   <tile gid="4201"/>
   <tile gid="4201"/>
   <tile gid="4201"/>
   <tile gid="4201"/>
   <tile gid="4201"/>
   <tile gid="4201"/>
   <tile gid="4201"/>
   <tile gid="4201"/>
   <tile gid="4201"/>
   <tile gid="4201"/>
   <tile gid="4201"/>
   <tile gid="1954"/>
   <tile gid="1955"/>
   <tile gid="1956"/>
   <tile gid="1957"/>
   <tile gid="1958"/>
   <tile gid="1959"/>
   <tile gid="1960"/>
   <tile gid="1961"/>
   <tile gid="1962"/>
   <tile gid="1963"/>
   <tile gid="1964"/>
   <tile gid="1965"/>
   <tile gid="1966"/>
   <tile gid="1967"/>
   <tile gid="1968"/>
   <tile gid="4201"/>
   <tile gid="4201"/>
   <tile gid="4201"/>
   <tile gid="4201"/>
   <tile gid="4201"/>
   <tile gid="4201"/>
   <tile gid="4201"/>
   <tile gid="4201"/>
   <tile gid="4201"/>
   <tile gid="4201"/>
   <tile gid="4201"/>
   <tile gid="4201"/>
   <tile gid="4201"/>
   <tile gid="4201"/>
   <tile gid="4201"/>
   <tile gid="4201"/>
   <tile gid="4201"/>
   <tile gid="2152"/>
   <tile/>
   <tile/>
   <tile/>
   <tile gid="2152"/>
   <tile gid="2152"/>
   <tile gid="4201"/>
   <tile gid="4201"/>
   <tile gid="4201"/>
   <tile gid="4201"/>
   <tile gid="4201"/>
   <tile gid="4201"/>
   <tile gid="4201"/>
   <tile gid="4201"/>
   <tile gid="4201"/>
   <tile gid="4201"/>
   <tile gid="4201"/>
   <tile gid="4201"/>
   <tile gid="2152"/>
   <tile/>
   <tile/>
   <tile/>
   <tile/>
   <tile/>
   <tile gid="2152"/>
   <tile gid="4201"/>
   <tile gid="4201"/>
   <tile gid="4201"/>
   <tile gid="4201"/>
   <tile gid="4201"/>
   <tile gid="4201"/>
   <tile gid="4201"/>
   <tile gid="4201"/>
   <tile gid="4201"/>
   <tile gid="4201"/>
   <tile gid="4201"/>
   <tile gid="4201"/>
   <tile gid="4201"/>
   <tile gid="4201"/>
   <tile gid="4201"/>
   <tile gid="4201"/>
   <tile gid="4201"/>
   <tile gid="4201"/>
   <tile gid="4201"/>
   <tile gid="4201"/>
   <tile gid="4201"/>
   <tile gid="4201"/>
   <tile gid="4201"/>
   <tile gid="4201"/>
   <tile/>
   <tile/>
   <tile/>
   <tile/>
   <tile/>
   <tile gid="4201"/>
   <tile gid="4201"/>
   <tile gid="4201"/>
   <tile gid="4201"/>
   <tile gid="4201"/>
   <tile gid="4201"/>
   <tile gid="4201"/>
   <tile gid="4201"/>
   <tile/>
   <tile/>
   <tile/>
   <tile/>
   <tile/>
   <tile gid="4201"/>
   <tile gid="4201"/>
   <tile gid="4201"/>
   <tile gid="4201"/>
   <tile gid="4201"/>
   <tile gid="4201"/>
   <tile gid="4201"/>
   <tile gid="4201"/>
   <tile gid="4201"/>
   <tile gid="4201"/>
   <tile gid="2152"/>
   <tile gid="2152"/>
   <tile gid="2152"/>
   <tile gid="2152"/>
   <tile gid="2152"/>
   <tile gid="2152"/>
   <tile gid="2152"/>
   <tile gid="2152"/>
   <tile gid="2152"/>
   <tile gid="4201"/>
   <tile gid="4201"/>
   <tile gid="2018"/>
   <tile gid="2019"/>
   <tile gid="2020"/>
   <tile gid="2021"/>
   <tile gid="2022"/>
   <tile gid="2023"/>
   <tile gid="2024"/>
   <tile gid="2025"/>
   <tile gid="2026"/>
   <tile gid="2027"/>
   <tile gid="2028"/>
   <tile gid="2029"/>
   <tile gid="2030"/>
   <tile gid="2031"/>
   <tile gid="2032"/>
   <tile gid="4201"/>
   <tile gid="4201"/>
   <tile gid="4201"/>
   <tile gid="4201"/>
   <tile gid="4201"/>
   <tile gid="4201"/>
   <tile gid="4201"/>
   <tile gid="4201"/>
   <tile gid="4201"/>
   <tile gid="4201"/>
   <tile gid="4201"/>
   <tile gid="4201"/>
   <tile gid="4201"/>
   <tile gid="4201"/>
   <tile gid="4201"/>
   <tile gid="4201"/>
   <tile gid="4201"/>
   <tile gid="4201"/>
   <tile gid="4201"/>
   <tile gid="4201"/>
   <tile gid="4201"/>
   <tile gid="4201"/>
   <tile gid="4201"/>
   <tile gid="4201"/>
   <tile gid="4201"/>
   <tile gid="4201"/>
   <tile gid="4201"/>
   <tile gid="4201"/>
   <tile gid="4201"/>
   <tile gid="4201"/>
   <tile gid="4201"/>
   <tile gid="4201"/>
   <tile gid="4201"/>
   <tile gid="4201"/>
   <tile gid="4201"/>
   <tile gid="2152"/>
   <tile/>
   <tile/>
   <tile/>
   <tile/>
   <tile/>
   <tile gid="2152"/>
   <tile gid="4201"/>
   <tile gid="4201"/>
   <tile gid="4201"/>
   <tile gid="4201"/>
   <tile gid="4201"/>
   <tile gid="4201"/>
   <tile gid="4201"/>
   <tile gid="4201"/>
   <tile gid="4201"/>
   <tile gid="4201"/>
   <tile gid="4201"/>
   <tile gid="4201"/>
   <tile gid="4201"/>
   <tile gid="4201"/>
   <tile gid="4201"/>
   <tile gid="4201"/>
   <tile gid="4201"/>
   <tile gid="4201"/>
   <tile gid="4201"/>
   <tile gid="4201"/>
   <tile gid="4201"/>
   <tile gid="4201"/>
   <tile gid="4201"/>
   <tile gid="4201"/>
   <tile/>
   <tile/>
   <tile/>
   <tile/>
   <tile/>
   <tile gid="4201"/>
   <tile gid="4201"/>
   <tile gid="4201"/>
   <tile gid="4201"/>
   <tile gid="4201"/>
   <tile gid="4201"/>
   <tile gid="4201"/>
   <tile gid="4201"/>
   <tile/>
   <tile/>
   <tile/>
   <tile/>
   <tile/>
   <tile gid="4201"/>
   <tile gid="4201"/>
   <tile gid="4201"/>
   <tile gid="4201"/>
   <tile gid="4201"/>
   <tile gid="4201"/>
   <tile gid="4201"/>
   <tile gid="4201"/>
   <tile gid="4201"/>
   <tile gid="4201"/>
   <tile gid="2152"/>
   <tile gid="2152"/>
   <tile gid="2152"/>
   <tile/>
   <tile/>
   <tile/>
   <tile gid="2152"/>
   <tile gid="2152"/>
   <tile gid="2152"/>
   <tile gid="4201"/>
   <tile gid="4201"/>
   <tile gid="2082"/>
   <tile gid="2083"/>
   <tile gid="2084"/>
   <tile gid="2085"/>
   <tile gid="2086"/>
   <tile gid="2087"/>
   <tile gid="2088"/>
   <tile gid="2089"/>
   <tile gid="2090"/>
   <tile gid="2091"/>
   <tile gid="2092"/>
   <tile gid="2093"/>
   <tile gid="2094"/>
   <tile gid="2095"/>
   <tile gid="2096"/>
   <tile gid="4201"/>
   <tile gid="4201"/>
   <tile gid="4201"/>
   <tile gid="4201"/>
   <tile gid="4201"/>
   <tile gid="4201"/>
   <tile gid="4201"/>
   <tile gid="4201"/>
   <tile gid="4201"/>
   <tile gid="4201"/>
   <tile gid="4201"/>
   <tile gid="4201"/>
   <tile gid="4201"/>
   <tile gid="4201"/>
   <tile gid="4201"/>
   <tile gid="4201"/>
   <tile gid="4201"/>
   <tile gid="4201"/>
   <tile gid="4201"/>
   <tile gid="4201"/>
   <tile gid="4201"/>
   <tile gid="4201"/>
   <tile gid="4201"/>
   <tile gid="4201"/>
   <tile gid="4201"/>
   <tile gid="4201"/>
   <tile gid="4201"/>
   <tile gid="4201"/>
   <tile gid="4201"/>
   <tile gid="4201"/>
   <tile gid="4201"/>
   <tile gid="4201"/>
   <tile gid="4201"/>
   <tile gid="4201"/>
   <tile gid="4201"/>
   <tile gid="2152"/>
   <tile/>
   <tile/>
   <tile/>
   <tile/>
   <tile/>
   <tile gid="2152"/>
   <tile gid="4201"/>
   <tile gid="4201"/>
   <tile gid="4201"/>
   <tile gid="4201"/>
   <tile gid="4201"/>
   <tile gid="4201"/>
   <tile gid="4201"/>
   <tile gid="4201"/>
   <tile gid="4201"/>
   <tile gid="4201"/>
   <tile gid="4201"/>
   <tile gid="4201"/>
   <tile gid="4201"/>
   <tile gid="4201"/>
   <tile gid="4201"/>
   <tile gid="4201"/>
   <tile gid="4201"/>
   <tile gid="4201"/>
   <tile gid="4201"/>
   <tile gid="4201"/>
   <tile gid="4201"/>
   <tile gid="4201"/>
   <tile gid="4201"/>
   <tile gid="4201"/>
   <tile/>
   <tile/>
   <tile/>
   <tile/>
   <tile/>
   <tile gid="4201"/>
   <tile gid="4201"/>
   <tile gid="4201"/>
   <tile gid="4201"/>
   <tile gid="4201"/>
   <tile gid="4201"/>
   <tile gid="4201"/>
   <tile gid="4201"/>
   <tile/>
   <tile/>
   <tile/>
   <tile/>
   <tile/>
   <tile gid="4201"/>
   <tile gid="4201"/>
   <tile gid="4201"/>
   <tile gid="4201"/>
   <tile gid="4201"/>
   <tile gid="4201"/>
   <tile gid="4201"/>
   <tile gid="4201"/>
   <tile gid="4201"/>
   <tile gid="4201"/>
   <tile gid="2152"/>
   <tile gid="2152"/>
   <tile/>
   <tile/>
   <tile/>
   <tile/>
   <tile gid="2152"/>
   <tile gid="2152"/>
   <tile gid="2152"/>
   <tile gid="4201"/>
   <tile gid="4201"/>
   <tile gid="4201"/>
   <tile gid="4201"/>
   <tile gid="4201"/>
   <tile gid="4201"/>
   <tile gid="4201"/>
   <tile gid="4201"/>
   <tile gid="4201"/>
   <tile gid="4201"/>
   <tile gid="4201"/>
   <tile gid="4201"/>
   <tile gid="4201"/>
   <tile gid="4201"/>
   <tile gid="4201"/>
   <tile gid="4201"/>
   <tile gid="4201"/>
   <tile gid="4201"/>
   <tile gid="4201"/>
   <tile gid="4201"/>
   <tile gid="4201"/>
   <tile gid="4201"/>
   <tile gid="4201"/>
   <tile gid="4201"/>
   <tile gid="4201"/>
   <tile gid="4201"/>
   <tile gid="4201"/>
   <tile gid="4201"/>
   <tile gid="4201"/>
   <tile gid="4201"/>
   <tile gid="4201"/>
   <tile gid="4201"/>
   <tile gid="4201"/>
   <tile gid="4201"/>
   <tile gid="4201"/>
   <tile gid="4201"/>
   <tile gid="4201"/>
   <tile gid="4201"/>
   <tile gid="4201"/>
   <tile gid="4201"/>
   <tile gid="4201"/>
   <tile gid="4201"/>
   <tile gid="4201"/>
   <tile gid="4201"/>
   <tile gid="4201"/>
   <tile gid="4201"/>
   <tile gid="4201"/>
   <tile gid="4201"/>
   <tile gid="4201"/>
   <tile gid="4201"/>
   <tile gid="4201"/>
   <tile gid="4201"/>
   <tile gid="2152"/>
   <tile/>
   <tile/>
   <tile/>
   <tile/>
   <tile/>
   <tile gid="2152"/>
   <tile gid="4201"/>
   <tile gid="4201"/>
   <tile gid="4201"/>
   <tile gid="4201"/>
   <tile gid="4201"/>
   <tile gid="4201"/>
   <tile gid="4201"/>
   <tile gid="4201"/>
   <tile gid="4201"/>
   <tile gid="4201"/>
   <tile gid="4201"/>
   <tile gid="4201"/>
   <tile gid="4201"/>
   <tile gid="4201"/>
   <tile gid="4201"/>
   <tile gid="4201"/>
   <tile gid="4201"/>
   <tile gid="4201"/>
   <tile gid="4201"/>
   <tile gid="4201"/>
   <tile gid="4201"/>
   <tile gid="4201"/>
   <tile gid="4201"/>
   <tile gid="4201"/>
   <tile/>
   <tile/>
   <tile/>
   <tile/>
   <tile/>
   <tile gid="4201"/>
   <tile gid="4201"/>
   <tile gid="4201"/>
   <tile gid="4201"/>
   <tile gid="4201"/>
   <tile gid="4201"/>
   <tile gid="4201"/>
   <tile gid="4201"/>
   <tile/>
   <tile/>
   <tile/>
   <tile/>
   <tile/>
   <tile gid="4201"/>
   <tile gid="4201"/>
   <tile gid="4201"/>
   <tile gid="4201"/>
   <tile gid="4201"/>
   <tile gid="4201"/>
   <tile gid="4201"/>
   <tile gid="4201"/>
   <tile gid="4201"/>
   <tile gid="4201"/>
   <tile gid="2152"/>
   <tile gid="2152"/>
   <tile/>
   <tile/>
   <tile/>
   <tile/>
   <tile gid="2152"/>
   <tile gid="2152"/>
   <tile gid="2152"/>
   <tile gid="4201"/>
   <tile gid="4201"/>
   <tile gid="4201"/>
   <tile gid="4201"/>
   <tile gid="4201"/>
   <tile gid="4201"/>
   <tile gid="4201"/>
   <tile gid="4201"/>
   <tile gid="4201"/>
   <tile gid="4201"/>
   <tile gid="4201"/>
   <tile gid="4201"/>
   <tile gid="4201"/>
   <tile gid="4201"/>
   <tile gid="4201"/>
   <tile gid="4201"/>
   <tile gid="2152"/>
   <tile gid="2152"/>
   <tile gid="2152"/>
   <tile gid="4201"/>
   <tile gid="4201"/>
   <tile gid="4201"/>
   <tile gid="4201"/>
   <tile gid="4201"/>
   <tile gid="4201"/>
   <tile gid="4201"/>
   <tile gid="4201"/>
   <tile gid="4201"/>
   <tile gid="4201"/>
   <tile gid="4201"/>
   <tile gid="4201"/>
   <tile gid="4201"/>
   <tile gid="4201"/>
   <tile gid="4201"/>
   <tile gid="4201"/>
   <tile gid="4201"/>
   <tile gid="4201"/>
   <tile gid="4201"/>
   <tile gid="4201"/>
   <tile gid="4201"/>
   <tile gid="4201"/>
   <tile gid="4201"/>
   <tile gid="4201"/>
   <tile gid="4201"/>
   <tile gid="4201"/>
   <tile gid="4201"/>
   <tile gid="4201"/>
   <tile gid="4201"/>
   <tile gid="4201"/>
   <tile gid="4201"/>
   <tile gid="4201"/>
   <tile gid="4201"/>
   <tile gid="2152"/>
   <tile/>
   <tile/>
   <tile/>
   <tile/>
   <tile/>
   <tile gid="2152"/>
   <tile gid="4201"/>
   <tile gid="4201"/>
   <tile gid="4201"/>
   <tile gid="4201"/>
   <tile gid="4201"/>
   <tile gid="4201"/>
   <tile gid="4201"/>
   <tile gid="4201"/>
   <tile gid="4201"/>
   <tile gid="4201"/>
   <tile gid="4201"/>
   <tile gid="4201"/>
   <tile gid="4201"/>
   <tile gid="4201"/>
   <tile gid="4201"/>
   <tile gid="4201"/>
   <tile gid="4201"/>
   <tile gid="4201"/>
   <tile gid="4201"/>
   <tile gid="4201"/>
   <tile gid="4201"/>
   <tile gid="4201"/>
   <tile gid="4201"/>
   <tile gid="4201"/>
   <tile/>
   <tile/>
   <tile/>
   <tile/>
   <tile/>
   <tile gid="4201"/>
   <tile gid="4201"/>
   <tile gid="4201"/>
   <tile gid="4201"/>
   <tile gid="4201"/>
   <tile gid="4201"/>
   <tile gid="4201"/>
   <tile gid="4201"/>
   <tile/>
   <tile/>
   <tile/>
   <tile/>
   <tile/>
   <tile gid="4201"/>
   <tile gid="4201"/>
   <tile gid="4201"/>
   <tile gid="4201"/>
   <tile gid="4201"/>
   <tile gid="4201"/>
   <tile gid="4201"/>
   <tile gid="4201"/>
   <tile gid="4201"/>
   <tile gid="4201"/>
   <tile gid="2152"/>
   <tile gid="2152"/>
   <tile/>
   <tile/>
   <tile/>
   <tile/>
   <tile gid="2152"/>
   <tile gid="2152"/>
   <tile gid="2152"/>
   <tile gid="4201"/>
   <tile gid="4201"/>
   <tile gid="4201"/>
   <tile gid="4201"/>
   <tile gid="4201"/>
   <tile gid="4201"/>
   <tile gid="4201"/>
   <tile gid="4201"/>
   <tile gid="4201"/>
   <tile gid="4201"/>
   <tile gid="4201"/>
   <tile gid="4201"/>
   <tile gid="4201"/>
   <tile gid="4201"/>
   <tile gid="4201"/>
   <tile gid="2152"/>
   <tile/>
   <tile/>
   <tile/>
   <tile/>
   <tile/>
   <tile/>
   <tile gid="2152"/>
   <tile gid="4201"/>
   <tile gid="4201"/>
   <tile gid="4201"/>
   <tile gid="4201"/>
   <tile gid="4201"/>
   <tile gid="4201"/>
   <tile gid="4201"/>
   <tile gid="4201"/>
   <tile gid="4201"/>
   <tile gid="4201"/>
   <tile gid="4201"/>
   <tile gid="4201"/>
   <tile gid="4201"/>
   <tile gid="4201"/>
   <tile gid="4201"/>
   <tile gid="4201"/>
   <tile gid="4201"/>
   <tile gid="4201"/>
   <tile gid="4201"/>
   <tile gid="4201"/>
   <tile gid="4201"/>
   <tile gid="4201"/>
   <tile gid="4201"/>
   <tile gid="4201"/>
   <tile gid="4201"/>
   <tile gid="4201"/>
   <tile gid="4201"/>
   <tile gid="4201"/>
   <tile gid="4201"/>
   <tile/>
   <tile/>
   <tile/>
   <tile/>
   <tile/>
   <tile/>
   <tile/>
   <tile gid="4201"/>
   <tile gid="4201"/>
   <tile gid="4201"/>
   <tile gid="4201"/>
   <tile gid="4201"/>
   <tile gid="4201"/>
   <tile gid="4201"/>
   <tile gid="4201"/>
   <tile gid="4201"/>
   <tile gid="4201"/>
   <tile gid="4201"/>
   <tile gid="4201"/>
   <tile gid="4201"/>
   <tile gid="4201"/>
   <tile gid="4201"/>
   <tile gid="4201"/>
   <tile gid="4201"/>
   <tile gid="4201"/>
   <tile gid="4201"/>
   <tile gid="4201"/>
   <tile gid="4201"/>
   <tile gid="4201"/>
   <tile gid="4201"/>
   <tile gid="4201"/>
   <tile gid="4201"/>
   <tile gid="4201"/>
   <tile gid="4201"/>
   <tile gid="4201"/>
   <tile gid="4201"/>
   <tile gid="4201"/>
   <tile gid="4201"/>
   <tile gid="4201"/>
   <tile gid="4201"/>
   <tile gid="4201"/>
   <tile gid="4201"/>
   <tile gid="4201"/>
   <tile gid="4201"/>
   <tile gid="4201"/>
   <tile gid="4201"/>
   <tile gid="4201"/>
   <tile gid="4201"/>
   <tile gid="4201"/>
   <tile gid="4201"/>
   <tile gid="4201"/>
   <tile gid="4201"/>
   <tile gid="4201"/>
   <tile gid="4201"/>
   <tile gid="4201"/>
   <tile gid="4201"/>
   <tile gid="4201"/>
   <tile gid="4201"/>
   <tile gid="4201"/>
   <tile gid="2152"/>
   <tile gid="2152"/>
   <tile gid="2152"/>
   <tile/>
   <tile/>
   <tile/>
   <tile gid="2152"/>
   <tile gid="2152"/>
   <tile gid="2152"/>
   <tile gid="4201"/>
   <tile gid="4201"/>
   <tile gid="4201"/>
   <tile gid="4201"/>
   <tile gid="4201"/>
   <tile gid="4201"/>
   <tile gid="4201"/>
   <tile gid="4201"/>
   <tile gid="4201"/>
   <tile gid="4201"/>
   <tile gid="4201"/>
   <tile gid="4201"/>
   <tile gid="4201"/>
   <tile gid="4201"/>
   <tile gid="4201"/>
   <tile/>
   <tile/>
   <tile/>
   <tile/>
   <tile/>
   <tile/>
   <tile/>
   <tile/>
   <tile gid="4201"/>
   <tile gid="4201"/>
   <tile gid="4201"/>
   <tile gid="4201"/>
   <tile gid="4201"/>
   <tile gid="4201"/>
   <tile gid="4201"/>
   <tile gid="4201"/>
   <tile gid="4201"/>
   <tile gid="4201"/>
   <tile gid="4201"/>
   <tile gid="4201"/>
   <tile gid="4201"/>
   <tile gid="4201"/>
   <tile gid="4201"/>
   <tile gid="4201"/>
   <tile gid="4201"/>
   <tile gid="4201"/>
   <tile gid="4201"/>
   <tile gid="4201"/>
   <tile gid="4201"/>
   <tile gid="4201"/>
   <tile gid="4201"/>
   <tile gid="4201"/>
   <tile gid="4201"/>
   <tile gid="4201"/>
   <tile gid="4201"/>
   <tile gid="4201"/>
   <tile gid="4201"/>
   <tile gid="2152"/>
   <tile/>
   <tile/>
   <tile/>
   <tile/>
   <tile/>
   <tile/>
   <tile gid="4201"/>
   <tile gid="4201"/>
   <tile gid="4201"/>
   <tile gid="4201"/>
   <tile gid="4201"/>
   <tile gid="4201"/>
   <tile gid="4201"/>
   <tile gid="4201"/>
   <tile gid="4201"/>
   <tile gid="4201"/>
   <tile gid="4201"/>
   <tile gid="4201"/>
   <tile gid="4201"/>
   <tile gid="4201"/>
   <tile gid="4201"/>
   <tile gid="4201"/>
   <tile gid="4201"/>
   <tile gid="4201"/>
   <tile gid="4201"/>
   <tile gid="4201"/>
   <tile gid="4201"/>
   <tile gid="4201"/>
   <tile gid="4201"/>
   <tile gid="4201"/>
   <tile gid="4201"/>
   <tile gid="4201"/>
   <tile gid="4201"/>
   <tile gid="4201"/>
   <tile gid="4201"/>
   <tile gid="4201"/>
   <tile gid="4201"/>
   <tile gid="4201"/>
   <tile gid="4201"/>
   <tile gid="4201"/>
   <tile gid="4201"/>
   <tile gid="4201"/>
   <tile gid="4201"/>
   <tile gid="4201"/>
   <tile gid="4201"/>
   <tile gid="4201"/>
   <tile gid="4201"/>
   <tile gid="4201"/>
   <tile gid="4201"/>
   <tile gid="4201"/>
   <tile gid="4201"/>
   <tile gid="4201"/>
   <tile gid="4201"/>
   <tile gid="4201"/>
   <tile gid="4201"/>
   <tile gid="4201"/>
   <tile gid="4201"/>
   <tile gid="4201"/>
   <tile gid="2152"/>
   <tile gid="2152"/>
   <tile gid="2152"/>
   <tile gid="2152"/>
   <tile gid="2152"/>
   <tile gid="2152"/>
   <tile gid="2152"/>
   <tile gid="2152"/>
   <tile gid="2152"/>
   <tile gid="4201"/>
   <tile gid="4201"/>
   <tile gid="4201"/>
   <tile gid="4201"/>
   <tile gid="4201"/>
   <tile gid="4201"/>
   <tile gid="4201"/>
   <tile gid="4201"/>
   <tile gid="4201"/>
   <tile gid="4201"/>
   <tile gid="4201"/>
   <tile gid="4201"/>
   <tile gid="4201"/>
   <tile gid="4201"/>
   <tile gid="4201"/>
   <tile/>
   <tile/>
   <tile/>
   <tile/>
   <tile/>
   <tile/>
   <tile/>
   <tile/>
   <tile gid="4201"/>
   <tile gid="4201"/>
   <tile gid="4201"/>
   <tile gid="4201"/>
   <tile gid="4201"/>
   <tile gid="4201"/>
   <tile gid="4201"/>
   <tile gid="4201"/>
   <tile gid="4201"/>
   <tile gid="4201"/>
   <tile gid="4201"/>
   <tile gid="4201"/>
   <tile gid="4201"/>
   <tile gid="4201"/>
   <tile gid="4201"/>
   <tile gid="4201"/>
   <tile gid="4201"/>
   <tile gid="4201"/>
   <tile gid="4201"/>
   <tile gid="4201"/>
   <tile gid="4201"/>
   <tile gid="4201"/>
   <tile gid="4201"/>
   <tile gid="4201"/>
   <tile gid="4201"/>
   <tile gid="4201"/>
   <tile gid="4201"/>
   <tile gid="4201"/>
   <tile gid="4201"/>
   <tile gid="2152"/>
   <tile gid="2152"/>
   <tile gid="2152"/>
   <tile gid="2152"/>
   <tile gid="2152"/>
   <tile gid="2152"/>
   <tile gid="2152"/>
   <tile gid="4201"/>
   <tile gid="4201"/>
   <tile gid="4201"/>
   <tile gid="4201"/>
   <tile gid="4201"/>
   <tile gid="4201"/>
   <tile gid="4201"/>
   <tile gid="4201"/>
   <tile gid="4201"/>
   <tile gid="4201"/>
   <tile gid="4201"/>
   <tile gid="4201"/>
   <tile gid="4201"/>
   <tile gid="4201"/>
   <tile gid="4201"/>
   <tile gid="4201"/>
   <tile gid="4201"/>
   <tile gid="4201"/>
   <tile gid="4201"/>
   <tile gid="4201"/>
   <tile gid="4201"/>
   <tile gid="4201"/>
   <tile gid="4201"/>
   <tile gid="4201"/>
   <tile gid="4201"/>
   <tile gid="4201"/>
   <tile gid="4201"/>
   <tile gid="4201"/>
   <tile gid="4201"/>
   <tile gid="4201"/>
   <tile gid="4201"/>
   <tile gid="4201"/>
   <tile gid="4201"/>
   <tile gid="4201"/>
   <tile gid="4201"/>
   <tile gid="4201"/>
   <tile gid="4201"/>
   <tile gid="4201"/>
   <tile gid="4201"/>
   <tile gid="4201"/>
   <tile gid="4201"/>
   <tile gid="4201"/>
   <tile gid="4201"/>
   <tile gid="4201"/>
   <tile gid="4201"/>
   <tile gid="4201"/>
   <tile gid="4201"/>
   <tile gid="4201"/>
   <tile gid="4201"/>
   <tile gid="4201"/>
   <tile gid="4201"/>
   <tile gid="4201"/>
   <tile gid="4201"/>
   <tile gid="4201"/>
   <tile gid="4201"/>
   <tile gid="4201"/>
   <tile gid="4201"/>
   <tile gid="4201"/>
   <tile gid="4201"/>
   <tile gid="4201"/>
   <tile gid="2152"/>
   <tile gid="4201"/>
   <tile gid="4201"/>
   <tile gid="4201"/>
   <tile gid="4201"/>
   <tile gid="4201"/>
   <tile gid="4201"/>
   <tile gid="4201"/>
   <tile gid="4201"/>
   <tile gid="4201"/>
   <tile gid="4201"/>
   <tile gid="4201"/>
   <tile gid="4201"/>
   <tile gid="4201"/>
   <tile gid="4201"/>
   <tile gid="4201"/>
   <tile/>
   <tile/>
   <tile/>
   <tile/>
   <tile/>
   <tile/>
   <tile/>
   <tile/>
   <tile gid="4201"/>
   <tile gid="4201"/>
   <tile gid="4201"/>
   <tile gid="4201"/>
   <tile gid="4201"/>
   <tile gid="4201"/>
   <tile gid="4201"/>
   <tile gid="4201"/>
   <tile gid="4201"/>
   <tile gid="4201"/>
   <tile gid="4201"/>
   <tile gid="4201"/>
   <tile gid="4201"/>
   <tile gid="4201"/>
   <tile gid="4201"/>
   <tile gid="4201"/>
   <tile gid="4201"/>
   <tile gid="4201"/>
   <tile gid="4201"/>
   <tile gid="4201"/>
   <tile gid="4201"/>
   <tile gid="4201"/>
   <tile gid="4201"/>
   <tile gid="4201"/>
   <tile gid="4201"/>
   <tile gid="4201"/>
   <tile gid="4201"/>
   <tile gid="4201"/>
   <tile gid="4201"/>
   <tile gid="4201"/>
   <tile gid="4201"/>
   <tile gid="4201"/>
   <tile gid="4201"/>
   <tile gid="4201"/>
   <tile gid="4201"/>
   <tile gid="4201"/>
   <tile gid="4201"/>
   <tile gid="4201"/>
   <tile gid="4201"/>
   <tile gid="4201"/>
   <tile gid="4201"/>
   <tile gid="4201"/>
   <tile gid="4201"/>
   <tile gid="4201"/>
   <tile gid="4201"/>
   <tile gid="4201"/>
   <tile gid="4201"/>
   <tile gid="4201"/>
   <tile gid="4201"/>
   <tile gid="4201"/>
   <tile gid="4201"/>
   <tile gid="4201"/>
   <tile gid="4201"/>
   <tile gid="4201"/>
   <tile gid="4201"/>
   <tile gid="4201"/>
   <tile gid="4201"/>
   <tile gid="4201"/>
   <tile gid="4201"/>
   <tile gid="4201"/>
   <tile gid="4201"/>
   <tile gid="4201"/>
   <tile gid="4201"/>
   <tile gid="4201"/>
   <tile gid="4201"/>
   <tile gid="4201"/>
   <tile gid="4201"/>
   <tile gid="4201"/>
   <tile gid="4201"/>
   <tile gid="4201"/>
   <tile gid="4201"/>
   <tile gid="4201"/>
   <tile gid="4201"/>
   <tile gid="4201"/>
   <tile gid="4201"/>
   <tile gid="4201"/>
   <tile gid="4201"/>
   <tile gid="4201"/>
   <tile gid="4201"/>
   <tile gid="4201"/>
   <tile gid="4201"/>
   <tile gid="4201"/>
   <tile gid="4201"/>
   <tile gid="4201"/>
   <tile gid="4201"/>
   <tile gid="4201"/>
   <tile gid="4201"/>
   <tile gid="4201"/>
   <tile gid="4201"/>
   <tile gid="4201"/>
   <tile gid="4201"/>
   <tile gid="4201"/>
   <tile gid="4201"/>
   <tile gid="4201"/>
   <tile gid="4201"/>
   <tile gid="4201"/>
   <tile gid="4201"/>
   <tile gid="4201"/>
   <tile gid="4201"/>
   <tile gid="4201"/>
   <tile gid="4201"/>
   <tile gid="4201"/>
   <tile gid="4201"/>
   <tile gid="4201"/>
   <tile gid="4201"/>
   <tile gid="4201"/>
   <tile gid="4201"/>
   <tile gid="4201"/>
   <tile gid="4201"/>
   <tile gid="4201"/>
   <tile gid="4201"/>
   <tile gid="4201"/>
   <tile/>
   <tile/>
   <tile/>
   <tile/>
   <tile/>
   <tile/>
   <tile/>
   <tile/>
   <tile gid="4201"/>
   <tile gid="4201"/>
   <tile gid="4201"/>
   <tile gid="4201"/>
   <tile gid="4201"/>
   <tile gid="4201"/>
   <tile gid="4201"/>
   <tile gid="4201"/>
   <tile gid="4201"/>
   <tile gid="4201"/>
   <tile gid="4201"/>
   <tile gid="4201"/>
   <tile gid="4201"/>
   <tile gid="4201"/>
   <tile gid="4201"/>
   <tile gid="4201"/>
   <tile gid="4201"/>
   <tile gid="4201"/>
   <tile gid="4201"/>
   <tile gid="4201"/>
   <tile gid="4201"/>
   <tile gid="4201"/>
   <tile gid="4201"/>
   <tile gid="4201"/>
   <tile gid="4201"/>
   <tile gid="4201"/>
   <tile gid="4201"/>
   <tile gid="4201"/>
   <tile gid="4201"/>
   <tile gid="4201"/>
   <tile gid="4201"/>
   <tile gid="4201"/>
   <tile gid="4201"/>
   <tile gid="4201"/>
   <tile gid="4201"/>
   <tile gid="4201"/>
   <tile gid="4201"/>
   <tile gid="4201"/>
   <tile gid="4201"/>
   <tile gid="4201"/>
   <tile gid="4201"/>
   <tile gid="4201"/>
   <tile gid="4201"/>
   <tile gid="4201"/>
   <tile gid="4201"/>
   <tile gid="4201"/>
   <tile gid="4201"/>
   <tile gid="4201"/>
   <tile gid="4201"/>
   <tile gid="4201"/>
   <tile gid="4201"/>
   <tile gid="4201"/>
   <tile gid="4201"/>
   <tile gid="4201"/>
   <tile gid="4201"/>
   <tile gid="4201"/>
   <tile gid="4201"/>
   <tile gid="4201"/>
   <tile gid="4201"/>
   <tile gid="4201"/>
   <tile gid="4201"/>
   <tile gid="4201"/>
   <tile gid="4201"/>
   <tile gid="4201"/>
   <tile gid="4201"/>
   <tile gid="4201"/>
   <tile gid="4201"/>
   <tile gid="4201"/>
   <tile gid="4201"/>
   <tile gid="4201"/>
   <tile gid="4201"/>
   <tile gid="4201"/>
   <tile gid="4201"/>
   <tile gid="4201"/>
   <tile gid="4201"/>
   <tile gid="4201"/>
   <tile gid="4201"/>
   <tile gid="4201"/>
   <tile gid="4201"/>
   <tile gid="4201"/>
   <tile gid="4201"/>
   <tile gid="4201"/>
   <tile gid="4201"/>
   <tile gid="4201"/>
   <tile gid="4201"/>
   <tile gid="4201"/>
   <tile gid="4201"/>
   <tile gid="4201"/>
   <tile gid="4201"/>
   <tile gid="4201"/>
   <tile gid="4201"/>
   <tile gid="4201"/>
   <tile gid="4201"/>
   <tile gid="4201"/>
   <tile gid="4201"/>
   <tile gid="4201"/>
   <tile gid="4201"/>
   <tile gid="4201"/>
   <tile gid="4201"/>
   <tile gid="4201"/>
   <tile gid="4201"/>
   <tile gid="4201"/>
   <tile gid="4201"/>
   <tile gid="4201"/>
   <tile gid="4201"/>
   <tile gid="4201"/>
   <tile gid="4201"/>
   <tile gid="4201"/>
   <tile gid="4201"/>
   <tile gid="4201"/>
   <tile gid="4201"/>
   <tile gid="4201"/>
   <tile/>
   <tile/>
   <tile/>
   <tile/>
   <tile/>
   <tile/>
   <tile/>
   <tile/>
   <tile gid="4201"/>
   <tile gid="4201"/>
   <tile gid="4201"/>
   <tile gid="4201"/>
   <tile gid="4201"/>
   <tile gid="4201"/>
   <tile gid="4201"/>
   <tile gid="4201"/>
   <tile gid="4201"/>
   <tile gid="4201"/>
   <tile gid="4201"/>
   <tile gid="4201"/>
   <tile gid="4201"/>
   <tile gid="4201"/>
   <tile gid="4201"/>
   <tile gid="4201"/>
   <tile gid="4201"/>
   <tile gid="4201"/>
   <tile gid="4201"/>
   <tile gid="4201"/>
   <tile gid="4201"/>
   <tile gid="4201"/>
   <tile gid="4201"/>
   <tile gid="4201"/>
   <tile gid="4201"/>
   <tile gid="4201"/>
   <tile gid="4201"/>
   <tile gid="4201"/>
   <tile gid="4201"/>
   <tile gid="4201"/>
   <tile gid="4201"/>
   <tile gid="4201"/>
   <tile gid="4201"/>
   <tile gid="4201"/>
   <tile gid="4201"/>
   <tile gid="4201"/>
   <tile gid="4201"/>
   <tile gid="4201"/>
   <tile gid="4201"/>
   <tile gid="4201"/>
   <tile gid="4201"/>
   <tile gid="4201"/>
   <tile gid="4201"/>
   <tile gid="4201"/>
   <tile gid="4201"/>
   <tile gid="4201"/>
   <tile gid="4201"/>
   <tile gid="4201"/>
   <tile gid="4201"/>
   <tile gid="4201"/>
   <tile gid="4201"/>
   <tile gid="4201"/>
   <tile gid="4201"/>
   <tile gid="4201"/>
   <tile gid="4201"/>
   <tile gid="4201"/>
   <tile gid="4201"/>
   <tile gid="4201"/>
   <tile gid="4201"/>
   <tile gid="4201"/>
   <tile gid="4201"/>
   <tile gid="4201"/>
   <tile gid="4201"/>
   <tile gid="4201"/>
   <tile gid="4201"/>
   <tile gid="4201"/>
   <tile gid="4201"/>
   <tile gid="4201"/>
   <tile gid="4201"/>
   <tile gid="4201"/>
   <tile gid="4201"/>
   <tile gid="4201"/>
   <tile gid="4201"/>
   <tile gid="4201"/>
   <tile gid="4201"/>
   <tile gid="4201"/>
   <tile gid="4201"/>
   <tile gid="4201"/>
   <tile gid="4201"/>
   <tile gid="4201"/>
   <tile gid="4201"/>
   <tile gid="4201"/>
   <tile gid="4201"/>
   <tile gid="4201"/>
   <tile gid="4201"/>
   <tile gid="4201"/>
   <tile gid="4201"/>
   <tile gid="4201"/>
   <tile gid="4201"/>
   <tile gid="4201"/>
   <tile gid="4201"/>
   <tile gid="4201"/>
   <tile gid="4201"/>
   <tile gid="4201"/>
   <tile gid="4201"/>
   <tile gid="4201"/>
   <tile gid="4201"/>
   <tile gid="4201"/>
   <tile gid="4201"/>
   <tile gid="4201"/>
   <tile gid="4201"/>
   <tile gid="4201"/>
   <tile gid="4201"/>
   <tile gid="4201"/>
   <tile gid="4201"/>
   <tile gid="4201"/>
   <tile gid="4201"/>
   <tile gid="4201"/>
   <tile gid="4201"/>
   <tile gid="4201"/>
   <tile gid="4201"/>
   <tile gid="4201"/>
   <tile/>
   <tile/>
   <tile/>
   <tile/>
   <tile/>
   <tile/>
   <tile/>
   <tile/>
   <tile gid="4201"/>
   <tile gid="4201"/>
   <tile gid="4201"/>
   <tile gid="4201"/>
   <tile gid="4201"/>
   <tile gid="4201"/>
   <tile gid="4201"/>
   <tile gid="4201"/>
   <tile gid="4201"/>
   <tile gid="4201"/>
   <tile gid="4201"/>
   <tile gid="4201"/>
   <tile gid="4201"/>
   <tile gid="4201"/>
   <tile gid="4201"/>
   <tile gid="4201"/>
   <tile gid="4201"/>
   <tile gid="4201"/>
   <tile gid="4201"/>
   <tile gid="4201"/>
   <tile gid="4201"/>
   <tile gid="4201"/>
   <tile gid="4201"/>
   <tile gid="4201"/>
   <tile gid="4201"/>
   <tile gid="4201"/>
   <tile gid="4201"/>
   <tile gid="4201"/>
   <tile gid="4201"/>
   <tile gid="4201"/>
   <tile gid="4201"/>
   <tile gid="4201"/>
   <tile gid="4201"/>
   <tile gid="4201"/>
   <tile gid="4201"/>
   <tile gid="4201"/>
   <tile gid="4201"/>
   <tile gid="4201"/>
   <tile gid="4201"/>
   <tile gid="4201"/>
   <tile gid="4201"/>
   <tile gid="4201"/>
   <tile gid="4201"/>
   <tile gid="4201"/>
   <tile gid="4201"/>
   <tile gid="4201"/>
   <tile gid="4201"/>
   <tile gid="4201"/>
   <tile gid="4201"/>
   <tile gid="4201"/>
   <tile gid="4201"/>
   <tile gid="4201"/>
   <tile gid="4201"/>
   <tile gid="4201"/>
   <tile gid="4201"/>
   <tile gid="4201"/>
   <tile gid="4201"/>
   <tile gid="4201"/>
   <tile gid="4201"/>
   <tile gid="4201"/>
   <tile gid="4201"/>
   <tile gid="4201"/>
   <tile gid="4201"/>
   <tile gid="4201"/>
   <tile gid="4201"/>
   <tile gid="4201"/>
   <tile gid="4201"/>
   <tile gid="4201"/>
   <tile gid="4201"/>
   <tile gid="4201"/>
   <tile gid="4201"/>
   <tile gid="4201"/>
   <tile gid="4201"/>
   <tile gid="4201"/>
   <tile gid="4201"/>
   <tile gid="4201"/>
   <tile gid="4201"/>
   <tile gid="4201"/>
   <tile gid="4201"/>
   <tile gid="4201"/>
   <tile gid="4201"/>
   <tile gid="4201"/>
   <tile gid="4201"/>
   <tile gid="4201"/>
   <tile gid="4201"/>
   <tile gid="4201"/>
   <tile gid="4201"/>
   <tile gid="4201"/>
   <tile gid="4201"/>
   <tile gid="4201"/>
   <tile gid="4201"/>
   <tile gid="4201"/>
   <tile gid="4201"/>
   <tile gid="4201"/>
   <tile gid="4201"/>
   <tile gid="4201"/>
   <tile gid="4201"/>
   <tile gid="4201"/>
   <tile gid="4201"/>
   <tile gid="4201"/>
   <tile gid="4201"/>
   <tile gid="4201"/>
   <tile gid="4201"/>
   <tile gid="4201"/>
   <tile gid="4201"/>
   <tile gid="4201"/>
   <tile gid="4201"/>
   <tile gid="4201"/>
   <tile gid="4201"/>
   <tile gid="4201"/>
   <tile gid="4201"/>
   <tile gid="4201"/>
   <tile gid="2152"/>
   <tile/>
   <tile/>
   <tile/>
   <tile/>
   <tile/>
   <tile gid="2152"/>
   <tile gid="2152"/>
   <tile gid="4201"/>
   <tile gid="4201"/>
   <tile gid="4201"/>
   <tile gid="4201"/>
   <tile gid="4201"/>
   <tile gid="4201"/>
   <tile gid="4201"/>
   <tile gid="4201"/>
   <tile gid="4201"/>
   <tile gid="4201"/>
   <tile gid="4201"/>
   <tile gid="4201"/>
   <tile gid="4201"/>
   <tile gid="4201"/>
   <tile gid="4201"/>
   <tile gid="4201"/>
   <tile gid="4201"/>
   <tile gid="4201"/>
   <tile gid="4201"/>
   <tile gid="4201"/>
   <tile gid="4201"/>
   <tile gid="4201"/>
   <tile gid="4201"/>
   <tile gid="4201"/>
   <tile gid="4201"/>
   <tile gid="4201"/>
   <tile gid="4201"/>
   <tile gid="4201"/>
   <tile gid="4201"/>
   <tile gid="4201"/>
   <tile gid="4201"/>
   <tile gid="4201"/>
   <tile gid="4201"/>
   <tile gid="4201"/>
   <tile gid="4201"/>
   <tile gid="4201"/>
   <tile gid="4201"/>
   <tile gid="4201"/>
   <tile gid="4201"/>
   <tile gid="4201"/>
   <tile gid="4201"/>
   <tile gid="4201"/>
   <tile gid="4201"/>
   <tile gid="4201"/>
   <tile gid="4201"/>
   <tile gid="4201"/>
   <tile gid="4201"/>
   <tile gid="4201"/>
   <tile gid="4201"/>
   <tile gid="4201"/>
   <tile gid="4201"/>
   <tile gid="4201"/>
   <tile gid="4201"/>
   <tile gid="4201"/>
   <tile gid="4201"/>
   <tile gid="4201"/>
   <tile gid="4201"/>
   <tile gid="4201"/>
   <tile gid="4201"/>
   <tile gid="4201"/>
   <tile gid="4201"/>
   <tile gid="4201"/>
   <tile gid="4201"/>
   <tile gid="4201"/>
   <tile gid="4201"/>
   <tile gid="4201"/>
   <tile gid="4201"/>
   <tile gid="4201"/>
   <tile gid="4201"/>
   <tile gid="4201"/>
   <tile gid="4201"/>
   <tile gid="4201"/>
   <tile gid="4201"/>
   <tile gid="4201"/>
   <tile gid="4201"/>
   <tile gid="4201"/>
   <tile gid="4201"/>
   <tile gid="4201"/>
   <tile gid="4201"/>
   <tile gid="4201"/>
   <tile gid="4201"/>
   <tile gid="4201"/>
   <tile gid="4201"/>
   <tile gid="4201"/>
   <tile gid="4201"/>
   <tile gid="4201"/>
   <tile gid="4201"/>
   <tile gid="4201"/>
   <tile gid="4201"/>
   <tile gid="4201"/>
   <tile gid="4201"/>
   <tile gid="4201"/>
   <tile gid="4201"/>
   <tile gid="4201"/>
   <tile gid="4201"/>
   <tile gid="4201"/>
   <tile gid="4201"/>
   <tile gid="4201"/>
   <tile gid="4201"/>
   <tile gid="4201"/>
   <tile gid="4201"/>
   <tile gid="4201"/>
   <tile gid="4201"/>
   <tile gid="4201"/>
   <tile gid="4201"/>
   <tile gid="4201"/>
   <tile gid="4201"/>
   <tile gid="4201"/>
   <tile gid="4201"/>
   <tile gid="4201"/>
   <tile gid="4201"/>
   <tile gid="4201"/>
   <tile gid="4201"/>
   <tile gid="4201"/>
   <tile gid="4201"/>
   <tile gid="4201"/>
   <tile gid="4201"/>
   <tile gid="4201"/>
   <tile gid="4201"/>
   <tile gid="4201"/>
   <tile gid="4201"/>
   <tile gid="4201"/>
   <tile gid="4201"/>
   <tile gid="4201"/>
   <tile gid="4201"/>
   <tile gid="4201"/>
   <tile gid="4201"/>
   <tile gid="4201"/>
   <tile gid="4201"/>
   <tile gid="4201"/>
   <tile gid="4201"/>
   <tile gid="4201"/>
   <tile gid="4201"/>
   <tile gid="4201"/>
   <tile gid="4201"/>
   <tile gid="4201"/>
   <tile gid="4201"/>
   <tile gid="4201"/>
   <tile gid="4201"/>
   <tile gid="4201"/>
   <tile gid="4201"/>
   <tile gid="4201"/>
   <tile gid="4201"/>
   <tile gid="4201"/>
   <tile gid="4201"/>
   <tile gid="4201"/>
   <tile gid="4201"/>
   <tile gid="4201"/>
   <tile gid="4201"/>
   <tile gid="4201"/>
   <tile gid="4201"/>
   <tile gid="4201"/>
   <tile gid="4201"/>
   <tile gid="4201"/>
   <tile gid="4201"/>
   <tile gid="4201"/>
   <tile gid="4201"/>
   <tile gid="4201"/>
   <tile gid="4201"/>
   <tile gid="4201"/>
   <tile gid="4201"/>
   <tile gid="4201"/>
   <tile gid="4201"/>
   <tile gid="4201"/>
   <tile gid="4201"/>
   <tile gid="4201"/>
   <tile gid="4201"/>
   <tile gid="4201"/>
   <tile gid="4201"/>
   <tile gid="4201"/>
   <tile gid="4201"/>
   <tile gid="4201"/>
   <tile gid="4201"/>
   <tile gid="4201"/>
   <tile gid="4201"/>
   <tile gid="4201"/>
   <tile gid="4201"/>
   <tile gid="4201"/>
   <tile gid="4201"/>
   <tile gid="4201"/>
   <tile gid="4201"/>
   <tile gid="4201"/>
   <tile gid="4201"/>
   <tile gid="4201"/>
   <tile gid="4201"/>
   <tile gid="4201"/>
   <tile gid="4201"/>
   <tile gid="4201"/>
   <tile gid="4201"/>
   <tile gid="4201"/>
   <tile gid="4201"/>
   <tile gid="4201"/>
   <tile gid="4201"/>
   <tile gid="2031"/>
   <tile gid="2031"/>
   <tile/>
   <tile/>
   <tile/>
   <tile gid="2031"/>
   <tile gid="2031"/>
   <tile gid="4201"/>
   <tile gid="4201"/>
   <tile gid="4201"/>
   <tile gid="4201"/>
   <tile gid="4201"/>
   <tile gid="4201"/>
   <tile gid="4201"/>
   <tile gid="4201"/>
   <tile gid="4201"/>
   <tile gid="4201"/>
   <tile gid="4201"/>
   <tile gid="4201"/>
   <tile gid="4201"/>
   <tile gid="4201"/>
   <tile gid="4201"/>
   <tile gid="4201"/>
   <tile gid="4201"/>
   <tile gid="4201"/>
   <tile gid="4201"/>
   <tile gid="4201"/>
   <tile gid="4201"/>
   <tile gid="4201"/>
   <tile gid="4201"/>
   <tile gid="4201"/>
   <tile gid="4201"/>
   <tile gid="4201"/>
   <tile gid="4201"/>
   <tile gid="4201"/>
   <tile gid="4201"/>
   <tile gid="4201"/>
   <tile gid="4201"/>
   <tile gid="4201"/>
   <tile gid="4201"/>
   <tile gid="4201"/>
   <tile gid="4201"/>
   <tile gid="4201"/>
   <tile gid="4201"/>
   <tile gid="4201"/>
   <tile gid="4201"/>
   <tile gid="4201"/>
   <tile gid="4201"/>
   <tile gid="4201"/>
   <tile gid="4201"/>
   <tile gid="4201"/>
   <tile gid="4201"/>
   <tile gid="4201"/>
   <tile gid="4201"/>
   <tile gid="4201"/>
   <tile gid="4201"/>
   <tile gid="4201"/>
   <tile gid="4201"/>
   <tile gid="4201"/>
   <tile gid="4201"/>
   <tile gid="4201"/>
   <tile gid="4201"/>
   <tile gid="4201"/>
   <tile gid="4201"/>
   <tile gid="4201"/>
   <tile gid="4201"/>
   <tile gid="4201"/>
   <tile gid="4201"/>
   <tile gid="4201"/>
   <tile gid="4201"/>
   <tile gid="4201"/>
   <tile gid="4201"/>
   <tile gid="4201"/>
   <tile gid="4201"/>
   <tile gid="4201"/>
   <tile gid="4201"/>
   <tile gid="4201"/>
   <tile gid="4201"/>
   <tile gid="4201"/>
   <tile gid="4201"/>
   <tile gid="4201"/>
   <tile gid="4201"/>
   <tile gid="4201"/>
   <tile gid="4201"/>
   <tile gid="4201"/>
   <tile gid="4201"/>
   <tile gid="1698"/>
   <tile gid="1699"/>
   <tile gid="1700"/>
   <tile gid="1701"/>
   <tile gid="1702"/>
   <tile gid="1703"/>
   <tile gid="1704"/>
   <tile gid="1705"/>
   <tile gid="1706"/>
   <tile gid="1707"/>
   <tile gid="1708"/>
   <tile gid="1709"/>
   <tile gid="1710"/>
   <tile gid="1711"/>
   <tile gid="1712"/>
   <tile gid="4201"/>
   <tile gid="4201"/>
   <tile gid="4201"/>
   <tile gid="4201"/>
   <tile gid="4201"/>
   <tile gid="4201"/>
   <tile gid="4201"/>
   <tile gid="4201"/>
   <tile gid="4201"/>
   <tile gid="4201"/>
   <tile gid="4201"/>
   <tile gid="4201"/>
   <tile gid="4201"/>
   <tile gid="4201"/>
   <tile gid="4201"/>
   <tile gid="4201"/>
   <tile gid="4201"/>
   <tile gid="4201"/>
   <tile gid="4201"/>
   <tile gid="2031"/>
   <tile/>
   <tile/>
   <tile/>
   <tile/>
   <tile/>
   <tile gid="2031"/>
   <tile gid="4201"/>
   <tile gid="4201"/>
   <tile gid="4201"/>
   <tile gid="4201"/>
   <tile gid="4201"/>
   <tile gid="4201"/>
   <tile gid="4201"/>
   <tile gid="4201"/>
   <tile gid="4201"/>
   <tile gid="4201"/>
   <tile gid="4201"/>
   <tile gid="4201"/>
   <tile gid="4201"/>
   <tile gid="4201"/>
   <tile gid="4201"/>
   <tile gid="4201"/>
   <tile gid="4201"/>
   <tile gid="4201"/>
   <tile gid="4201"/>
   <tile gid="4201"/>
   <tile gid="4201"/>
   <tile gid="4201"/>
   <tile gid="4201"/>
   <tile gid="4201"/>
   <tile gid="4201"/>
   <tile gid="4201"/>
   <tile gid="4201"/>
   <tile gid="4201"/>
   <tile gid="4201"/>
   <tile gid="4201"/>
   <tile gid="4201"/>
   <tile gid="4201"/>
   <tile gid="4201"/>
   <tile gid="4201"/>
   <tile gid="4201"/>
   <tile gid="4201"/>
   <tile gid="4201"/>
   <tile gid="4201"/>
   <tile gid="4201"/>
   <tile gid="4201"/>
   <tile gid="4201"/>
   <tile gid="4201"/>
   <tile gid="4201"/>
   <tile gid="4201"/>
   <tile gid="4201"/>
   <tile gid="4201"/>
   <tile gid="4201"/>
   <tile gid="4201"/>
   <tile gid="4201"/>
   <tile gid="4201"/>
   <tile gid="4201"/>
   <tile gid="4201"/>
   <tile gid="4201"/>
   <tile gid="4201"/>
   <tile gid="4201"/>
   <tile gid="4201"/>
   <tile gid="4201"/>
   <tile gid="4201"/>
   <tile gid="4201"/>
   <tile gid="4201"/>
   <tile gid="4201"/>
   <tile gid="4201"/>
   <tile gid="4201"/>
   <tile gid="4201"/>
   <tile gid="4201"/>
   <tile gid="4201"/>
   <tile gid="4201"/>
   <tile gid="4201"/>
   <tile gid="4201"/>
   <tile gid="4201"/>
   <tile gid="4201"/>
   <tile gid="4201"/>
   <tile gid="4201"/>
   <tile gid="4201"/>
   <tile gid="4201"/>
   <tile gid="4201"/>
   <tile gid="4201"/>
   <tile gid="4201"/>
   <tile gid="4201"/>
   <tile gid="1762"/>
   <tile gid="1763"/>
   <tile gid="1764"/>
   <tile gid="1765"/>
   <tile gid="1766"/>
   <tile gid="1767"/>
   <tile gid="1768"/>
   <tile gid="1769"/>
   <tile gid="1770"/>
   <tile gid="1771"/>
   <tile gid="1772"/>
   <tile gid="1773"/>
   <tile gid="1774"/>
   <tile gid="1775"/>
   <tile gid="1776"/>
   <tile gid="4201"/>
   <tile gid="4201"/>
   <tile gid="4201"/>
   <tile gid="4201"/>
   <tile gid="4201"/>
   <tile gid="4201"/>
   <tile gid="4201"/>
   <tile gid="4201"/>
   <tile gid="4201"/>
   <tile gid="4201"/>
   <tile gid="4201"/>
   <tile gid="4201"/>
   <tile gid="4201"/>
   <tile gid="4201"/>
   <tile gid="4201"/>
   <tile gid="4201"/>
   <tile gid="4201"/>
   <tile gid="4201"/>
   <tile gid="4201"/>
   <tile/>
   <tile/>
   <tile/>
   <tile/>
   <tile/>
   <tile/>
   <tile/>
   <tile gid="4201"/>
   <tile gid="4201"/>
   <tile gid="4201"/>
   <tile gid="4201"/>
   <tile gid="4201"/>
   <tile gid="4201"/>
   <tile gid="4201"/>
   <tile gid="4201"/>
   <tile gid="4201"/>
   <tile gid="4201"/>
   <tile gid="4201"/>
   <tile gid="4201"/>
   <tile gid="4201"/>
   <tile gid="4201"/>
   <tile gid="4201"/>
   <tile gid="4201"/>
   <tile gid="4201"/>
   <tile gid="4201"/>
   <tile gid="4201"/>
   <tile gid="4201"/>
   <tile gid="4201"/>
   <tile gid="4201"/>
   <tile gid="4201"/>
   <tile gid="4201"/>
   <tile gid="4201"/>
   <tile gid="4201"/>
   <tile gid="4201"/>
   <tile gid="4201"/>
   <tile gid="4201"/>
   <tile gid="4201"/>
   <tile gid="4201"/>
   <tile gid="4201"/>
   <tile gid="4201"/>
   <tile gid="4201"/>
   <tile gid="4201"/>
   <tile gid="4201"/>
   <tile gid="4201"/>
   <tile gid="4201"/>
   <tile gid="4201"/>
   <tile gid="4201"/>
   <tile gid="4201"/>
   <tile gid="4201"/>
   <tile gid="4201"/>
   <tile gid="2152"/>
   <tile gid="2153"/>
   <tile gid="2154"/>
   <tile gid="2155"/>
   <tile gid="2156"/>
   <tile gid="2157"/>
   <tile gid="2158"/>
   <tile gid="2159"/>
   <tile gid="2160"/>
   <tile gid="4201"/>
   <tile gid="4201"/>
   <tile gid="4201"/>
   <tile gid="4201"/>
   <tile gid="4201"/>
   <tile gid="4201"/>
   <tile gid="4201"/>
   <tile gid="4201"/>
   <tile gid="4201"/>
   <tile gid="4201"/>
   <tile gid="4201"/>
   <tile gid="4201"/>
   <tile gid="4201"/>
   <tile gid="4201"/>
   <tile gid="4201"/>
   <tile gid="4201"/>
   <tile gid="4201"/>
   <tile gid="4201"/>
   <tile gid="4201"/>
   <tile gid="4201"/>
   <tile gid="4201"/>
   <tile gid="4201"/>
   <tile gid="4201"/>
   <tile gid="4201"/>
   <tile gid="4201"/>
   <tile gid="4201"/>
   <tile gid="4201"/>
   <tile gid="1826"/>
   <tile gid="1827"/>
   <tile gid="1828"/>
   <tile gid="1829"/>
   <tile gid="1830"/>
   <tile gid="1831"/>
   <tile gid="1832"/>
   <tile gid="1833"/>
   <tile gid="1834"/>
   <tile gid="1835"/>
   <tile gid="1836"/>
   <tile gid="1837"/>
   <tile gid="1838"/>
   <tile gid="1839"/>
   <tile gid="1840"/>
   <tile gid="4201"/>
   <tile gid="4201"/>
   <tile gid="4201"/>
   <tile gid="4201"/>
   <tile gid="4201"/>
   <tile gid="4201"/>
   <tile gid="4201"/>
   <tile gid="4201"/>
   <tile gid="4201"/>
   <tile gid="4201"/>
   <tile gid="4201"/>
   <tile gid="4201"/>
   <tile gid="4201"/>
   <tile gid="4201"/>
   <tile gid="4201"/>
   <tile gid="4201"/>
   <tile gid="4201"/>
   <tile gid="4201"/>
   <tile gid="4201"/>
   <tile/>
   <tile/>
   <tile/>
   <tile/>
   <tile/>
   <tile/>
   <tile/>
   <tile gid="4201"/>
   <tile gid="4201"/>
   <tile gid="4201"/>
   <tile gid="4201"/>
   <tile gid="4201"/>
   <tile gid="4201"/>
   <tile gid="4201"/>
   <tile gid="4201"/>
   <tile gid="4201"/>
   <tile gid="4201"/>
   <tile gid="4201"/>
   <tile gid="4201"/>
   <tile gid="4201"/>
   <tile gid="4201"/>
   <tile gid="4201"/>
   <tile gid="4201"/>
   <tile gid="4201"/>
   <tile gid="4201"/>
   <tile gid="4201"/>
   <tile gid="4201"/>
   <tile gid="4201"/>
   <tile gid="4201"/>
   <tile gid="4201"/>
   <tile gid="4201"/>
   <tile gid="4201"/>
   <tile gid="4201"/>
   <tile gid="4201"/>
   <tile gid="4201"/>
   <tile gid="4201"/>
   <tile gid="4201"/>
   <tile gid="4201"/>
   <tile gid="4201"/>
   <tile gid="4201"/>
   <tile gid="4201"/>
   <tile gid="4201"/>
   <tile gid="4201"/>
   <tile gid="4201"/>
   <tile gid="4201"/>
   <tile gid="4201"/>
   <tile gid="4201"/>
   <tile gid="4201"/>
   <tile gid="4201"/>
   <tile gid="4201"/>
   <tile gid="2216"/>
   <tile gid="2217"/>
   <tile gid="2218"/>
   <tile gid="2219"/>
   <tile gid="2220"/>
   <tile gid="2221"/>
   <tile gid="2222"/>
   <tile gid="2223"/>
   <tile gid="2224"/>
   <tile gid="4201"/>
   <tile gid="4201"/>
   <tile gid="4201"/>
   <tile gid="4201"/>
   <tile gid="4201"/>
   <tile gid="4201"/>
   <tile gid="4201"/>
   <tile gid="4201"/>
   <tile gid="4201"/>
   <tile gid="4201"/>
   <tile gid="4201"/>
   <tile gid="4201"/>
   <tile gid="4201"/>
   <tile gid="4201"/>
   <tile gid="4201"/>
   <tile gid="4201"/>
   <tile gid="4201"/>
   <tile gid="4201"/>
   <tile gid="4201"/>
   <tile gid="4201"/>
   <tile gid="4201"/>
   <tile gid="4201"/>
   <tile gid="4201"/>
   <tile gid="4201"/>
   <tile gid="4201"/>
   <tile gid="4201"/>
   <tile gid="4201"/>
   <tile gid="1890"/>
   <tile gid="1891"/>
   <tile gid="1892"/>
   <tile gid="1893"/>
   <tile gid="1894"/>
   <tile gid="1895"/>
   <tile gid="1896"/>
   <tile gid="1897"/>
   <tile gid="1898"/>
   <tile gid="1899"/>
   <tile gid="1900"/>
   <tile gid="1901"/>
   <tile gid="1902"/>
   <tile gid="1903"/>
   <tile gid="1904"/>
   <tile gid="4201"/>
   <tile gid="4201"/>
   <tile gid="4201"/>
   <tile gid="4201"/>
   <tile gid="4201"/>
   <tile gid="4201"/>
   <tile gid="4201"/>
   <tile gid="4201"/>
   <tile gid="4201"/>
   <tile gid="4201"/>
   <tile gid="4201"/>
   <tile gid="4201"/>
   <tile gid="4201"/>
   <tile gid="4201"/>
   <tile gid="4201"/>
   <tile gid="4201"/>
   <tile gid="4201"/>
   <tile gid="4201"/>
   <tile gid="4201"/>
   <tile/>
   <tile/>
   <tile/>
   <tile/>
   <tile/>
   <tile/>
   <tile gid="2031"/>
   <tile gid="4201"/>
   <tile gid="4201"/>
   <tile gid="4201"/>
   <tile gid="4201"/>
   <tile gid="4201"/>
   <tile gid="4201"/>
   <tile gid="4201"/>
   <tile gid="4201"/>
   <tile gid="4201"/>
   <tile gid="4201"/>
   <tile gid="4201"/>
   <tile gid="2152"/>
   <tile gid="4201"/>
   <tile gid="4201"/>
   <tile gid="4201"/>
   <tile gid="4201"/>
   <tile gid="4201"/>
   <tile gid="4201"/>
   <tile gid="4201"/>
   <tile gid="4201"/>
   <tile gid="4201"/>
   <tile gid="4201"/>
   <tile gid="4201"/>
   <tile gid="4201"/>
   <tile gid="4201"/>
   <tile gid="4201"/>
   <tile gid="4201"/>
   <tile gid="4201"/>
   <tile gid="4201"/>
   <tile gid="4201"/>
   <tile gid="4201"/>
   <tile gid="4201"/>
   <tile gid="4201"/>
   <tile gid="4201"/>
   <tile gid="4201"/>
   <tile gid="4201"/>
   <tile gid="4201"/>
   <tile gid="4201"/>
   <tile gid="4201"/>
   <tile gid="4201"/>
   <tile gid="4201"/>
   <tile gid="4201"/>
   <tile gid="4201"/>
   <tile gid="2280"/>
   <tile gid="2281"/>
   <tile gid="2282"/>
   <tile gid="2283"/>
   <tile gid="2284"/>
   <tile gid="2285"/>
   <tile gid="2286"/>
   <tile gid="2287"/>
   <tile gid="2288"/>
   <tile gid="4201"/>
   <tile gid="4201"/>
   <tile gid="4201"/>
   <tile gid="4201"/>
   <tile gid="4201"/>
   <tile gid="4201"/>
   <tile gid="4201"/>
   <tile gid="4201"/>
   <tile gid="4201"/>
   <tile gid="4201"/>
   <tile gid="4201"/>
   <tile gid="4201"/>
   <tile gid="4201"/>
   <tile gid="4201"/>
   <tile gid="4201"/>
   <tile gid="4201"/>
   <tile gid="4201"/>
   <tile gid="4201"/>
   <tile gid="4201"/>
   <tile gid="4201"/>
   <tile gid="4201"/>
   <tile gid="4201"/>
   <tile gid="4201"/>
   <tile gid="4201"/>
   <tile gid="4201"/>
   <tile gid="4201"/>
   <tile gid="4201"/>
   <tile gid="1954"/>
   <tile gid="1955"/>
   <tile gid="1956"/>
   <tile gid="1957"/>
   <tile gid="1958"/>
   <tile gid="1959"/>
   <tile gid="1960"/>
   <tile gid="1961"/>
   <tile gid="1962"/>
   <tile gid="1963"/>
   <tile gid="1964"/>
   <tile gid="1965"/>
   <tile gid="1966"/>
   <tile gid="1967"/>
   <tile gid="1968"/>
   <tile gid="4201"/>
   <tile gid="4201"/>
   <tile gid="4201"/>
   <tile gid="4201"/>
   <tile gid="4201"/>
   <tile gid="4201"/>
   <tile gid="4201"/>
   <tile gid="4201"/>
   <tile gid="4201"/>
   <tile gid="4201"/>
   <tile gid="4201"/>
   <tile gid="4201"/>
   <tile gid="4201"/>
   <tile gid="4201"/>
   <tile gid="4201"/>
   <tile gid="4201"/>
   <tile gid="4201"/>
   <tile gid="4201"/>
   <tile gid="4201"/>
   <tile gid="2031"/>
   <tile gid="2031"/>
   <tile gid="2031"/>
   <tile gid="2031"/>
   <tile gid="2031"/>
   <tile gid="2031"/>
   <tile gid="2031"/>
   <tile gid="4201"/>
   <tile gid="4201"/>
   <tile gid="4201"/>
   <tile gid="4201"/>
   <tile gid="4201"/>
   <tile gid="4201"/>
   <tile gid="4201"/>
   <tile gid="4201"/>
   <tile gid="4201"/>
   <tile gid="4201"/>
   <tile gid="4201"/>
   <tile gid="4201"/>
   <tile gid="4201"/>
   <tile gid="4201"/>
   <tile gid="4201"/>
   <tile gid="4201"/>
   <tile gid="4201"/>
   <tile gid="4201"/>
   <tile gid="4201"/>
   <tile gid="4201"/>
   <tile gid="4201"/>
   <tile gid="4201"/>
   <tile gid="4201"/>
   <tile gid="4201"/>
   <tile gid="4201"/>
   <tile gid="4201"/>
   <tile gid="4201"/>
   <tile gid="4201"/>
   <tile gid="4201"/>
   <tile gid="4201"/>
   <tile gid="4201"/>
   <tile gid="4201"/>
   <tile gid="4201"/>
   <tile gid="4201"/>
   <tile gid="4201"/>
   <tile gid="4201"/>
   <tile gid="4201"/>
   <tile gid="4201"/>
   <tile gid="4201"/>
   <tile gid="4201"/>
   <tile gid="4201"/>
   <tile gid="4201"/>
   <tile gid="4201"/>
   <tile gid="2344"/>
   <tile gid="2345"/>
   <tile gid="2346"/>
   <tile gid="2347"/>
   <tile gid="2348"/>
   <tile gid="2349"/>
   <tile gid="2350"/>
   <tile gid="2351"/>
   <tile gid="2352"/>
   <tile gid="4201"/>
   <tile gid="4201"/>
   <tile gid="4201"/>
   <tile gid="4201"/>
   <tile gid="4201"/>
   <tile gid="4201"/>
   <tile gid="4201"/>
   <tile gid="4201"/>
   <tile gid="4201"/>
   <tile gid="4201"/>
   <tile gid="4201"/>
   <tile gid="4201"/>
   <tile gid="4201"/>
   <tile gid="4201"/>
   <tile gid="4201"/>
   <tile gid="4201"/>
   <tile gid="4201"/>
   <tile gid="4201"/>
   <tile gid="4201"/>
   <tile gid="4201"/>
   <tile gid="4201"/>
   <tile gid="4201"/>
   <tile gid="4201"/>
   <tile gid="4201"/>
   <tile gid="4201"/>
   <tile gid="4201"/>
   <tile gid="4201"/>
   <tile gid="2018"/>
   <tile gid="2019"/>
   <tile gid="2020"/>
   <tile gid="2021"/>
   <tile gid="2022"/>
   <tile gid="2023"/>
   <tile gid="2024"/>
   <tile gid="2025"/>
   <tile gid="2026"/>
   <tile gid="2027"/>
   <tile gid="2028"/>
   <tile gid="2029"/>
   <tile gid="2030"/>
   <tile gid="2031"/>
   <tile gid="2032"/>
   <tile gid="4201"/>
   <tile gid="4201"/>
   <tile gid="4201"/>
   <tile gid="4201"/>
   <tile gid="4201"/>
   <tile gid="4201"/>
   <tile gid="4201"/>
   <tile gid="4201"/>
   <tile gid="4201"/>
   <tile gid="4201"/>
   <tile gid="4201"/>
   <tile gid="4201"/>
   <tile gid="4201"/>
   <tile gid="4201"/>
   <tile gid="4201"/>
   <tile gid="4201"/>
   <tile gid="4201"/>
   <tile gid="4201"/>
   <tile gid="4201"/>
   <tile gid="4201"/>
   <tile gid="4201"/>
   <tile gid="4201"/>
   <tile gid="4201"/>
   <tile gid="4201"/>
   <tile gid="4201"/>
   <tile gid="4201"/>
   <tile gid="4201"/>
   <tile gid="4201"/>
   <tile gid="4201"/>
   <tile gid="4201"/>
   <tile gid="4201"/>
   <tile gid="4201"/>
   <tile gid="4201"/>
   <tile gid="4201"/>
   <tile gid="4201"/>
   <tile gid="4201"/>
   <tile gid="4201"/>
   <tile gid="4201"/>
   <tile gid="4201"/>
   <tile gid="4201"/>
   <tile gid="4201"/>
   <tile gid="4201"/>
   <tile gid="4201"/>
   <tile gid="4201"/>
   <tile gid="4201"/>
   <tile gid="4201"/>
   <tile gid="4201"/>
   <tile gid="4201"/>
   <tile gid="4201"/>
   <tile gid="4201"/>
   <tile gid="4201"/>
   <tile gid="4201"/>
   <tile gid="4201"/>
   <tile gid="4201"/>
   <tile gid="4201"/>
   <tile gid="4201"/>
   <tile gid="4201"/>
   <tile gid="4201"/>
   <tile gid="4201"/>
   <tile gid="4201"/>
   <tile gid="4201"/>
   <tile gid="4201"/>
   <tile gid="4201"/>
   <tile gid="4201"/>
   <tile gid="4201"/>
   <tile gid="4201"/>
   <tile gid="4201"/>
   <tile gid="4201"/>
   <tile gid="4201"/>
   <tile gid="4201"/>
   <tile gid="4201"/>
   <tile gid="4201"/>
   <tile gid="4201"/>
   <tile gid="4201"/>
   <tile gid="4201"/>
   <tile gid="4201"/>
   <tile gid="4201"/>
   <tile gid="4201"/>
   <tile gid="4201"/>
   <tile gid="4201"/>
   <tile gid="4201"/>
   <tile gid="4201"/>
   <tile gid="4201"/>
   <tile gid="4201"/>
   <tile gid="4201"/>
   <tile gid="4201"/>
   <tile gid="4201"/>
   <tile gid="4201"/>
   <tile gid="4201"/>
   <tile gid="4201"/>
   <tile gid="4201"/>
   <tile gid="4201"/>
   <tile gid="4201"/>
   <tile gid="4201"/>
   <tile gid="4201"/>
   <tile gid="4201"/>
   <tile gid="4201"/>
   <tile gid="4201"/>
   <tile gid="4201"/>
   <tile gid="4201"/>
   <tile gid="4201"/>
   <tile gid="4201"/>
   <tile gid="4201"/>
   <tile gid="4201"/>
   <tile gid="4201"/>
   <tile gid="2082"/>
   <tile gid="2083"/>
   <tile gid="2084"/>
   <tile gid="2085"/>
   <tile gid="2086"/>
   <tile gid="2087"/>
   <tile gid="2088"/>
   <tile gid="2089"/>
   <tile gid="2090"/>
   <tile gid="2091"/>
   <tile gid="2092"/>
   <tile gid="2093"/>
   <tile gid="2094"/>
   <tile gid="2095"/>
   <tile gid="2096"/>
   <tile gid="4201"/>
   <tile gid="4201"/>
   <tile gid="4201"/>
   <tile gid="4201"/>
   <tile gid="4201"/>
   <tile gid="4201"/>
   <tile gid="4201"/>
   <tile gid="4201"/>
   <tile gid="4201"/>
   <tile gid="4201"/>
   <tile gid="4201"/>
   <tile gid="4201"/>
   <tile gid="4201"/>
   <tile gid="4201"/>
   <tile gid="4201"/>
   <tile gid="4201"/>
   <tile gid="4201"/>
   <tile gid="4201"/>
   <tile gid="4201"/>
   <tile gid="4201"/>
   <tile gid="4201"/>
   <tile gid="4201"/>
   <tile gid="4201"/>
   <tile gid="4201"/>
   <tile gid="4201"/>
   <tile gid="4201"/>
   <tile gid="4201"/>
   <tile gid="4201"/>
   <tile gid="4201"/>
   <tile gid="4201"/>
   <tile gid="4201"/>
   <tile gid="4201"/>
   <tile gid="4201"/>
   <tile gid="4201"/>
   <tile gid="4201"/>
   <tile gid="4201"/>
   <tile gid="4201"/>
   <tile gid="4201"/>
   <tile gid="4201"/>
   <tile gid="4201"/>
   <tile gid="4201"/>
   <tile gid="4201"/>
   <tile gid="4201"/>
   <tile gid="4201"/>
   <tile gid="4201"/>
   <tile gid="4201"/>
   <tile gid="4201"/>
   <tile gid="4201"/>
   <tile gid="4201"/>
   <tile gid="4201"/>
   <tile gid="4201"/>
   <tile gid="4201"/>
   <tile gid="4201"/>
   <tile gid="4201"/>
   <tile gid="4201"/>
   <tile gid="4201"/>
   <tile gid="4201"/>
   <tile gid="4201"/>
   <tile gid="4201"/>
   <tile gid="4201"/>
   <tile gid="4201"/>
   <tile gid="4201"/>
   <tile gid="4201"/>
   <tile gid="4201"/>
   <tile gid="4201"/>
   <tile gid="4201"/>
   <tile gid="4201"/>
   <tile gid="4201"/>
   <tile gid="4201"/>
   <tile gid="4201"/>
   <tile gid="4201"/>
   <tile gid="4201"/>
   <tile gid="4201"/>
   <tile gid="4201"/>
   <tile gid="4201"/>
   <tile gid="4201"/>
   <tile gid="4201"/>
   <tile gid="4201"/>
   <tile gid="4201"/>
   <tile gid="4201"/>
   <tile gid="4201"/>
   <tile gid="4201"/>
   <tile gid="4201"/>
   <tile gid="4201"/>
   <tile gid="4201"/>
   <tile gid="4201"/>
   <tile gid="4201"/>
   <tile gid="4201"/>
   <tile gid="4201"/>
   <tile gid="4201"/>
   <tile gid="4201"/>
   <tile gid="4201"/>
   <tile gid="4201"/>
   <tile gid="4201"/>
   <tile gid="4201"/>
   <tile gid="4201"/>
   <tile gid="4201"/>
   <tile gid="4201"/>
   <tile gid="4201"/>
   <tile gid="4201"/>
   <tile gid="4201"/>
   <tile gid="4201"/>
   <tile gid="4201"/>
   <tile gid="4201"/>
   <tile gid="4201"/>
   <tile gid="4201"/>
   <tile gid="4201"/>
   <tile gid="4201"/>
   <tile gid="4201"/>
   <tile gid="4201"/>
   <tile gid="4201"/>
   <tile gid="4201"/>
   <tile gid="4201"/>
   <tile gid="4201"/>
   <tile gid="4201"/>
   <tile gid="4201"/>
   <tile gid="4201"/>
   <tile gid="4201"/>
   <tile gid="4201"/>
   <tile gid="4201"/>
   <tile gid="4201"/>
   <tile gid="4201"/>
   <tile gid="4201"/>
   <tile gid="4201"/>
   <tile gid="4201"/>
   <tile gid="4201"/>
   <tile gid="4201"/>
   <tile gid="4201"/>
   <tile gid="4201"/>
   <tile gid="4201"/>
   <tile gid="4201"/>
   <tile gid="4201"/>
   <tile gid="4201"/>
   <tile gid="4201"/>
   <tile gid="4201"/>
   <tile gid="4201"/>
   <tile gid="4201"/>
   <tile gid="4201"/>
   <tile gid="4201"/>
   <tile gid="4201"/>
   <tile gid="4201"/>
   <tile gid="4201"/>
   <tile gid="4201"/>
   <tile gid="4201"/>
   <tile gid="4201"/>
   <tile gid="4201"/>
   <tile gid="4201"/>
   <tile gid="4201"/>
   <tile gid="4201"/>
   <tile gid="4201"/>
   <tile gid="4201"/>
   <tile gid="4201"/>
   <tile gid="4201"/>
   <tile gid="4201"/>
   <tile gid="4201"/>
   <tile gid="4201"/>
   <tile gid="4201"/>
   <tile gid="4201"/>
   <tile gid="4201"/>
   <tile gid="4201"/>
   <tile gid="4201"/>
   <tile gid="4201"/>
   <tile gid="4201"/>
   <tile gid="4201"/>
   <tile gid="4201"/>
   <tile gid="4201"/>
   <tile gid="4201"/>
   <tile gid="4201"/>
   <tile gid="4201"/>
   <tile gid="4201"/>
   <tile gid="4201"/>
   <tile gid="4201"/>
   <tile gid="4201"/>
   <tile gid="4201"/>
   <tile gid="4201"/>
   <tile gid="4201"/>
   <tile gid="4201"/>
   <tile gid="4201"/>
   <tile gid="4201"/>
   <tile gid="4201"/>
   <tile gid="4201"/>
   <tile gid="4201"/>
   <tile gid="4201"/>
   <tile gid="4201"/>
   <tile gid="4201"/>
   <tile gid="4201"/>
   <tile gid="4201"/>
   <tile gid="4201"/>
   <tile gid="4201"/>
   <tile gid="4201"/>
   <tile gid="4201"/>
   <tile gid="4201"/>
   <tile gid="4201"/>
   <tile gid="4201"/>
   <tile gid="4201"/>
   <tile gid="4201"/>
   <tile gid="4201"/>
   <tile gid="4201"/>
   <tile gid="4201"/>
   <tile gid="4201"/>
   <tile gid="4201"/>
   <tile gid="4201"/>
   <tile gid="4201"/>
   <tile gid="4201"/>
   <tile gid="4201"/>
   <tile gid="4201"/>
   <tile gid="4201"/>
   <tile gid="4201"/>
   <tile gid="4201"/>
   <tile gid="4201"/>
   <tile gid="4201"/>
   <tile gid="4201"/>
   <tile gid="4201"/>
   <tile gid="4201"/>
   <tile gid="4201"/>
   <tile gid="4201"/>
   <tile gid="4201"/>
   <tile gid="4201"/>
   <tile gid="4201"/>
   <tile gid="4201"/>
   <tile gid="4201"/>
   <tile gid="4201"/>
   <tile gid="4201"/>
   <tile gid="4201"/>
   <tile gid="4201"/>
   <tile gid="4201"/>
   <tile gid="4201"/>
   <tile gid="4201"/>
   <tile gid="4201"/>
   <tile gid="4201"/>
   <tile gid="4201"/>
   <tile gid="4201"/>
   <tile gid="4201"/>
   <tile gid="4201"/>
   <tile gid="4201"/>
   <tile gid="4201"/>
   <tile gid="4201"/>
   <tile gid="4201"/>
   <tile gid="4201"/>
   <tile gid="4201"/>
   <tile gid="4201"/>
   <tile gid="4201"/>
   <tile gid="4201"/>
   <tile gid="4201"/>
   <tile gid="4201"/>
   <tile gid="4201"/>
   <tile gid="4201"/>
   <tile gid="4201"/>
   <tile gid="4201"/>
   <tile gid="4201"/>
   <tile gid="4201"/>
   <tile gid="4201"/>
   <tile gid="4201"/>
   <tile gid="4201"/>
   <tile gid="4201"/>
   <tile gid="4201"/>
   <tile gid="4201"/>
   <tile gid="4201"/>
   <tile gid="4201"/>
   <tile gid="4201"/>
   <tile gid="4201"/>
   <tile gid="4201"/>
   <tile gid="4201"/>
   <tile gid="4201"/>
   <tile gid="4201"/>
   <tile gid="4201"/>
   <tile gid="4201"/>
   <tile gid="4201"/>
   <tile gid="4201"/>
   <tile gid="4201"/>
   <tile gid="4201"/>
   <tile gid="4201"/>
   <tile gid="4201"/>
   <tile gid="4201"/>
   <tile gid="4201"/>
   <tile gid="4201"/>
   <tile gid="4201"/>
   <tile gid="4201"/>
   <tile gid="4201"/>
   <tile gid="4201"/>
   <tile gid="4201"/>
   <tile gid="4201"/>
   <tile gid="4201"/>
   <tile gid="4201"/>
   <tile gid="4201"/>
   <tile gid="4201"/>
   <tile gid="4201"/>
   <tile gid="4201"/>
   <tile gid="4201"/>
   <tile gid="4201"/>
   <tile gid="4201"/>
   <tile gid="4201"/>
   <tile gid="4201"/>
   <tile gid="4201"/>
   <tile gid="4201"/>
   <tile gid="4201"/>
   <tile gid="4201"/>
   <tile gid="4201"/>
   <tile gid="4201"/>
   <tile gid="4201"/>
   <tile gid="4201"/>
   <tile gid="4201"/>
   <tile gid="4201"/>
   <tile gid="4201"/>
   <tile gid="4201"/>
   <tile gid="4201"/>
   <tile gid="4201"/>
   <tile gid="4201"/>
   <tile gid="4201"/>
   <tile gid="4201"/>
   <tile gid="4201"/>
   <tile gid="4201"/>
   <tile gid="4201"/>
   <tile gid="4201"/>
   <tile gid="4201"/>
   <tile gid="4201"/>
   <tile gid="4201"/>
   <tile gid="4201"/>
   <tile gid="4201"/>
   <tile gid="4201"/>
   <tile gid="4201"/>
   <tile gid="4201"/>
   <tile gid="4201"/>
   <tile gid="4201"/>
   <tile gid="4201"/>
   <tile gid="4201"/>
   <tile gid="4201"/>
   <tile gid="4201"/>
   <tile gid="4201"/>
   <tile gid="4201"/>
   <tile gid="4201"/>
   <tile gid="4201"/>
   <tile gid="4201"/>
   <tile gid="4201"/>
   <tile gid="4201"/>
   <tile gid="4201"/>
   <tile gid="4201"/>
   <tile gid="4201"/>
   <tile gid="4201"/>
   <tile gid="4201"/>
   <tile gid="4201"/>
   <tile gid="4201"/>
   <tile gid="4201"/>
   <tile gid="4201"/>
   <tile gid="4201"/>
   <tile gid="4201"/>
   <tile gid="4201"/>
   <tile gid="4201"/>
   <tile gid="4201"/>
   <tile gid="4201"/>
   <tile gid="4201"/>
   <tile gid="4201"/>
   <tile gid="4201"/>
   <tile gid="4201"/>
   <tile gid="4201"/>
   <tile gid="4201"/>
   <tile gid="4201"/>
   <tile gid="4201"/>
   <tile gid="4201"/>
   <tile gid="4201"/>
   <tile gid="4201"/>
   <tile gid="4201"/>
   <tile gid="4201"/>
   <tile gid="4201"/>
   <tile gid="4201"/>
   <tile gid="4201"/>
   <tile gid="4201"/>
   <tile gid="4201"/>
   <tile gid="4201"/>
   <tile gid="4201"/>
   <tile gid="4201"/>
   <tile gid="4201"/>
   <tile gid="4201"/>
   <tile gid="4201"/>
   <tile gid="4201"/>
   <tile gid="4201"/>
   <tile gid="4201"/>
   <tile gid="4201"/>
   <tile gid="4201"/>
   <tile gid="4201"/>
   <tile gid="4201"/>
   <tile gid="4201"/>
   <tile gid="4201"/>
   <tile gid="4201"/>
   <tile gid="4201"/>
   <tile gid="4201"/>
   <tile gid="4201"/>
   <tile gid="4201"/>
   <tile gid="4201"/>
   <tile gid="4201"/>
   <tile gid="4201"/>
   <tile gid="4201"/>
   <tile gid="4201"/>
   <tile gid="4201"/>
   <tile gid="4201"/>
   <tile gid="4201"/>
   <tile gid="4201"/>
   <tile gid="4201"/>
   <tile gid="4201"/>
   <tile gid="4201"/>
   <tile gid="4201"/>
   <tile gid="4201"/>
   <tile gid="4201"/>
   <tile gid="4201"/>
   <tile gid="4201"/>
   <tile gid="4201"/>
   <tile gid="4201"/>
   <tile gid="4201"/>
   <tile gid="4201"/>
   <tile gid="4201"/>
   <tile gid="4201"/>
   <tile gid="4201"/>
   <tile gid="4201"/>
   <tile gid="4201"/>
   <tile gid="4201"/>
   <tile gid="4201"/>
   <tile gid="4201"/>
   <tile gid="4201"/>
   <tile gid="4201"/>
   <tile gid="4201"/>
   <tile gid="4201"/>
   <tile gid="4201"/>
   <tile gid="4201"/>
   <tile gid="4201"/>
   <tile gid="4201"/>
   <tile gid="4201"/>
   <tile gid="4201"/>
   <tile gid="4201"/>
   <tile gid="4201"/>
   <tile gid="4201"/>
   <tile gid="4201"/>
   <tile gid="4201"/>
   <tile gid="4201"/>
   <tile gid="4201"/>
   <tile gid="4201"/>
   <tile gid="4201"/>
   <tile gid="4201"/>
   <tile gid="4201"/>
   <tile gid="4201"/>
   <tile gid="4201"/>
   <tile gid="4201"/>
   <tile gid="4201"/>
   <tile gid="4201"/>
   <tile gid="4201"/>
   <tile gid="4201"/>
   <tile gid="4201"/>
   <tile gid="4201"/>
   <tile gid="4201"/>
   <tile gid="4201"/>
   <tile gid="4201"/>
   <tile gid="4201"/>
   <tile gid="4201"/>
   <tile gid="4201"/>
   <tile gid="4201"/>
   <tile gid="4201"/>
   <tile gid="4201"/>
   <tile gid="4201"/>
   <tile gid="4201"/>
   <tile gid="4201"/>
   <tile gid="4201"/>
   <tile gid="4201"/>
   <tile gid="4201"/>
   <tile gid="4201"/>
   <tile gid="4201"/>
   <tile gid="4201"/>
   <tile gid="4201"/>
   <tile gid="4201"/>
   <tile gid="4201"/>
   <tile gid="4201"/>
   <tile gid="4201"/>
   <tile gid="4201"/>
   <tile gid="4201"/>
   <tile gid="4201"/>
   <tile gid="4201"/>
   <tile gid="4201"/>
   <tile gid="4201"/>
   <tile gid="4201"/>
   <tile gid="4201"/>
   <tile gid="4201"/>
   <tile gid="4201"/>
   <tile gid="4201"/>
   <tile gid="4201"/>
   <tile gid="4201"/>
   <tile gid="4201"/>
   <tile gid="4201"/>
   <tile gid="4201"/>
   <tile gid="4201"/>
   <tile gid="4201"/>
   <tile gid="4201"/>
   <tile gid="4201"/>
   <tile gid="4201"/>
   <tile gid="4201"/>
   <tile gid="4201"/>
   <tile gid="4201"/>
   <tile gid="4201"/>
   <tile gid="4201"/>
   <tile gid="4201"/>
   <tile gid="4201"/>
   <tile gid="4201"/>
   <tile gid="4201"/>
   <tile gid="4201"/>
   <tile gid="4201"/>
   <tile gid="4201"/>
   <tile gid="4201"/>
   <tile gid="4201"/>
   <tile gid="4201"/>
   <tile gid="4201"/>
   <tile gid="4201"/>
   <tile gid="4201"/>
   <tile gid="4201"/>
   <tile gid="4201"/>
   <tile gid="4201"/>
   <tile gid="4201"/>
   <tile gid="4201"/>
   <tile gid="4201"/>
   <tile gid="4201"/>
   <tile gid="4201"/>
   <tile gid="4201"/>
   <tile gid="4201"/>
   <tile gid="4201"/>
   <tile gid="4201"/>
   <tile gid="4201"/>
   <tile gid="4201"/>
   <tile gid="4201"/>
   <tile gid="4201"/>
   <tile gid="4201"/>
   <tile gid="4201"/>
   <tile gid="4201"/>
   <tile gid="4201"/>
   <tile gid="4201"/>
   <tile gid="4201"/>
   <tile gid="4201"/>
   <tile gid="4201"/>
   <tile gid="4201"/>
   <tile gid="4201"/>
   <tile gid="4201"/>
   <tile gid="4201"/>
   <tile gid="4201"/>
   <tile gid="4201"/>
   <tile gid="4201"/>
   <tile gid="4201"/>
   <tile gid="4201"/>
   <tile gid="4201"/>
   <tile gid="4201"/>
   <tile gid="4201"/>
   <tile gid="4201"/>
   <tile gid="4201"/>
   <tile gid="4201"/>
   <tile gid="4201"/>
   <tile gid="4201"/>
   <tile gid="4201"/>
   <tile gid="4201"/>
   <tile gid="4201"/>
   <tile gid="4201"/>
   <tile gid="4201"/>
   <tile gid="4201"/>
   <tile gid="4201"/>
   <tile gid="4201"/>
   <tile gid="4201"/>
   <tile gid="4201"/>
   <tile gid="4201"/>
   <tile gid="4201"/>
   <tile gid="4201"/>
   <tile gid="4201"/>
   <tile gid="4201"/>
   <tile gid="4201"/>
   <tile gid="4201"/>
   <tile gid="4201"/>
   <tile gid="4201"/>
   <tile gid="4201"/>
   <tile gid="4201"/>
   <tile gid="4201"/>
   <tile gid="4201"/>
   <tile gid="4201"/>
   <tile gid="4201"/>
   <tile gid="4201"/>
   <tile gid="4201"/>
   <tile gid="4201"/>
   <tile gid="4201"/>
   <tile gid="4201"/>
   <tile gid="4201"/>
   <tile gid="4201"/>
   <tile gid="4201"/>
   <tile gid="4201"/>
   <tile gid="4201"/>
   <tile gid="4201"/>
   <tile gid="4201"/>
   <tile gid="4201"/>
   <tile gid="4201"/>
   <tile gid="4201"/>
   <tile gid="4201"/>
   <tile gid="4201"/>
   <tile gid="4201"/>
   <tile gid="4201"/>
   <tile gid="4201"/>
   <tile gid="4201"/>
   <tile gid="4201"/>
   <tile gid="4201"/>
   <tile gid="4201"/>
   <tile gid="4201"/>
   <tile gid="4201"/>
   <tile gid="4201"/>
   <tile gid="4201"/>
   <tile gid="4201"/>
   <tile gid="4201"/>
   <tile gid="4201"/>
   <tile gid="4201"/>
   <tile gid="4201"/>
   <tile gid="4201"/>
   <tile gid="4201"/>
   <tile gid="4201"/>
   <tile gid="4201"/>
   <tile gid="4201"/>
   <tile gid="4201"/>
   <tile gid="4201"/>
   <tile gid="4201"/>
   <tile gid="4201"/>
   <tile gid="4201"/>
   <tile gid="4201"/>
   <tile gid="4201"/>
   <tile gid="4201"/>
   <tile gid="4201"/>
   <tile gid="4201"/>
   <tile gid="4201"/>
   <tile gid="4201"/>
   <tile gid="4201"/>
   <tile gid="4201"/>
   <tile gid="4201"/>
   <tile gid="4201"/>
   <tile gid="4201"/>
   <tile gid="4201"/>
   <tile gid="4201"/>
   <tile gid="4201"/>
   <tile gid="4201"/>
   <tile gid="4201"/>
   <tile gid="4201"/>
   <tile gid="4201"/>
   <tile gid="4201"/>
   <tile gid="4201"/>
   <tile gid="4201"/>
   <tile gid="4201"/>
   <tile gid="4201"/>
   <tile gid="4201"/>
   <tile gid="4201"/>
   <tile gid="4201"/>
   <tile gid="4201"/>
   <tile gid="4201"/>
   <tile gid="4201"/>
   <tile gid="4201"/>
   <tile gid="4201"/>
   <tile gid="4201"/>
   <tile gid="4201"/>
   <tile gid="4201"/>
   <tile gid="4201"/>
   <tile gid="4201"/>
   <tile gid="4201"/>
   <tile gid="4201"/>
   <tile gid="4201"/>
   <tile gid="4201"/>
   <tile gid="4201"/>
   <tile gid="4201"/>
   <tile gid="4201"/>
   <tile gid="4201"/>
   <tile gid="4201"/>
   <tile gid="4201"/>
   <tile gid="4201"/>
   <tile gid="4201"/>
   <tile gid="4201"/>
   <tile gid="4201"/>
   <tile gid="4201"/>
   <tile gid="4201"/>
   <tile gid="4201"/>
   <tile gid="4201"/>
   <tile gid="4201"/>
   <tile gid="4201"/>
   <tile gid="4201"/>
   <tile gid="4201"/>
   <tile gid="4201"/>
   <tile gid="4201"/>
   <tile gid="4201"/>
   <tile gid="4201"/>
   <tile gid="4201"/>
   <tile gid="4201"/>
   <tile gid="4201"/>
   <tile gid="4201"/>
   <tile gid="4201"/>
   <tile gid="4201"/>
   <tile gid="4201"/>
   <tile gid="4201"/>
   <tile gid="4201"/>
   <tile gid="4201"/>
   <tile gid="4201"/>
   <tile gid="4201"/>
   <tile gid="4201"/>
   <tile gid="4201"/>
   <tile gid="4201"/>
   <tile gid="4201"/>
   <tile gid="4201"/>
   <tile gid="4201"/>
   <tile gid="4201"/>
   <tile gid="4201"/>
   <tile gid="4201"/>
   <tile gid="4201"/>
   <tile gid="4201"/>
   <tile gid="4201"/>
   <tile gid="4201"/>
   <tile gid="4201"/>
   <tile gid="4201"/>
   <tile gid="4201"/>
   <tile gid="4201"/>
   <tile gid="4201"/>
   <tile gid="4201"/>
   <tile gid="4201"/>
   <tile gid="4201"/>
   <tile gid="4201"/>
   <tile gid="4201"/>
   <tile gid="4201"/>
   <tile gid="4201"/>
   <tile gid="4201"/>
   <tile gid="4201"/>
   <tile gid="4201"/>
   <tile gid="4201"/>
   <tile gid="4201"/>
   <tile gid="4201"/>
   <tile gid="4201"/>
   <tile gid="4201"/>
   <tile gid="4201"/>
   <tile gid="4201"/>
   <tile gid="4201"/>
   <tile gid="4201"/>
   <tile gid="4201"/>
   <tile gid="4201"/>
   <tile gid="4201"/>
   <tile gid="4201"/>
   <tile gid="4201"/>
   <tile gid="4201"/>
   <tile gid="4201"/>
   <tile gid="4201"/>
   <tile gid="4201"/>
   <tile gid="4201"/>
   <tile gid="4201"/>
   <tile gid="4201"/>
   <tile gid="4201"/>
   <tile gid="4201"/>
   <tile gid="4201"/>
   <tile gid="4201"/>
   <tile gid="4201"/>
   <tile gid="4201"/>
   <tile gid="4201"/>
   <tile gid="4201"/>
   <tile gid="4201"/>
   <tile gid="4201"/>
   <tile gid="4201"/>
   <tile gid="4201"/>
   <tile gid="4201"/>
   <tile gid="4201"/>
   <tile gid="4201"/>
   <tile gid="4201"/>
   <tile gid="4201"/>
   <tile gid="4201"/>
   <tile gid="4201"/>
   <tile gid="4201"/>
   <tile gid="4201"/>
   <tile gid="4201"/>
   <tile gid="4201"/>
   <tile gid="4201"/>
   <tile gid="4201"/>
   <tile gid="4201"/>
   <tile gid="4201"/>
   <tile gid="4201"/>
   <tile gid="4201"/>
   <tile gid="4201"/>
   <tile gid="4201"/>
   <tile gid="4201"/>
   <tile gid="4201"/>
   <tile gid="4201"/>
   <tile gid="4201"/>
   <tile gid="4201"/>
   <tile gid="4201"/>
   <tile gid="4201"/>
   <tile gid="4201"/>
   <tile gid="4201"/>
   <tile gid="4201"/>
   <tile gid="4201"/>
   <tile gid="4201"/>
   <tile gid="4201"/>
   <tile gid="4201"/>
   <tile gid="4201"/>
   <tile gid="4201"/>
   <tile gid="4201"/>
   <tile gid="4201"/>
   <tile gid="4201"/>
   <tile gid="4201"/>
   <tile gid="4201"/>
   <tile gid="4201"/>
   <tile gid="4201"/>
   <tile gid="4201"/>
   <tile gid="4201"/>
   <tile gid="4201"/>
   <tile gid="4201"/>
   <tile gid="4201"/>
   <tile gid="4201"/>
   <tile gid="4201"/>
   <tile gid="4201"/>
   <tile gid="4201"/>
   <tile gid="4201"/>
   <tile gid="4201"/>
   <tile gid="4201"/>
   <tile gid="4201"/>
   <tile gid="4201"/>
   <tile gid="4201"/>
   <tile gid="4201"/>
   <tile gid="4201"/>
   <tile gid="4201"/>
   <tile gid="4201"/>
   <tile gid="4201"/>
   <tile gid="4201"/>
   <tile gid="4201"/>
   <tile gid="4201"/>
   <tile gid="4201"/>
   <tile gid="4201"/>
   <tile gid="4201"/>
   <tile gid="4201"/>
   <tile gid="4201"/>
   <tile gid="4201"/>
   <tile gid="4201"/>
   <tile gid="4201"/>
   <tile gid="4201"/>
   <tile gid="4201"/>
   <tile gid="4201"/>
   <tile gid="4201"/>
   <tile gid="4201"/>
   <tile gid="4201"/>
   <tile gid="4201"/>
   <tile gid="4201"/>
   <tile gid="4201"/>
   <tile gid="4201"/>
   <tile gid="4201"/>
   <tile gid="4201"/>
   <tile gid="4201"/>
   <tile gid="4201"/>
   <tile gid="4201"/>
   <tile gid="4201"/>
   <tile gid="4201"/>
   <tile gid="4201"/>
   <tile gid="4201"/>
   <tile gid="4201"/>
   <tile gid="4201"/>
   <tile gid="4201"/>
   <tile gid="4201"/>
   <tile gid="4201"/>
   <tile gid="4201"/>
   <tile gid="4201"/>
   <tile gid="4201"/>
   <tile gid="4201"/>
   <tile gid="4201"/>
   <tile gid="4201"/>
   <tile gid="4201"/>
   <tile gid="4201"/>
   <tile gid="4201"/>
   <tile gid="4201"/>
   <tile gid="4201"/>
   <tile gid="4201"/>
   <tile gid="4201"/>
   <tile gid="4201"/>
   <tile gid="4201"/>
   <tile gid="4201"/>
   <tile gid="4201"/>
   <tile gid="4201"/>
   <tile gid="4201"/>
   <tile gid="4201"/>
   <tile gid="4201"/>
   <tile gid="4201"/>
   <tile gid="4201"/>
   <tile gid="4201"/>
   <tile gid="4201"/>
   <tile gid="4201"/>
   <tile gid="4201"/>
   <tile gid="4201"/>
   <tile gid="4201"/>
   <tile gid="4201"/>
   <tile gid="4201"/>
   <tile gid="4201"/>
   <tile gid="4201"/>
   <tile gid="4201"/>
   <tile gid="4201"/>
   <tile gid="4201"/>
   <tile gid="4201"/>
   <tile gid="4201"/>
   <tile gid="4201"/>
   <tile gid="4201"/>
   <tile gid="4201"/>
   <tile gid="4201"/>
   <tile gid="4201"/>
   <tile gid="4201"/>
   <tile gid="4201"/>
   <tile gid="4201"/>
   <tile gid="4201"/>
   <tile gid="4201"/>
   <tile gid="4201"/>
   <tile gid="4201"/>
   <tile gid="4201"/>
   <tile gid="4201"/>
   <tile gid="4201"/>
   <tile gid="4201"/>
   <tile gid="4201"/>
   <tile gid="4201"/>
   <tile gid="4201"/>
   <tile gid="4201"/>
   <tile gid="4201"/>
   <tile gid="4201"/>
   <tile gid="4201"/>
   <tile gid="4201"/>
   <tile gid="4201"/>
   <tile gid="4201"/>
   <tile gid="4201"/>
   <tile gid="4201"/>
   <tile gid="4201"/>
   <tile gid="4201"/>
   <tile gid="4201"/>
   <tile gid="4201"/>
   <tile gid="4201"/>
   <tile gid="4201"/>
   <tile gid="4201"/>
   <tile gid="4201"/>
   <tile gid="4201"/>
   <tile gid="4201"/>
   <tile gid="4201"/>
   <tile gid="4201"/>
   <tile gid="4201"/>
   <tile gid="4201"/>
   <tile gid="4201"/>
   <tile gid="4201"/>
   <tile gid="4201"/>
   <tile gid="4201"/>
   <tile gid="4201"/>
   <tile gid="4201"/>
   <tile gid="4201"/>
   <tile gid="4201"/>
   <tile gid="4201"/>
   <tile gid="4201"/>
   <tile gid="4201"/>
   <tile gid="4201"/>
   <tile gid="4201"/>
   <tile gid="4201"/>
   <tile gid="4201"/>
   <tile gid="4201"/>
   <tile gid="4201"/>
   <tile gid="4201"/>
   <tile gid="4201"/>
   <tile gid="4201"/>
   <tile gid="4201"/>
   <tile gid="4201"/>
   <tile gid="4201"/>
   <tile gid="4201"/>
   <tile gid="4201"/>
   <tile gid="4201"/>
   <tile gid="4201"/>
   <tile gid="4201"/>
   <tile gid="4201"/>
   <tile gid="4201"/>
   <tile gid="4201"/>
   <tile gid="4201"/>
   <tile gid="4201"/>
   <tile gid="4201"/>
   <tile gid="4201"/>
   <tile gid="4201"/>
   <tile gid="4201"/>
   <tile gid="4201"/>
   <tile gid="4201"/>
   <tile gid="4201"/>
   <tile gid="4201"/>
   <tile gid="4201"/>
   <tile gid="4201"/>
   <tile gid="4201"/>
   <tile gid="4201"/>
   <tile gid="4201"/>
   <tile gid="4201"/>
   <tile gid="4201"/>
   <tile gid="4201"/>
   <tile gid="4201"/>
   <tile gid="4201"/>
   <tile gid="4201"/>
   <tile gid="4201"/>
   <tile gid="4201"/>
   <tile gid="4201"/>
   <tile gid="4201"/>
   <tile gid="4201"/>
   <tile gid="4201"/>
   <tile gid="4201"/>
   <tile gid="4201"/>
   <tile gid="4201"/>
   <tile gid="4201"/>
   <tile gid="4201"/>
   <tile gid="2152"/>
   <tile gid="2152"/>
   <tile gid="2152"/>
   <tile gid="2152"/>
   <tile gid="2152"/>
   <tile gid="2152"/>
   <tile gid="4201"/>
   <tile gid="4201"/>
   <tile gid="4201"/>
   <tile gid="4201"/>
   <tile gid="4201"/>
   <tile gid="4201"/>
   <tile gid="4201"/>
   <tile gid="4201"/>
   <tile gid="4201"/>
   <tile gid="4201"/>
   <tile gid="4201"/>
   <tile gid="4201"/>
   <tile gid="4201"/>
   <tile gid="4201"/>
   <tile gid="4201"/>
   <tile gid="4201"/>
   <tile gid="4201"/>
   <tile gid="4201"/>
   <tile gid="4201"/>
   <tile gid="4201"/>
   <tile gid="4201"/>
   <tile gid="4201"/>
   <tile gid="4201"/>
   <tile gid="4201"/>
   <tile gid="4201"/>
   <tile gid="4201"/>
   <tile gid="4201"/>
   <tile gid="4201"/>
   <tile gid="4201"/>
   <tile gid="4201"/>
   <tile gid="4201"/>
   <tile gid="4201"/>
   <tile gid="4201"/>
   <tile gid="4201"/>
   <tile gid="4201"/>
   <tile gid="4201"/>
   <tile gid="4201"/>
   <tile gid="4201"/>
   <tile gid="4201"/>
   <tile gid="4201"/>
   <tile gid="4201"/>
   <tile gid="4201"/>
   <tile gid="4201"/>
   <tile gid="4201"/>
   <tile gid="4201"/>
   <tile gid="4201"/>
   <tile gid="4201"/>
   <tile gid="4201"/>
   <tile gid="4201"/>
   <tile gid="4201"/>
   <tile gid="4201"/>
   <tile gid="4201"/>
   <tile gid="4201"/>
   <tile gid="4201"/>
   <tile gid="4201"/>
   <tile gid="4201"/>
   <tile gid="4201"/>
   <tile gid="4201"/>
   <tile gid="4201"/>
   <tile gid="4201"/>
   <tile gid="4201"/>
   <tile gid="4201"/>
   <tile gid="4201"/>
   <tile gid="4201"/>
   <tile gid="4201"/>
   <tile gid="4201"/>
   <tile gid="4201"/>
   <tile gid="4201"/>
   <tile gid="4201"/>
   <tile gid="4201"/>
   <tile gid="4201"/>
   <tile gid="4201"/>
   <tile gid="4201"/>
   <tile gid="4201"/>
   <tile gid="4201"/>
   <tile gid="4201"/>
   <tile gid="4201"/>
   <tile gid="4201"/>
   <tile gid="4201"/>
   <tile gid="4201"/>
   <tile gid="4201"/>
   <tile gid="4201"/>
   <tile gid="4201"/>
   <tile gid="4201"/>
   <tile gid="4201"/>
   <tile gid="4201"/>
   <tile gid="4201"/>
   <tile gid="4201"/>
   <tile gid="4201"/>
   <tile gid="4201"/>
   <tile gid="4201"/>
   <tile gid="4201"/>
   <tile gid="4201"/>
   <tile gid="4201"/>
   <tile gid="4201"/>
   <tile gid="4201"/>
   <tile gid="4201"/>
   <tile gid="4201"/>
   <tile gid="4201"/>
   <tile gid="4201"/>
   <tile gid="4201"/>
   <tile gid="4201"/>
   <tile gid="4201"/>
   <tile gid="4201"/>
   <tile gid="4201"/>
   <tile gid="4201"/>
   <tile gid="4201"/>
   <tile gid="4201"/>
   <tile gid="4201"/>
   <tile gid="4201"/>
   <tile gid="4201"/>
   <tile gid="4201"/>
   <tile gid="4201"/>
   <tile gid="4201"/>
   <tile gid="2152"/>
   <tile gid="2152"/>
   <tile gid="2152"/>
   <tile gid="2152"/>
   <tile gid="2152"/>
   <tile gid="2152"/>
   <tile gid="4201"/>
   <tile gid="4201"/>
   <tile gid="4201"/>
   <tile gid="4201"/>
   <tile gid="4201"/>
   <tile gid="4201"/>
   <tile gid="4201"/>
   <tile gid="4201"/>
   <tile gid="4201"/>
   <tile gid="4201"/>
   <tile gid="4201"/>
   <tile gid="4201"/>
   <tile gid="4201"/>
   <tile gid="4201"/>
   <tile gid="4201"/>
   <tile gid="4201"/>
   <tile gid="4201"/>
   <tile gid="4201"/>
   <tile gid="4201"/>
   <tile gid="4201"/>
   <tile gid="4201"/>
   <tile gid="4201"/>
   <tile gid="4201"/>
   <tile gid="4201"/>
   <tile gid="4201"/>
   <tile gid="4201"/>
   <tile gid="4201"/>
   <tile gid="4201"/>
   <tile gid="4201"/>
   <tile gid="4201"/>
   <tile gid="4201"/>
   <tile gid="4201"/>
   <tile gid="4201"/>
   <tile gid="4201"/>
   <tile gid="4201"/>
   <tile gid="4201"/>
   <tile gid="4201"/>
   <tile gid="4201"/>
   <tile gid="4201"/>
   <tile gid="4201"/>
   <tile gid="4201"/>
   <tile gid="4201"/>
   <tile gid="4201"/>
   <tile gid="4201"/>
   <tile gid="4201"/>
   <tile gid="4201"/>
   <tile gid="4201"/>
   <tile gid="4201"/>
   <tile gid="4201"/>
   <tile gid="4201"/>
   <tile gid="4201"/>
   <tile gid="4201"/>
   <tile gid="4201"/>
   <tile gid="4201"/>
   <tile gid="4201"/>
   <tile gid="4201"/>
   <tile gid="4201"/>
   <tile gid="4201"/>
   <tile gid="4201"/>
   <tile gid="4201"/>
   <tile gid="4201"/>
   <tile gid="4201"/>
   <tile gid="4201"/>
   <tile gid="4201"/>
   <tile gid="4201"/>
   <tile gid="4201"/>
   <tile gid="4201"/>
   <tile gid="4201"/>
   <tile gid="4201"/>
   <tile gid="4201"/>
   <tile gid="4201"/>
   <tile gid="4201"/>
   <tile gid="4201"/>
   <tile gid="4201"/>
   <tile gid="4201"/>
   <tile gid="4201"/>
   <tile gid="4201"/>
   <tile gid="4201"/>
   <tile gid="4201"/>
   <tile gid="4201"/>
   <tile gid="4201"/>
   <tile gid="4201"/>
   <tile gid="4201"/>
   <tile gid="4201"/>
   <tile gid="4201"/>
   <tile gid="4201"/>
   <tile gid="4201"/>
   <tile gid="4201"/>
   <tile gid="4201"/>
   <tile gid="4201"/>
   <tile gid="4201"/>
   <tile gid="4201"/>
   <tile gid="4201"/>
   <tile gid="4201"/>
   <tile gid="4201"/>
   <tile gid="4201"/>
   <tile gid="4201"/>
   <tile gid="4201"/>
   <tile gid="4201"/>
   <tile gid="4201"/>
   <tile gid="4201"/>
   <tile gid="4201"/>
   <tile gid="4201"/>
   <tile gid="4201"/>
   <tile gid="4201"/>
   <tile gid="4201"/>
   <tile gid="4201"/>
   <tile gid="4201"/>
   <tile gid="4201"/>
   <tile gid="4201"/>
   <tile gid="4201"/>
   <tile gid="4201"/>
   <tile gid="4201"/>
   <tile gid="4201"/>
   <tile/>
   <tile/>
   <tile/>
   <tile/>
   <tile/>
   <tile/>
   <tile/>
   <tile gid="2152"/>
   <tile gid="4201"/>
   <tile gid="4201"/>
   <tile gid="4201"/>
   <tile gid="4201"/>
   <tile gid="4201"/>
   <tile gid="4201"/>
   <tile gid="4201"/>
   <tile gid="4201"/>
   <tile gid="4201"/>
   <tile gid="4201"/>
   <tile gid="4201"/>
   <tile gid="4201"/>
   <tile gid="4201"/>
   <tile gid="4201"/>
   <tile gid="4201"/>
   <tile gid="4201"/>
   <tile gid="4201"/>
   <tile gid="4201"/>
   <tile gid="4201"/>
   <tile gid="4201"/>
   <tile gid="4201"/>
   <tile gid="4201"/>
   <tile gid="4201"/>
   <tile gid="4201"/>
   <tile gid="4201"/>
   <tile gid="4201"/>
   <tile gid="4201"/>
   <tile gid="4201"/>
   <tile gid="4201"/>
   <tile gid="4201"/>
   <tile gid="4201"/>
   <tile gid="4201"/>
   <tile gid="4201"/>
   <tile gid="4201"/>
   <tile gid="4201"/>
   <tile gid="4201"/>
   <tile gid="4201"/>
   <tile gid="4201"/>
   <tile gid="4201"/>
   <tile gid="4201"/>
   <tile gid="4201"/>
   <tile gid="4201"/>
   <tile gid="4201"/>
   <tile gid="4201"/>
   <tile gid="4201"/>
   <tile gid="4201"/>
   <tile gid="4201"/>
   <tile gid="4201"/>
   <tile gid="4201"/>
   <tile gid="4201"/>
   <tile gid="4201"/>
   <tile gid="4201"/>
   <tile gid="4201"/>
   <tile gid="4201"/>
   <tile gid="4201"/>
   <tile gid="4201"/>
   <tile gid="4201"/>
   <tile gid="4201"/>
   <tile gid="4201"/>
   <tile gid="4201"/>
   <tile gid="4201"/>
   <tile gid="4201"/>
   <tile gid="4201"/>
   <tile gid="4201"/>
   <tile gid="4201"/>
   <tile gid="4201"/>
   <tile gid="4201"/>
   <tile gid="4201"/>
   <tile gid="4201"/>
   <tile gid="4201"/>
   <tile gid="4201"/>
   <tile gid="4201"/>
   <tile gid="4201"/>
   <tile gid="4201"/>
   <tile gid="4201"/>
   <tile gid="4201"/>
   <tile gid="4201"/>
   <tile gid="4201"/>
   <tile gid="4201"/>
   <tile gid="4201"/>
   <tile gid="4201"/>
   <tile gid="4201"/>
   <tile gid="4201"/>
   <tile gid="4201"/>
   <tile gid="4201"/>
   <tile gid="4201"/>
   <tile gid="4201"/>
   <tile gid="4201"/>
   <tile gid="4201"/>
   <tile gid="4201"/>
   <tile gid="4201"/>
   <tile gid="4201"/>
   <tile gid="4201"/>
   <tile gid="4201"/>
   <tile gid="4201"/>
   <tile gid="4201"/>
   <tile gid="4201"/>
   <tile gid="4201"/>
   <tile gid="4201"/>
   <tile gid="4201"/>
   <tile gid="4201"/>
   <tile gid="4201"/>
   <tile gid="4201"/>
   <tile gid="4201"/>
   <tile gid="4201"/>
   <tile gid="4201"/>
   <tile gid="4201"/>
   <tile gid="4201"/>
   <tile gid="4201"/>
   <tile gid="4201"/>
   <tile gid="4201"/>
   <tile gid="4201"/>
   <tile/>
   <tile/>
   <tile/>
   <tile/>
   <tile/>
   <tile/>
   <tile/>
   <tile gid="2152"/>
   <tile gid="4201"/>
   <tile gid="4201"/>
   <tile gid="4201"/>
   <tile gid="4201"/>
   <tile gid="4201"/>
   <tile gid="4201"/>
   <tile gid="4201"/>
   <tile gid="4201"/>
   <tile gid="4201"/>
   <tile gid="4201"/>
   <tile gid="4201"/>
   <tile gid="4201"/>
   <tile gid="4201"/>
   <tile gid="4201"/>
   <tile gid="4201"/>
   <tile gid="4201"/>
   <tile gid="4201"/>
   <tile gid="4201"/>
   <tile gid="4201"/>
   <tile gid="4201"/>
   <tile gid="4201"/>
   <tile gid="4201"/>
   <tile gid="4201"/>
   <tile gid="4201"/>
   <tile gid="4201"/>
   <tile gid="4201"/>
   <tile gid="4201"/>
   <tile gid="4201"/>
   <tile gid="4201"/>
   <tile gid="4201"/>
   <tile gid="4201"/>
   <tile gid="4201"/>
   <tile gid="4201"/>
   <tile gid="4201"/>
   <tile gid="4201"/>
   <tile gid="4201"/>
   <tile gid="4201"/>
   <tile gid="4201"/>
   <tile gid="4201"/>
   <tile gid="4201"/>
   <tile gid="4201"/>
   <tile gid="4201"/>
   <tile gid="4201"/>
   <tile gid="4201"/>
   <tile gid="4201"/>
   <tile gid="4201"/>
   <tile gid="4201"/>
   <tile gid="4201"/>
   <tile gid="4201"/>
   <tile gid="4201"/>
   <tile gid="4201"/>
   <tile gid="4201"/>
   <tile gid="4201"/>
   <tile gid="4201"/>
   <tile gid="4201"/>
   <tile gid="4201"/>
   <tile gid="4201"/>
   <tile gid="4201"/>
   <tile gid="4201"/>
   <tile gid="4201"/>
   <tile gid="4201"/>
   <tile gid="4201"/>
   <tile gid="4201"/>
   <tile gid="4201"/>
   <tile gid="4201"/>
   <tile gid="4201"/>
   <tile gid="4201"/>
   <tile gid="4201"/>
   <tile gid="4201"/>
   <tile gid="4201"/>
   <tile gid="4201"/>
   <tile gid="4201"/>
   <tile gid="4201"/>
   <tile gid="4201"/>
   <tile gid="4201"/>
   <tile gid="4201"/>
   <tile gid="4201"/>
   <tile gid="4201"/>
   <tile gid="4201"/>
   <tile gid="4201"/>
   <tile gid="4201"/>
   <tile gid="4201"/>
   <tile gid="4201"/>
   <tile gid="4201"/>
   <tile gid="4201"/>
   <tile gid="4201"/>
   <tile gid="4201"/>
   <tile gid="4201"/>
   <tile gid="4201"/>
   <tile gid="4201"/>
   <tile gid="4201"/>
   <tile gid="4201"/>
   <tile gid="4201"/>
   <tile gid="4201"/>
   <tile gid="4201"/>
   <tile gid="4201"/>
   <tile gid="4201"/>
   <tile gid="4201"/>
   <tile gid="4201"/>
   <tile gid="4201"/>
   <tile gid="4201"/>
   <tile gid="4201"/>
   <tile gid="4201"/>
   <tile gid="4201"/>
   <tile gid="4201"/>
   <tile gid="4201"/>
   <tile gid="4201"/>
   <tile gid="4201"/>
   <tile gid="4201"/>
   <tile gid="4201"/>
   <tile gid="4201"/>
   <tile gid="4201"/>
   <tile/>
   <tile/>
   <tile/>
   <tile/>
   <tile/>
   <tile/>
   <tile/>
   <tile gid="2152"/>
   <tile gid="4201"/>
   <tile gid="4201"/>
   <tile gid="4201"/>
   <tile gid="4201"/>
   <tile gid="4201"/>
   <tile gid="4201"/>
   <tile gid="4201"/>
   <tile gid="4201"/>
   <tile gid="4201"/>
   <tile gid="4201"/>
   <tile gid="4201"/>
   <tile gid="4201"/>
   <tile gid="4201"/>
   <tile gid="4201"/>
   <tile gid="4201"/>
   <tile gid="4201"/>
   <tile gid="4201"/>
   <tile gid="4201"/>
   <tile gid="4201"/>
   <tile gid="4201"/>
   <tile gid="4201"/>
   <tile gid="4201"/>
   <tile gid="4201"/>
   <tile gid="4201"/>
   <tile gid="4201"/>
   <tile gid="4201"/>
   <tile gid="4201"/>
   <tile gid="4201"/>
   <tile gid="4201"/>
   <tile gid="4201"/>
   <tile gid="4201"/>
   <tile gid="4201"/>
   <tile gid="4201"/>
   <tile gid="4201"/>
   <tile gid="4201"/>
   <tile gid="4201"/>
   <tile gid="4201"/>
   <tile gid="4201"/>
   <tile gid="4201"/>
   <tile gid="4201"/>
   <tile gid="4201"/>
   <tile gid="4201"/>
   <tile gid="4201"/>
   <tile gid="4201"/>
   <tile gid="4201"/>
   <tile gid="4201"/>
   <tile gid="4201"/>
   <tile gid="4201"/>
   <tile gid="4201"/>
   <tile gid="4201"/>
   <tile gid="4201"/>
   <tile gid="4201"/>
   <tile gid="4201"/>
   <tile gid="4201"/>
   <tile gid="4201"/>
   <tile gid="4201"/>
   <tile gid="4201"/>
   <tile gid="4201"/>
   <tile gid="4201"/>
   <tile gid="4201"/>
   <tile gid="4201"/>
   <tile gid="4201"/>
   <tile gid="4201"/>
   <tile gid="4201"/>
   <tile gid="4201"/>
   <tile gid="4201"/>
   <tile gid="4201"/>
   <tile gid="4201"/>
   <tile gid="4201"/>
   <tile gid="4201"/>
   <tile gid="4201"/>
   <tile gid="4201"/>
   <tile gid="4201"/>
   <tile gid="4201"/>
   <tile gid="4201"/>
   <tile gid="4201"/>
   <tile gid="4201"/>
   <tile gid="4201"/>
   <tile gid="4201"/>
   <tile gid="4201"/>
   <tile gid="4201"/>
   <tile gid="4201"/>
   <tile gid="4201"/>
   <tile gid="4201"/>
   <tile gid="4201"/>
   <tile gid="4201"/>
   <tile gid="4201"/>
   <tile gid="4201"/>
   <tile gid="4201"/>
   <tile gid="4201"/>
   <tile gid="4201"/>
   <tile gid="4201"/>
   <tile gid="4201"/>
   <tile gid="4201"/>
   <tile gid="4201"/>
   <tile gid="4201"/>
   <tile gid="4201"/>
   <tile gid="4201"/>
   <tile gid="4201"/>
   <tile gid="4201"/>
   <tile gid="4201"/>
   <tile/>
   <tile/>
   <tile gid="4201"/>
   <tile gid="4201"/>
   <tile gid="4201"/>
   <tile gid="4201"/>
   <tile gid="4201"/>
   <tile gid="4201"/>
   <tile gid="4201"/>
   <tile gid="4201"/>
   <tile gid="4201"/>
   <tile/>
   <tile/>
   <tile/>
   <tile/>
   <tile/>
   <tile/>
   <tile/>
   <tile gid="2152"/>
   <tile gid="4201"/>
   <tile gid="4201"/>
   <tile gid="4201"/>
   <tile gid="4201"/>
   <tile gid="4201"/>
   <tile gid="4201"/>
   <tile gid="4201"/>
   <tile gid="4201"/>
   <tile gid="4201"/>
   <tile gid="4201"/>
   <tile gid="4201"/>
   <tile gid="4201"/>
   <tile gid="4201"/>
   <tile gid="4201"/>
   <tile gid="4201"/>
   <tile gid="4201"/>
   <tile gid="4201"/>
   <tile gid="4201"/>
   <tile gid="4201"/>
   <tile gid="4201"/>
   <tile gid="4201"/>
   <tile gid="4201"/>
   <tile gid="4201"/>
   <tile gid="4201"/>
   <tile gid="4201"/>
   <tile gid="4201"/>
   <tile gid="4201"/>
   <tile gid="4201"/>
   <tile gid="4201"/>
   <tile gid="4201"/>
   <tile gid="4201"/>
   <tile gid="4201"/>
   <tile gid="4201"/>
   <tile gid="4201"/>
   <tile gid="4201"/>
   <tile gid="4201"/>
   <tile gid="4201"/>
   <tile gid="4201"/>
   <tile gid="4201"/>
   <tile gid="4201"/>
   <tile gid="4201"/>
   <tile gid="4201"/>
   <tile gid="4201"/>
   <tile gid="4201"/>
   <tile gid="4201"/>
   <tile gid="4201"/>
   <tile gid="4201"/>
   <tile gid="4201"/>
   <tile gid="4201"/>
   <tile gid="4201"/>
   <tile gid="4201"/>
   <tile gid="4201"/>
   <tile gid="4201"/>
   <tile gid="4201"/>
   <tile gid="4201"/>
   <tile gid="4201"/>
   <tile gid="4201"/>
   <tile gid="4201"/>
   <tile gid="4201"/>
   <tile gid="4201"/>
   <tile gid="4201"/>
   <tile gid="4201"/>
   <tile gid="4201"/>
   <tile gid="4201"/>
   <tile gid="4201"/>
   <tile gid="4201"/>
   <tile gid="4201"/>
   <tile gid="4201"/>
   <tile gid="4201"/>
   <tile gid="4201"/>
   <tile gid="4201"/>
   <tile gid="4201"/>
   <tile gid="4201"/>
   <tile gid="4201"/>
   <tile gid="4201"/>
   <tile gid="4201"/>
   <tile gid="4201"/>
   <tile gid="4201"/>
   <tile gid="4201"/>
   <tile gid="4201"/>
   <tile gid="4201"/>
   <tile gid="4201"/>
   <tile gid="4201"/>
   <tile gid="4201"/>
   <tile gid="4201"/>
   <tile gid="4201"/>
   <tile gid="4201"/>
   <tile gid="4201"/>
   <tile gid="4201"/>
   <tile gid="4201"/>
   <tile gid="4201"/>
   <tile gid="4201"/>
   <tile gid="4201"/>
   <tile gid="4201"/>
   <tile gid="4201"/>
   <tile gid="4201"/>
   <tile gid="4201"/>
   <tile gid="4201"/>
   <tile gid="4201"/>
   <tile gid="4201"/>
   <tile/>
   <tile/>
   <tile/>
   <tile gid="4201"/>
   <tile gid="4201"/>
   <tile gid="4201"/>
   <tile gid="4201"/>
   <tile gid="4201"/>
   <tile gid="4201"/>
   <tile gid="4201"/>
   <tile gid="4201"/>
   <tile gid="4201"/>
   <tile/>
   <tile/>
   <tile/>
   <tile/>
   <tile/>
   <tile/>
   <tile/>
   <tile gid="2152"/>
   <tile gid="4201"/>
   <tile gid="4201"/>
   <tile gid="4201"/>
   <tile gid="4201"/>
   <tile gid="4201"/>
   <tile gid="4201"/>
   <tile gid="4201"/>
   <tile gid="4201"/>
   <tile gid="4201"/>
   <tile gid="4201"/>
   <tile gid="4201"/>
   <tile gid="4201"/>
   <tile gid="4201"/>
   <tile gid="4201"/>
   <tile gid="4201"/>
   <tile gid="4201"/>
   <tile gid="4201"/>
   <tile gid="4201"/>
   <tile gid="4201"/>
   <tile gid="4201"/>
   <tile gid="4201"/>
   <tile gid="4201"/>
   <tile gid="4201"/>
   <tile gid="4201"/>
   <tile gid="4201"/>
   <tile gid="4201"/>
   <tile gid="4201"/>
   <tile gid="4201"/>
   <tile gid="4201"/>
   <tile gid="4201"/>
   <tile gid="4201"/>
   <tile gid="4201"/>
   <tile gid="4201"/>
   <tile gid="4201"/>
   <tile gid="4201"/>
   <tile gid="4201"/>
   <tile gid="4201"/>
   <tile gid="4201"/>
   <tile gid="4201"/>
   <tile gid="4201"/>
   <tile gid="4201"/>
   <tile gid="4201"/>
   <tile gid="4201"/>
   <tile gid="4201"/>
   <tile gid="4201"/>
   <tile gid="4201"/>
   <tile gid="4201"/>
   <tile gid="4201"/>
   <tile gid="4201"/>
   <tile gid="4201"/>
   <tile gid="4201"/>
   <tile gid="4201"/>
   <tile gid="4201"/>
   <tile gid="4201"/>
   <tile gid="4201"/>
   <tile gid="4201"/>
   <tile gid="4201"/>
   <tile gid="4201"/>
   <tile gid="4201"/>
   <tile gid="4201"/>
   <tile gid="4201"/>
   <tile gid="4201"/>
   <tile gid="4201"/>
   <tile gid="4201"/>
   <tile gid="4201"/>
   <tile gid="4201"/>
   <tile gid="4201"/>
   <tile gid="4201"/>
   <tile gid="4201"/>
   <tile gid="4201"/>
   <tile gid="4201"/>
   <tile gid="4201"/>
   <tile gid="4201"/>
   <tile gid="4201"/>
   <tile gid="4201"/>
   <tile gid="4201"/>
   <tile gid="4201"/>
   <tile gid="4201"/>
   <tile gid="4201"/>
   <tile gid="4201"/>
   <tile gid="4201"/>
   <tile gid="4201"/>
   <tile gid="4201"/>
   <tile gid="4201"/>
   <tile gid="4201"/>
   <tile gid="4201"/>
   <tile gid="4201"/>
   <tile gid="4201"/>
   <tile gid="4201"/>
   <tile gid="4201"/>
   <tile gid="4201"/>
   <tile gid="4201"/>
   <tile gid="4201"/>
   <tile gid="4201"/>
   <tile gid="4201"/>
   <tile gid="4201"/>
   <tile gid="4201"/>
   <tile gid="4201"/>
   <tile gid="4201"/>
   <tile gid="4201"/>
   <tile/>
   <tile/>
   <tile/>
   <tile gid="4201"/>
   <tile gid="4201"/>
   <tile gid="4201"/>
   <tile gid="4201"/>
   <tile gid="4201"/>
   <tile gid="4201"/>
   <tile gid="4201"/>
   <tile gid="4201"/>
   <tile gid="4201"/>
   <tile gid="2152"/>
   <tile/>
   <tile/>
   <tile/>
   <tile/>
   <tile/>
   <tile gid="2152"/>
   <tile gid="2152"/>
   <tile gid="4201"/>
   <tile gid="4201"/>
   <tile gid="4201"/>
   <tile gid="4201"/>
   <tile gid="4201"/>
   <tile gid="4201"/>
   <tile gid="4201"/>
   <tile gid="4201"/>
   <tile gid="4201"/>
   <tile gid="4201"/>
   <tile gid="4201"/>
   <tile gid="4201"/>
   <tile gid="4201"/>
   <tile gid="4201"/>
   <tile gid="4201"/>
   <tile gid="4201"/>
   <tile gid="4201"/>
   <tile gid="4201"/>
   <tile gid="4201"/>
   <tile gid="4201"/>
   <tile gid="4201"/>
   <tile gid="4201"/>
   <tile gid="4201"/>
   <tile gid="4201"/>
   <tile gid="4201"/>
   <tile gid="4201"/>
   <tile gid="4201"/>
   <tile gid="4201"/>
   <tile gid="4201"/>
   <tile gid="4201"/>
   <tile gid="4201"/>
   <tile gid="4201"/>
   <tile gid="4201"/>
   <tile gid="4201"/>
   <tile gid="4201"/>
   <tile gid="4201"/>
   <tile gid="4201"/>
   <tile gid="4201"/>
   <tile gid="4201"/>
   <tile gid="4201"/>
   <tile gid="4201"/>
   <tile gid="4201"/>
   <tile gid="4201"/>
   <tile gid="4201"/>
   <tile gid="4201"/>
   <tile gid="4201"/>
   <tile gid="4201"/>
   <tile gid="4201"/>
   <tile gid="4201"/>
   <tile gid="4201"/>
   <tile gid="4201"/>
   <tile gid="4201"/>
   <tile gid="4201"/>
   <tile gid="4201"/>
   <tile gid="4201"/>
   <tile gid="4201"/>
   <tile gid="4201"/>
   <tile gid="4201"/>
   <tile gid="4201"/>
   <tile gid="4201"/>
   <tile gid="4201"/>
   <tile gid="4201"/>
   <tile gid="4201"/>
   <tile gid="4201"/>
   <tile gid="4201"/>
   <tile gid="4201"/>
   <tile gid="4201"/>
   <tile gid="4201"/>
   <tile gid="4201"/>
   <tile gid="4201"/>
   <tile gid="4201"/>
   <tile gid="4201"/>
   <tile gid="4201"/>
   <tile gid="4201"/>
   <tile gid="4201"/>
   <tile gid="4201"/>
   <tile gid="4201"/>
   <tile gid="4201"/>
   <tile gid="4201"/>
   <tile gid="4201"/>
   <tile gid="4201"/>
   <tile gid="4201"/>
   <tile gid="4201"/>
   <tile gid="4201"/>
   <tile gid="4201"/>
   <tile gid="4201"/>
   <tile gid="4201"/>
   <tile gid="4201"/>
   <tile gid="4201"/>
   <tile gid="4201"/>
   <tile gid="4201"/>
   <tile gid="4201"/>
   <tile gid="4201"/>
   <tile gid="4201"/>
   <tile gid="4201"/>
   <tile gid="4201"/>
   <tile gid="4201"/>
   <tile gid="4201"/>
   <tile gid="4201"/>
   <tile gid="4201"/>
   <tile/>
   <tile/>
   <tile/>
   <tile gid="4201"/>
   <tile gid="4201"/>
   <tile gid="4201"/>
   <tile gid="4201"/>
   <tile gid="4201"/>
   <tile gid="4201"/>
   <tile gid="4201"/>
   <tile gid="4201"/>
   <tile gid="4201"/>
   <tile gid="2152"/>
   <tile/>
   <tile/>
   <tile/>
   <tile/>
   <tile/>
   <tile gid="2152"/>
   <tile gid="2152"/>
   <tile gid="4201"/>
   <tile gid="4201"/>
   <tile gid="4201"/>
   <tile gid="4201"/>
   <tile gid="4201"/>
   <tile gid="4201"/>
   <tile gid="4201"/>
   <tile gid="4201"/>
   <tile gid="4201"/>
   <tile gid="4201"/>
   <tile gid="4201"/>
   <tile gid="4201"/>
   <tile gid="4201"/>
   <tile gid="4201"/>
   <tile gid="4201"/>
   <tile gid="4201"/>
   <tile gid="4201"/>
   <tile gid="4201"/>
   <tile gid="4201"/>
   <tile gid="4201"/>
   <tile gid="4201"/>
   <tile gid="4201"/>
   <tile gid="4201"/>
   <tile gid="4201"/>
   <tile gid="4201"/>
   <tile gid="4201"/>
   <tile gid="4201"/>
   <tile gid="4201"/>
   <tile gid="4201"/>
   <tile gid="4201"/>
   <tile gid="4201"/>
   <tile gid="4201"/>
   <tile gid="4201"/>
   <tile gid="4201"/>
   <tile gid="4201"/>
   <tile gid="4201"/>
   <tile gid="4201"/>
   <tile gid="4201"/>
   <tile gid="4201"/>
   <tile gid="4201"/>
   <tile gid="4201"/>
   <tile gid="4201"/>
   <tile gid="4201"/>
   <tile gid="4201"/>
   <tile gid="4201"/>
   <tile gid="4201"/>
   <tile gid="4201"/>
   <tile gid="4201"/>
   <tile gid="4201"/>
   <tile gid="4201"/>
   <tile gid="4201"/>
   <tile gid="4201"/>
   <tile gid="4201"/>
   <tile gid="4201"/>
   <tile gid="4201"/>
   <tile gid="4201"/>
   <tile gid="4201"/>
   <tile gid="4201"/>
   <tile gid="4201"/>
   <tile gid="4201"/>
   <tile gid="4201"/>
   <tile gid="4201"/>
   <tile gid="4201"/>
   <tile gid="4201"/>
   <tile gid="4201"/>
   <tile gid="4201"/>
   <tile gid="4201"/>
   <tile gid="4201"/>
   <tile gid="4201"/>
   <tile gid="4201"/>
   <tile gid="4201"/>
   <tile gid="4201"/>
   <tile gid="4201"/>
   <tile gid="4201"/>
   <tile gid="4201"/>
   <tile gid="4201"/>
   <tile gid="4201"/>
   <tile gid="4201"/>
   <tile gid="4201"/>
   <tile gid="4201"/>
   <tile gid="4201"/>
   <tile gid="4201"/>
   <tile gid="4201"/>
   <tile gid="4201"/>
   <tile gid="4201"/>
   <tile gid="4201"/>
   <tile gid="4201"/>
   <tile gid="4201"/>
   <tile gid="4201"/>
   <tile gid="4201"/>
   <tile gid="4201"/>
   <tile gid="4201"/>
   <tile gid="4201"/>
   <tile gid="4201"/>
   <tile gid="4201"/>
   <tile gid="4201"/>
   <tile gid="4201"/>
   <tile gid="4201"/>
   <tile gid="4201"/>
   <tile gid="4201"/>
   <tile gid="4201"/>
   <tile gid="4201"/>
   <tile gid="4201"/>
   <tile gid="4201"/>
   <tile gid="4201"/>
   <tile gid="4201"/>
   <tile gid="4201"/>
   <tile gid="4201"/>
   <tile gid="4201"/>
   <tile gid="4201"/>
   <tile gid="4201"/>
   <tile gid="4201"/>
   <tile/>
   <tile/>
   <tile/>
   <tile/>
   <tile/>
   <tile/>
   <tile/>
   <tile gid="2152"/>
   <tile gid="4201"/>
   <tile gid="4201"/>
   <tile gid="4201"/>
   <tile gid="4201"/>
   <tile gid="4201"/>
   <tile gid="4201"/>
   <tile gid="4201"/>
   <tile gid="4201"/>
   <tile gid="4201"/>
   <tile gid="4201"/>
   <tile gid="4201"/>
   <tile gid="4201"/>
   <tile gid="4201"/>
   <tile gid="4201"/>
   <tile gid="4201"/>
   <tile gid="4201"/>
   <tile gid="4201"/>
   <tile gid="4201"/>
   <tile gid="4201"/>
   <tile gid="4201"/>
   <tile gid="4201"/>
   <tile gid="4201"/>
   <tile gid="4201"/>
   <tile gid="4201"/>
   <tile gid="4201"/>
   <tile gid="4201"/>
   <tile gid="4201"/>
   <tile gid="4201"/>
   <tile gid="4201"/>
   <tile gid="4201"/>
   <tile gid="4201"/>
   <tile gid="4201"/>
   <tile gid="4201"/>
   <tile gid="4201"/>
   <tile gid="4201"/>
   <tile gid="4201"/>
   <tile gid="4201"/>
   <tile gid="4201"/>
   <tile gid="4201"/>
   <tile gid="4201"/>
   <tile gid="4201"/>
   <tile gid="4201"/>
   <tile gid="4201"/>
   <tile gid="4201"/>
   <tile gid="4201"/>
   <tile gid="4201"/>
   <tile gid="4201"/>
   <tile gid="4201"/>
   <tile gid="4201"/>
   <tile gid="4201"/>
   <tile gid="4201"/>
   <tile gid="4201"/>
   <tile gid="4201"/>
   <tile gid="4201"/>
   <tile gid="4201"/>
   <tile gid="4201"/>
   <tile gid="4201"/>
   <tile gid="4201"/>
   <tile gid="4201"/>
   <tile gid="4201"/>
   <tile gid="4201"/>
   <tile gid="4201"/>
   <tile gid="4201"/>
   <tile gid="4201"/>
   <tile gid="4201"/>
   <tile gid="4201"/>
   <tile gid="4201"/>
   <tile gid="4201"/>
   <tile gid="4201"/>
   <tile gid="4201"/>
   <tile gid="4201"/>
   <tile gid="4201"/>
   <tile gid="4201"/>
   <tile gid="4201"/>
   <tile gid="4201"/>
   <tile gid="4201"/>
   <tile gid="4201"/>
   <tile gid="4201"/>
   <tile gid="4201"/>
   <tile gid="4201"/>
   <tile gid="4201"/>
   <tile gid="4201"/>
   <tile gid="4201"/>
   <tile gid="4201"/>
   <tile gid="4201"/>
   <tile gid="4201"/>
   <tile gid="4201"/>
   <tile gid="4201"/>
   <tile gid="4201"/>
   <tile gid="4201"/>
   <tile gid="4201"/>
   <tile gid="4201"/>
   <tile gid="4201"/>
   <tile gid="4201"/>
   <tile gid="4201"/>
   <tile gid="4201"/>
   <tile gid="4201"/>
   <tile gid="4201"/>
   <tile gid="4201"/>
   <tile gid="4201"/>
   <tile gid="4201"/>
   <tile gid="4201"/>
   <tile gid="4201"/>
   <tile gid="4201"/>
   <tile gid="4201"/>
   <tile gid="4201"/>
   <tile gid="4201"/>
   <tile gid="4201"/>
   <tile gid="4201"/>
   <tile gid="4201"/>
   <tile gid="4201"/>
   <tile gid="4201"/>
   <tile/>
   <tile/>
   <tile/>
   <tile/>
   <tile/>
   <tile/>
   <tile/>
   <tile gid="2152"/>
   <tile gid="4201"/>
   <tile gid="4201"/>
   <tile gid="4201"/>
   <tile gid="4201"/>
   <tile gid="4201"/>
   <tile gid="4201"/>
   <tile gid="4201"/>
   <tile gid="4201"/>
   <tile gid="4201"/>
   <tile gid="4201"/>
   <tile gid="4201"/>
   <tile gid="4201"/>
   <tile gid="4201"/>
   <tile gid="4201"/>
   <tile gid="4201"/>
   <tile gid="4201"/>
   <tile gid="4201"/>
   <tile gid="4201"/>
   <tile gid="4201"/>
   <tile gid="4201"/>
   <tile gid="4201"/>
   <tile gid="4201"/>
   <tile gid="4201"/>
   <tile gid="4201"/>
   <tile gid="4201"/>
   <tile gid="4201"/>
   <tile gid="4201"/>
   <tile gid="4201"/>
   <tile gid="4201"/>
   <tile gid="4201"/>
   <tile gid="4201"/>
   <tile gid="4201"/>
   <tile gid="4201"/>
   <tile gid="4201"/>
   <tile gid="4201"/>
   <tile gid="4201"/>
   <tile gid="4201"/>
   <tile gid="4201"/>
   <tile gid="4201"/>
   <tile gid="4201"/>
   <tile gid="4201"/>
   <tile gid="4201"/>
   <tile gid="4201"/>
   <tile gid="4201"/>
   <tile gid="4201"/>
   <tile gid="2152"/>
   <tile gid="2153"/>
   <tile gid="2154"/>
   <tile gid="2155"/>
   <tile gid="2156"/>
   <tile gid="2157"/>
   <tile gid="2158"/>
   <tile gid="2159"/>
   <tile gid="2160"/>
   <tile gid="4201"/>
   <tile gid="4201"/>
   <tile gid="4201"/>
   <tile gid="4201"/>
   <tile gid="4201"/>
   <tile gid="4201"/>
   <tile gid="4201"/>
   <tile gid="4201"/>
   <tile gid="4201"/>
   <tile gid="4201"/>
   <tile gid="4201"/>
   <tile gid="4201"/>
   <tile gid="4201"/>
   <tile gid="4201"/>
   <tile gid="4201"/>
   <tile gid="4201"/>
   <tile gid="4201"/>
   <tile gid="4201"/>
   <tile gid="4201"/>
   <tile gid="4201"/>
   <tile gid="4201"/>
   <tile gid="4201"/>
   <tile gid="4201"/>
   <tile gid="4201"/>
   <tile gid="4201"/>
   <tile gid="4201"/>
   <tile gid="4201"/>
   <tile gid="4201"/>
   <tile gid="4201"/>
   <tile gid="4201"/>
   <tile gid="4201"/>
   <tile gid="4201"/>
   <tile gid="4201"/>
   <tile gid="4201"/>
   <tile gid="4201"/>
   <tile gid="4201"/>
   <tile gid="4201"/>
   <tile gid="4201"/>
   <tile gid="4201"/>
   <tile gid="4201"/>
   <tile gid="4201"/>
   <tile gid="4201"/>
   <tile gid="4201"/>
   <tile gid="4201"/>
   <tile gid="4201"/>
   <tile gid="4201"/>
   <tile gid="4201"/>
   <tile gid="4201"/>
   <tile gid="4201"/>
   <tile gid="4201"/>
   <tile gid="4201"/>
   <tile gid="4201"/>
   <tile gid="4201"/>
   <tile gid="4201"/>
   <tile gid="4201"/>
   <tile gid="4201"/>
   <tile gid="4201"/>
   <tile gid="4201"/>
   <tile/>
   <tile/>
   <tile/>
   <tile/>
   <tile/>
   <tile/>
   <tile/>
   <tile gid="2152"/>
   <tile gid="4201"/>
   <tile gid="4201"/>
   <tile gid="4201"/>
   <tile gid="4201"/>
   <tile gid="4201"/>
   <tile gid="4201"/>
   <tile gid="4201"/>
   <tile gid="4201"/>
   <tile gid="4201"/>
   <tile gid="4201"/>
   <tile gid="4201"/>
   <tile gid="4201"/>
   <tile gid="4201"/>
   <tile gid="4201"/>
   <tile gid="4201"/>
   <tile gid="4201"/>
   <tile gid="4201"/>
   <tile gid="4201"/>
   <tile gid="4201"/>
   <tile gid="4201"/>
   <tile gid="4201"/>
   <tile gid="4201"/>
   <tile gid="4201"/>
   <tile gid="4201"/>
   <tile gid="4201"/>
   <tile gid="4201"/>
   <tile gid="4201"/>
   <tile gid="4201"/>
   <tile gid="4201"/>
   <tile gid="4201"/>
   <tile gid="4201"/>
   <tile gid="4201"/>
   <tile gid="4201"/>
   <tile gid="4201"/>
   <tile gid="4201"/>
   <tile gid="4201"/>
   <tile gid="4201"/>
   <tile gid="4201"/>
   <tile gid="4201"/>
   <tile gid="4201"/>
   <tile gid="4201"/>
   <tile gid="4201"/>
   <tile gid="4201"/>
   <tile gid="4201"/>
   <tile gid="4201"/>
   <tile gid="2216"/>
   <tile gid="2217"/>
   <tile gid="2218"/>
   <tile gid="2219"/>
   <tile gid="2220"/>
   <tile gid="2221"/>
   <tile gid="2222"/>
   <tile gid="2223"/>
   <tile gid="2224"/>
   <tile gid="4201"/>
   <tile gid="4201"/>
   <tile gid="2152"/>
   <tile gid="2152"/>
   <tile gid="2152"/>
   <tile gid="2152"/>
   <tile gid="2152"/>
   <tile gid="2152"/>
   <tile gid="2152"/>
   <tile gid="2152"/>
   <tile gid="4201"/>
   <tile gid="4201"/>
   <tile gid="4201"/>
   <tile gid="4201"/>
   <tile gid="4201"/>
   <tile gid="4201"/>
   <tile gid="4201"/>
   <tile gid="4201"/>
   <tile gid="4201"/>
   <tile gid="4201"/>
   <tile gid="4201"/>
   <tile gid="4201"/>
   <tile gid="4201"/>
   <tile gid="4201"/>
   <tile gid="4201"/>
   <tile gid="4201"/>
   <tile gid="4201"/>
   <tile gid="4201"/>
   <tile gid="4201"/>
   <tile gid="4201"/>
   <tile gid="4201"/>
   <tile gid="4201"/>
   <tile gid="4201"/>
   <tile gid="4201"/>
   <tile gid="4201"/>
   <tile gid="4201"/>
   <tile gid="4201"/>
   <tile gid="4201"/>
   <tile gid="4201"/>
   <tile gid="4201"/>
   <tile gid="4201"/>
   <tile gid="4201"/>
   <tile gid="4201"/>
   <tile gid="4201"/>
   <tile gid="4201"/>
   <tile gid="4201"/>
   <tile gid="4201"/>
   <tile gid="4201"/>
   <tile gid="4201"/>
   <tile gid="4201"/>
   <tile gid="4201"/>
   <tile gid="4201"/>
   <tile gid="4201"/>
   <tile gid="4201"/>
   <tile gid="4201"/>
   <tile gid="4201"/>
   <tile gid="4201"/>
   <tile gid="4201"/>
   <tile gid="2152"/>
   <tile gid="2152"/>
   <tile gid="2152"/>
   <tile gid="2152"/>
   <tile gid="2152"/>
   <tile gid="2152"/>
   <tile gid="2152"/>
   <tile gid="2152"/>
   <tile gid="4201"/>
   <tile gid="4201"/>
   <tile gid="4201"/>
   <tile gid="1698"/>
   <tile gid="1699"/>
   <tile gid="1700"/>
   <tile gid="1701"/>
   <tile gid="1702"/>
   <tile gid="1703"/>
   <tile gid="1704"/>
   <tile gid="1705"/>
   <tile gid="1706"/>
   <tile gid="1707"/>
   <tile gid="1708"/>
   <tile gid="1709"/>
   <tile gid="1710"/>
   <tile gid="1711"/>
   <tile gid="1712"/>
   <tile gid="4201"/>
   <tile gid="4201"/>
   <tile gid="4201"/>
   <tile gid="4201"/>
   <tile gid="4201"/>
   <tile gid="4201"/>
   <tile gid="4201"/>
   <tile gid="4201"/>
   <tile gid="4201"/>
   <tile gid="4201"/>
   <tile gid="4201"/>
   <tile gid="4201"/>
   <tile gid="4201"/>
   <tile gid="4201"/>
   <tile gid="4201"/>
   <tile gid="4201"/>
   <tile gid="4201"/>
   <tile gid="4201"/>
   <tile gid="4201"/>
   <tile gid="4201"/>
   <tile gid="4201"/>
   <tile gid="4201"/>
   <tile gid="4201"/>
   <tile gid="4201"/>
   <tile gid="4201"/>
   <tile gid="4201"/>
   <tile gid="4201"/>
   <tile gid="2280"/>
   <tile gid="2281"/>
   <tile gid="2282"/>
   <tile gid="2283"/>
   <tile gid="2284"/>
   <tile gid="2285"/>
   <tile gid="2286"/>
   <tile gid="2287"/>
   <tile gid="2288"/>
   <tile gid="4201"/>
   <tile gid="4201"/>
   <tile gid="2152"/>
   <tile/>
   <tile/>
   <tile/>
   <tile/>
   <tile/>
   <tile gid="2152"/>
   <tile gid="2152"/>
   <tile gid="4201"/>
   <tile gid="4201"/>
   <tile gid="4201"/>
   <tile gid="4201"/>
   <tile gid="4201"/>
   <tile gid="4201"/>
   <tile gid="4201"/>
   <tile gid="4201"/>
   <tile gid="4201"/>
   <tile gid="4201"/>
   <tile gid="4201"/>
   <tile gid="4201"/>
   <tile gid="4201"/>
   <tile gid="4201"/>
   <tile gid="4201"/>
   <tile gid="4201"/>
   <tile gid="4201"/>
   <tile gid="4201"/>
   <tile gid="4201"/>
   <tile gid="4201"/>
   <tile gid="4201"/>
   <tile gid="4201"/>
   <tile gid="4201"/>
   <tile gid="4201"/>
   <tile gid="4201"/>
   <tile gid="4201"/>
   <tile gid="4201"/>
   <tile gid="4201"/>
   <tile gid="4201"/>
   <tile gid="4201"/>
   <tile gid="4201"/>
   <tile gid="4201"/>
   <tile gid="4201"/>
   <tile gid="4201"/>
   <tile gid="4201"/>
   <tile gid="4201"/>
   <tile gid="4201"/>
   <tile gid="4201"/>
   <tile gid="4201"/>
   <tile gid="4201"/>
   <tile gid="4201"/>
   <tile gid="4201"/>
   <tile gid="4201"/>
   <tile gid="4201"/>
   <tile gid="4201"/>
   <tile gid="4201"/>
   <tile gid="4201"/>
   <tile gid="4201"/>
   <tile gid="4201"/>
   <tile gid="4201"/>
   <tile gid="4201"/>
   <tile gid="4201"/>
   <tile gid="4201"/>
   <tile gid="4201"/>
   <tile gid="4201"/>
   <tile gid="4201"/>
   <tile gid="4201"/>
   <tile gid="4201"/>
   <tile gid="4201"/>
   <tile gid="1762"/>
   <tile gid="1763"/>
   <tile gid="1764"/>
   <tile gid="1765"/>
   <tile gid="1766"/>
   <tile gid="1767"/>
   <tile gid="1768"/>
   <tile gid="1769"/>
   <tile gid="1770"/>
   <tile gid="1771"/>
   <tile gid="1772"/>
   <tile gid="1773"/>
   <tile gid="1774"/>
   <tile gid="1775"/>
   <tile gid="1776"/>
   <tile gid="4201"/>
   <tile gid="4201"/>
   <tile gid="4201"/>
   <tile gid="4201"/>
   <tile gid="4201"/>
   <tile gid="4201"/>
   <tile gid="4201"/>
   <tile gid="4201"/>
   <tile gid="4201"/>
   <tile gid="4201"/>
   <tile gid="4201"/>
   <tile gid="4201"/>
   <tile gid="4201"/>
   <tile gid="4201"/>
   <tile gid="4201"/>
   <tile gid="4201"/>
   <tile gid="4201"/>
   <tile gid="4201"/>
   <tile gid="4201"/>
   <tile gid="4201"/>
   <tile gid="4201"/>
   <tile gid="4201"/>
   <tile gid="4201"/>
   <tile gid="4201"/>
   <tile gid="4201"/>
   <tile gid="4201"/>
   <tile gid="4201"/>
   <tile gid="2344"/>
   <tile gid="2345"/>
   <tile gid="2346"/>
   <tile gid="2347"/>
   <tile gid="2348"/>
   <tile gid="2349"/>
   <tile gid="2350"/>
   <tile gid="2351"/>
   <tile gid="2352"/>
   <tile gid="4201"/>
   <tile gid="4201"/>
   <tile/>
   <tile/>
   <tile/>
   <tile/>
   <tile/>
   <tile/>
   <tile/>
   <tile gid="2152"/>
   <tile gid="4201"/>
   <tile gid="4201"/>
   <tile gid="4201"/>
   <tile gid="4201"/>
   <tile gid="4201"/>
   <tile gid="4201"/>
   <tile gid="4201"/>
   <tile gid="4201"/>
   <tile gid="4201"/>
   <tile gid="4201"/>
   <tile gid="4201"/>
   <tile gid="4201"/>
   <tile gid="4201"/>
   <tile gid="4201"/>
   <tile gid="4201"/>
   <tile gid="4201"/>
   <tile gid="4201"/>
   <tile gid="4201"/>
   <tile gid="4201"/>
   <tile gid="4201"/>
   <tile gid="4201"/>
   <tile gid="4201"/>
   <tile gid="4201"/>
   <tile gid="4201"/>
   <tile gid="4201"/>
   <tile gid="4201"/>
   <tile gid="4201"/>
   <tile gid="4201"/>
   <tile gid="4201"/>
   <tile gid="4201"/>
   <tile gid="4201"/>
   <tile gid="4201"/>
   <tile gid="4201"/>
   <tile gid="4201"/>
   <tile gid="4201"/>
   <tile gid="4201"/>
   <tile gid="4201"/>
   <tile gid="4201"/>
   <tile gid="4201"/>
   <tile gid="4201"/>
   <tile gid="4201"/>
   <tile gid="4201"/>
   <tile gid="4201"/>
   <tile gid="4201"/>
   <tile gid="4201"/>
   <tile gid="4201"/>
   <tile gid="4201"/>
   <tile gid="4201"/>
   <tile gid="4201"/>
   <tile gid="4201"/>
   <tile gid="4201"/>
   <tile gid="4201"/>
   <tile gid="4201"/>
   <tile gid="4201"/>
   <tile gid="4201"/>
   <tile gid="4201"/>
   <tile gid="4201"/>
   <tile gid="4201"/>
   <tile gid="4201"/>
   <tile gid="1826"/>
   <tile gid="1827"/>
   <tile gid="1828"/>
   <tile gid="1829"/>
   <tile gid="1830"/>
   <tile gid="1831"/>
   <tile gid="1832"/>
   <tile gid="1833"/>
   <tile gid="1834"/>
   <tile gid="1835"/>
   <tile gid="1836"/>
   <tile gid="1837"/>
   <tile gid="1838"/>
   <tile gid="1839"/>
   <tile gid="1840"/>
   <tile gid="4201"/>
   <tile gid="4201"/>
   <tile gid="4201"/>
   <tile gid="4201"/>
   <tile gid="4201"/>
   <tile gid="4201"/>
   <tile gid="4201"/>
   <tile gid="4201"/>
   <tile gid="4201"/>
   <tile gid="4201"/>
   <tile gid="4201"/>
   <tile gid="4201"/>
   <tile gid="4201"/>
   <tile gid="4201"/>
   <tile gid="4201"/>
   <tile gid="4201"/>
   <tile gid="4201"/>
   <tile gid="4201"/>
   <tile gid="4201"/>
   <tile gid="4201"/>
   <tile gid="4201"/>
   <tile gid="4201"/>
   <tile gid="4201"/>
   <tile gid="4201"/>
   <tile gid="4201"/>
   <tile gid="4201"/>
   <tile gid="4201"/>
   <tile gid="4201"/>
   <tile gid="4201"/>
   <tile gid="4201"/>
   <tile gid="4201"/>
   <tile gid="4201"/>
   <tile gid="4201"/>
   <tile gid="4201"/>
   <tile gid="4201"/>
   <tile gid="4201"/>
   <tile gid="4201"/>
   <tile gid="4201"/>
   <tile/>
   <tile/>
   <tile/>
   <tile/>
   <tile/>
   <tile/>
   <tile/>
   <tile gid="2152"/>
   <tile gid="4201"/>
   <tile gid="4201"/>
   <tile gid="4201"/>
   <tile gid="4201"/>
   <tile gid="4201"/>
   <tile gid="4201"/>
   <tile gid="4201"/>
   <tile gid="4201"/>
   <tile gid="4201"/>
   <tile gid="4201"/>
   <tile gid="4201"/>
   <tile gid="4201"/>
   <tile gid="4201"/>
   <tile gid="4201"/>
   <tile gid="4201"/>
   <tile gid="4201"/>
   <tile gid="4201"/>
   <tile gid="4201"/>
   <tile gid="4201"/>
   <tile gid="4201"/>
   <tile gid="4201"/>
   <tile gid="4201"/>
   <tile gid="4201"/>
   <tile gid="4201"/>
   <tile gid="4201"/>
   <tile gid="4201"/>
   <tile gid="4201"/>
   <tile gid="4201"/>
   <tile gid="4201"/>
   <tile gid="4201"/>
   <tile gid="4201"/>
   <tile gid="4201"/>
   <tile gid="4201"/>
   <tile gid="4201"/>
   <tile gid="4201"/>
   <tile gid="4201"/>
   <tile gid="4201"/>
   <tile gid="4201"/>
   <tile gid="4201"/>
   <tile gid="4201"/>
   <tile gid="4201"/>
   <tile gid="4201"/>
   <tile gid="4201"/>
   <tile gid="4201"/>
   <tile gid="4201"/>
   <tile gid="4201"/>
   <tile gid="4201"/>
   <tile gid="4201"/>
   <tile gid="4201"/>
   <tile gid="4201"/>
   <tile gid="4201"/>
   <tile gid="4201"/>
   <tile gid="4201"/>
   <tile gid="4201"/>
   <tile gid="4201"/>
   <tile gid="4201"/>
   <tile gid="4201"/>
   <tile gid="4201"/>
   <tile gid="4201"/>
   <tile gid="1890"/>
   <tile gid="1891"/>
   <tile gid="1892"/>
   <tile gid="1893"/>
   <tile gid="1894"/>
   <tile gid="1895"/>
   <tile gid="1896"/>
   <tile gid="1897"/>
   <tile gid="1898"/>
   <tile gid="1899"/>
   <tile gid="1900"/>
   <tile gid="1901"/>
   <tile gid="1902"/>
   <tile gid="1903"/>
   <tile gid="1904"/>
   <tile gid="4201"/>
   <tile gid="4201"/>
   <tile gid="4201"/>
   <tile gid="4201"/>
   <tile gid="4201"/>
   <tile gid="4201"/>
   <tile gid="4201"/>
   <tile gid="4201"/>
   <tile gid="4201"/>
   <tile gid="4201"/>
   <tile gid="4201"/>
   <tile gid="4201"/>
   <tile gid="4201"/>
   <tile gid="4201"/>
   <tile gid="4201"/>
   <tile gid="4201"/>
   <tile gid="4201"/>
   <tile gid="4201"/>
   <tile gid="4201"/>
   <tile gid="4201"/>
   <tile gid="4201"/>
   <tile gid="4201"/>
   <tile gid="4201"/>
   <tile gid="4201"/>
   <tile gid="4201"/>
   <tile gid="4201"/>
   <tile gid="4201"/>
   <tile gid="4201"/>
   <tile gid="4201"/>
   <tile gid="4201"/>
   <tile gid="4201"/>
   <tile gid="4201"/>
   <tile gid="2152"/>
   <tile gid="2152"/>
   <tile gid="2152"/>
   <tile gid="2152"/>
   <tile gid="2152"/>
   <tile gid="4201"/>
   <tile/>
   <tile/>
   <tile/>
   <tile/>
   <tile/>
   <tile/>
   <tile gid="2152"/>
   <tile gid="2152"/>
   <tile gid="4201"/>
   <tile gid="4201"/>
   <tile gid="4201"/>
   <tile gid="4201"/>
   <tile gid="4201"/>
   <tile gid="4201"/>
   <tile gid="4201"/>
   <tile gid="4201"/>
   <tile gid="4201"/>
   <tile gid="4201"/>
   <tile gid="4201"/>
   <tile gid="4201"/>
   <tile gid="4201"/>
   <tile gid="4201"/>
   <tile gid="4201"/>
   <tile gid="4201"/>
   <tile gid="4201"/>
   <tile gid="4201"/>
   <tile gid="4201"/>
   <tile gid="4201"/>
   <tile gid="4201"/>
   <tile gid="4201"/>
   <tile gid="4201"/>
   <tile gid="4201"/>
   <tile gid="4201"/>
   <tile gid="4201"/>
   <tile gid="4201"/>
   <tile gid="4201"/>
   <tile gid="4201"/>
   <tile gid="4201"/>
   <tile gid="4201"/>
   <tile gid="4201"/>
   <tile gid="4201"/>
   <tile gid="4201"/>
   <tile gid="4201"/>
   <tile gid="4201"/>
   <tile gid="4201"/>
   <tile gid="4201"/>
   <tile gid="4201"/>
   <tile gid="4201"/>
   <tile gid="4201"/>
   <tile gid="4201"/>
   <tile gid="4201"/>
   <tile gid="4201"/>
   <tile gid="4201"/>
   <tile gid="4201"/>
   <tile gid="4201"/>
   <tile gid="4201"/>
   <tile gid="4201"/>
   <tile gid="4201"/>
   <tile gid="4201"/>
   <tile gid="4201"/>
   <tile gid="4201"/>
   <tile gid="4201"/>
   <tile gid="4201"/>
   <tile gid="4201"/>
   <tile gid="4201"/>
   <tile gid="4201"/>
   <tile gid="4201"/>
   <tile gid="1954"/>
   <tile gid="1955"/>
   <tile gid="1956"/>
   <tile gid="1957"/>
   <tile gid="1958"/>
   <tile gid="1959"/>
   <tile gid="1960"/>
   <tile gid="1961"/>
   <tile gid="1962"/>
   <tile gid="1963"/>
   <tile gid="1964"/>
   <tile gid="1965"/>
   <tile gid="1966"/>
   <tile gid="1967"/>
   <tile gid="1968"/>
   <tile gid="4201"/>
   <tile gid="4201"/>
   <tile gid="4201"/>
   <tile gid="4201"/>
   <tile gid="4201"/>
   <tile gid="4201"/>
   <tile gid="4201"/>
   <tile gid="4201"/>
   <tile gid="4201"/>
   <tile gid="4201"/>
   <tile gid="4201"/>
   <tile gid="4201"/>
   <tile gid="4201"/>
   <tile gid="4201"/>
   <tile gid="4201"/>
   <tile gid="4201"/>
   <tile gid="4201"/>
   <tile gid="4201"/>
   <tile gid="4201"/>
   <tile gid="4201"/>
   <tile gid="4201"/>
   <tile gid="4201"/>
   <tile gid="4201"/>
   <tile gid="4201"/>
   <tile gid="4201"/>
   <tile gid="4201"/>
   <tile gid="4201"/>
   <tile gid="4201"/>
   <tile gid="4201"/>
   <tile gid="4201"/>
   <tile gid="4201"/>
   <tile gid="4201"/>
   <tile/>
   <tile/>
   <tile/>
   <tile/>
   <tile gid="2152"/>
   <tile gid="4201"/>
   <tile gid="2152"/>
   <tile gid="2152"/>
   <tile gid="2152"/>
   <tile gid="2152"/>
   <tile gid="2152"/>
   <tile gid="2152"/>
   <tile gid="2152"/>
   <tile gid="2152"/>
   <tile gid="4201"/>
   <tile gid="4201"/>
   <tile gid="4201"/>
   <tile gid="4201"/>
   <tile gid="4201"/>
   <tile gid="4201"/>
   <tile gid="4201"/>
   <tile gid="4201"/>
   <tile gid="4201"/>
   <tile gid="4201"/>
   <tile gid="4201"/>
   <tile gid="4201"/>
   <tile gid="4201"/>
   <tile gid="4201"/>
   <tile gid="4201"/>
   <tile gid="4201"/>
   <tile gid="4201"/>
   <tile gid="4201"/>
   <tile gid="4201"/>
   <tile gid="4201"/>
   <tile gid="4201"/>
   <tile gid="4201"/>
   <tile gid="4201"/>
   <tile gid="4201"/>
   <tile gid="4201"/>
   <tile gid="4201"/>
   <tile gid="4201"/>
   <tile gid="4201"/>
   <tile gid="4201"/>
   <tile gid="4201"/>
   <tile gid="4201"/>
   <tile gid="4201"/>
   <tile gid="4201"/>
   <tile gid="4201"/>
   <tile gid="4201"/>
   <tile gid="4201"/>
   <tile gid="4201"/>
   <tile gid="4201"/>
   <tile gid="4201"/>
   <tile gid="4201"/>
   <tile gid="4201"/>
   <tile gid="4201"/>
   <tile gid="4201"/>
   <tile gid="4201"/>
   <tile gid="4201"/>
   <tile gid="4201"/>
   <tile gid="4201"/>
   <tile gid="4201"/>
   <tile gid="4201"/>
   <tile gid="4201"/>
   <tile gid="4201"/>
   <tile gid="4201"/>
   <tile gid="4201"/>
   <tile gid="4201"/>
   <tile gid="4201"/>
   <tile gid="4201"/>
   <tile gid="4201"/>
   <tile gid="4201"/>
   <tile gid="4201"/>
   <tile gid="2018"/>
   <tile gid="2019"/>
   <tile gid="2020"/>
   <tile gid="2021"/>
   <tile gid="2022"/>
   <tile gid="2023"/>
   <tile gid="2024"/>
   <tile gid="2025"/>
   <tile gid="2026"/>
   <tile gid="2027"/>
   <tile gid="2028"/>
   <tile gid="2029"/>
   <tile gid="2030"/>
   <tile gid="2031"/>
   <tile gid="2032"/>
   <tile gid="4201"/>
   <tile gid="4201"/>
   <tile gid="4201"/>
   <tile gid="4201"/>
   <tile gid="4201"/>
   <tile gid="4201"/>
   <tile gid="4201"/>
   <tile gid="4201"/>
   <tile gid="4201"/>
   <tile gid="4201"/>
   <tile gid="4201"/>
   <tile gid="4201"/>
   <tile gid="4201"/>
   <tile gid="4201"/>
   <tile gid="4201"/>
   <tile gid="4201"/>
   <tile gid="4201"/>
   <tile gid="4201"/>
   <tile gid="4201"/>
   <tile gid="4201"/>
   <tile gid="4201"/>
   <tile gid="4201"/>
   <tile gid="4201"/>
   <tile gid="4201"/>
   <tile gid="4201"/>
   <tile gid="4201"/>
   <tile gid="4201"/>
   <tile gid="4201"/>
   <tile gid="4201"/>
   <tile gid="4201"/>
   <tile gid="4201"/>
   <tile gid="4201"/>
   <tile/>
   <tile/>
   <tile/>
   <tile/>
   <tile gid="2152"/>
   <tile gid="4201"/>
   <tile gid="2152"/>
   <tile gid="2152"/>
   <tile gid="2152"/>
   <tile gid="2152"/>
   <tile gid="2152"/>
   <tile gid="2152"/>
   <tile gid="2152"/>
   <tile gid="2152"/>
   <tile gid="4201"/>
   <tile gid="4201"/>
   <tile gid="4201"/>
   <tile gid="4201"/>
   <tile gid="4201"/>
   <tile gid="4201"/>
   <tile gid="4201"/>
   <tile gid="4201"/>
   <tile gid="4201"/>
   <tile gid="4201"/>
   <tile gid="4201"/>
   <tile gid="4201"/>
   <tile gid="4201"/>
   <tile gid="4201"/>
   <tile gid="4201"/>
   <tile gid="4201"/>
   <tile gid="4201"/>
   <tile gid="4201"/>
   <tile gid="4201"/>
   <tile gid="4201"/>
   <tile gid="4201"/>
   <tile gid="4201"/>
   <tile gid="4201"/>
   <tile gid="4201"/>
   <tile gid="4201"/>
   <tile gid="4201"/>
   <tile gid="4201"/>
   <tile gid="4201"/>
   <tile gid="4201"/>
   <tile gid="4201"/>
   <tile gid="4201"/>
   <tile gid="4201"/>
   <tile gid="4201"/>
   <tile gid="4201"/>
   <tile gid="4201"/>
   <tile gid="4201"/>
   <tile gid="4201"/>
   <tile gid="4201"/>
   <tile gid="4201"/>
   <tile gid="4201"/>
   <tile gid="4201"/>
   <tile gid="4201"/>
   <tile gid="4201"/>
   <tile gid="4201"/>
   <tile gid="4201"/>
   <tile gid="4201"/>
   <tile gid="4201"/>
   <tile gid="4201"/>
   <tile gid="4201"/>
   <tile gid="4201"/>
   <tile gid="4201"/>
   <tile gid="4201"/>
   <tile gid="4201"/>
   <tile gid="4201"/>
   <tile gid="4201"/>
   <tile gid="4201"/>
   <tile gid="4201"/>
   <tile gid="4201"/>
   <tile gid="4201"/>
   <tile gid="2082"/>
   <tile gid="2083"/>
   <tile gid="2084"/>
   <tile gid="2085"/>
   <tile gid="2086"/>
   <tile gid="2087"/>
   <tile gid="2088"/>
   <tile gid="2089"/>
   <tile gid="2090"/>
   <tile gid="2091"/>
   <tile gid="2092"/>
   <tile gid="2093"/>
   <tile gid="2094"/>
   <tile gid="2095"/>
   <tile gid="2096"/>
   <tile gid="4201"/>
   <tile gid="4201"/>
   <tile gid="4201"/>
   <tile gid="4201"/>
   <tile gid="4201"/>
   <tile gid="4201"/>
   <tile gid="4201"/>
   <tile gid="4201"/>
   <tile gid="4201"/>
   <tile gid="4201"/>
   <tile gid="4201"/>
   <tile gid="4201"/>
   <tile gid="4201"/>
   <tile gid="4201"/>
   <tile gid="4201"/>
   <tile gid="4201"/>
   <tile gid="4201"/>
   <tile gid="4201"/>
   <tile gid="4201"/>
   <tile gid="4201"/>
   <tile gid="4201"/>
   <tile gid="4201"/>
   <tile gid="4201"/>
   <tile gid="4201"/>
   <tile gid="4201"/>
   <tile gid="4201"/>
   <tile gid="4201"/>
   <tile gid="4201"/>
   <tile gid="4201"/>
   <tile gid="4201"/>
   <tile gid="4201"/>
   <tile gid="4201"/>
   <tile/>
   <tile/>
   <tile/>
   <tile/>
   <tile gid="2152"/>
   <tile gid="4201"/>
   <tile gid="4201"/>
   <tile gid="4201"/>
   <tile gid="4201"/>
   <tile gid="4201"/>
   <tile gid="4201"/>
   <tile gid="4201"/>
   <tile gid="4201"/>
   <tile gid="4201"/>
   <tile gid="4201"/>
   <tile gid="4201"/>
   <tile gid="4201"/>
   <tile gid="4201"/>
   <tile gid="4201"/>
   <tile gid="4201"/>
   <tile gid="4201"/>
   <tile gid="4201"/>
   <tile gid="4201"/>
   <tile gid="4201"/>
   <tile gid="4201"/>
   <tile gid="4201"/>
   <tile gid="4201"/>
   <tile gid="4201"/>
   <tile gid="4201"/>
   <tile gid="4201"/>
   <tile gid="4201"/>
   <tile gid="4201"/>
   <tile gid="4201"/>
   <tile gid="4201"/>
   <tile gid="4201"/>
   <tile gid="4201"/>
   <tile gid="4201"/>
   <tile gid="4201"/>
   <tile gid="4201"/>
   <tile gid="4201"/>
   <tile gid="4201"/>
   <tile gid="4201"/>
   <tile gid="4201"/>
   <tile gid="4201"/>
   <tile gid="4201"/>
   <tile gid="4201"/>
   <tile gid="4201"/>
   <tile gid="4201"/>
   <tile gid="4201"/>
   <tile gid="4201"/>
   <tile gid="4201"/>
   <tile gid="4201"/>
   <tile gid="4201"/>
   <tile gid="4201"/>
   <tile gid="4201"/>
   <tile gid="4201"/>
   <tile gid="4201"/>
   <tile gid="4201"/>
   <tile gid="4201"/>
   <tile gid="4201"/>
   <tile gid="4201"/>
   <tile gid="4201"/>
   <tile gid="4201"/>
   <tile gid="4201"/>
   <tile gid="4201"/>
   <tile gid="4201"/>
   <tile gid="4201"/>
   <tile gid="4201"/>
   <tile gid="4201"/>
   <tile gid="4201"/>
   <tile gid="4201"/>
   <tile gid="4201"/>
   <tile gid="4201"/>
   <tile gid="4201"/>
   <tile gid="4201"/>
   <tile gid="4201"/>
   <tile gid="4201"/>
   <tile gid="4201"/>
   <tile gid="4201"/>
   <tile gid="4201"/>
   <tile gid="4201"/>
   <tile gid="4201"/>
   <tile gid="4201"/>
   <tile gid="4201"/>
   <tile gid="4201"/>
   <tile gid="4201"/>
   <tile gid="4201"/>
   <tile gid="4201"/>
   <tile gid="4201"/>
   <tile gid="4201"/>
   <tile gid="4201"/>
   <tile gid="4201"/>
   <tile gid="4201"/>
   <tile gid="4201"/>
   <tile gid="4201"/>
   <tile gid="4201"/>
   <tile gid="4201"/>
   <tile gid="4201"/>
   <tile gid="4201"/>
   <tile gid="4201"/>
   <tile gid="4201"/>
   <tile gid="4201"/>
   <tile gid="4201"/>
   <tile gid="4201"/>
   <tile gid="4201"/>
   <tile gid="4201"/>
   <tile gid="4201"/>
   <tile gid="4201"/>
   <tile gid="4201"/>
   <tile gid="4201"/>
   <tile gid="4201"/>
   <tile gid="4201"/>
   <tile gid="4201"/>
   <tile gid="4201"/>
   <tile gid="4201"/>
   <tile gid="4201"/>
   <tile gid="4201"/>
   <tile gid="4201"/>
   <tile gid="4201"/>
   <tile gid="4201"/>
   <tile gid="2152"/>
   <tile/>
   <tile/>
   <tile gid="2152"/>
   <tile gid="2152"/>
   <tile gid="4201"/>
   <tile gid="4201"/>
   <tile gid="4201"/>
   <tile gid="4201"/>
   <tile gid="4201"/>
   <tile gid="4201"/>
   <tile gid="4201"/>
   <tile gid="4201"/>
   <tile gid="4201"/>
   <tile gid="4201"/>
   <tile gid="4201"/>
   <tile gid="4201"/>
   <tile gid="4201"/>
   <tile gid="4201"/>
   <tile gid="4201"/>
   <tile gid="4201"/>
   <tile gid="4201"/>
   <tile gid="4201"/>
   <tile gid="4201"/>
   <tile gid="4201"/>
   <tile gid="4201"/>
   <tile gid="4201"/>
   <tile gid="4201"/>
   <tile gid="4201"/>
   <tile gid="4201"/>
   <tile gid="4201"/>
   <tile gid="4201"/>
   <tile gid="4201"/>
   <tile gid="4201"/>
   <tile gid="4201"/>
   <tile gid="4201"/>
   <tile gid="4201"/>
   <tile gid="4201"/>
   <tile gid="4201"/>
   <tile gid="4201"/>
   <tile gid="4201"/>
   <tile gid="4201"/>
   <tile gid="4201"/>
   <tile gid="4201"/>
   <tile gid="4201"/>
   <tile gid="4201"/>
   <tile gid="4201"/>
   <tile gid="4201"/>
   <tile gid="4201"/>
   <tile gid="4201"/>
   <tile gid="4201"/>
   <tile gid="4201"/>
   <tile gid="4201"/>
   <tile gid="4201"/>
   <tile gid="4201"/>
   <tile gid="4201"/>
   <tile gid="4201"/>
   <tile gid="4201"/>
   <tile gid="4201"/>
   <tile gid="4201"/>
   <tile gid="4201"/>
   <tile gid="4201"/>
   <tile gid="4201"/>
   <tile gid="4201"/>
   <tile gid="4201"/>
   <tile gid="4201"/>
   <tile gid="4201"/>
   <tile gid="4201"/>
   <tile gid="4201"/>
   <tile gid="4201"/>
   <tile gid="4201"/>
   <tile gid="4201"/>
   <tile gid="4201"/>
   <tile gid="4201"/>
   <tile gid="4201"/>
   <tile gid="4201"/>
   <tile gid="4201"/>
   <tile gid="4201"/>
   <tile gid="4201"/>
   <tile gid="4201"/>
   <tile gid="4201"/>
   <tile gid="4201"/>
   <tile gid="4201"/>
   <tile gid="4201"/>
   <tile gid="4201"/>
   <tile gid="4201"/>
   <tile gid="4201"/>
   <tile gid="4201"/>
   <tile gid="4201"/>
   <tile gid="4201"/>
   <tile gid="4201"/>
   <tile gid="4201"/>
   <tile gid="4201"/>
   <tile gid="4201"/>
   <tile gid="4201"/>
   <tile gid="4201"/>
   <tile gid="4201"/>
   <tile gid="4201"/>
   <tile gid="4201"/>
   <tile gid="4201"/>
   <tile gid="4201"/>
   <tile gid="4201"/>
   <tile gid="4201"/>
   <tile gid="4201"/>
   <tile gid="4201"/>
   <tile gid="4201"/>
   <tile gid="4201"/>
   <tile gid="4201"/>
   <tile gid="4201"/>
   <tile gid="4201"/>
   <tile gid="4201"/>
   <tile gid="4201"/>
   <tile gid="4201"/>
   <tile gid="4201"/>
   <tile gid="4201"/>
   <tile gid="4201"/>
   <tile gid="4201"/>
   <tile gid="4201"/>
   <tile gid="4201"/>
   <tile gid="4201"/>
   <tile gid="4201"/>
   <tile gid="4201"/>
   <tile gid="4201"/>
   <tile gid="4201"/>
   <tile gid="4201"/>
   <tile gid="4201"/>
   <tile gid="4201"/>
   <tile gid="4201"/>
   <tile gid="4201"/>
   <tile gid="4201"/>
   <tile gid="4201"/>
   <tile gid="4201"/>
   <tile gid="4201"/>
   <tile gid="4201"/>
   <tile gid="4201"/>
   <tile gid="4201"/>
   <tile gid="4201"/>
   <tile gid="4201"/>
   <tile gid="4201"/>
   <tile gid="4201"/>
   <tile gid="4201"/>
   <tile gid="4201"/>
   <tile gid="4201"/>
   <tile gid="4201"/>
   <tile gid="4201"/>
   <tile gid="4201"/>
   <tile gid="4201"/>
   <tile gid="4201"/>
   <tile gid="4201"/>
   <tile gid="4201"/>
   <tile gid="4201"/>
   <tile gid="4201"/>
   <tile gid="4201"/>
   <tile gid="4201"/>
   <tile gid="4201"/>
   <tile gid="4201"/>
   <tile gid="4201"/>
   <tile gid="4201"/>
   <tile gid="4201"/>
   <tile gid="4201"/>
   <tile gid="4201"/>
   <tile gid="4201"/>
   <tile gid="4201"/>
   <tile gid="4201"/>
   <tile gid="4201"/>
   <tile gid="4201"/>
   <tile gid="4201"/>
   <tile gid="4201"/>
   <tile gid="4201"/>
   <tile gid="4201"/>
   <tile gid="4201"/>
   <tile gid="4201"/>
   <tile gid="4201"/>
   <tile gid="4201"/>
   <tile gid="4201"/>
   <tile gid="4201"/>
   <tile gid="4201"/>
   <tile gid="4201"/>
   <tile gid="4201"/>
   <tile gid="4201"/>
   <tile gid="4201"/>
   <tile gid="4201"/>
   <tile gid="4201"/>
   <tile gid="4201"/>
   <tile gid="4201"/>
   <tile gid="4201"/>
   <tile gid="4201"/>
   <tile gid="4201"/>
   <tile gid="4201"/>
   <tile gid="4201"/>
   <tile gid="4201"/>
   <tile gid="4201"/>
   <tile gid="4201"/>
   <tile gid="4201"/>
   <tile gid="4201"/>
   <tile gid="4201"/>
   <tile gid="4201"/>
   <tile gid="4201"/>
   <tile gid="4201"/>
   <tile gid="4201"/>
   <tile gid="4201"/>
   <tile gid="4201"/>
   <tile gid="4201"/>
   <tile gid="4201"/>
   <tile gid="4201"/>
   <tile gid="4201"/>
   <tile gid="4201"/>
   <tile gid="4201"/>
   <tile gid="4201"/>
   <tile gid="4201"/>
   <tile gid="4201"/>
   <tile gid="4201"/>
   <tile gid="4201"/>
   <tile gid="4201"/>
   <tile gid="4201"/>
   <tile gid="4201"/>
   <tile gid="4201"/>
   <tile gid="4201"/>
   <tile gid="4201"/>
   <tile gid="4201"/>
   <tile gid="4201"/>
   <tile gid="4201"/>
   <tile gid="4201"/>
   <tile gid="4201"/>
   <tile gid="4201"/>
   <tile gid="4201"/>
   <tile gid="4201"/>
   <tile gid="4201"/>
   <tile gid="4201"/>
   <tile gid="4201"/>
   <tile gid="4201"/>
   <tile gid="4201"/>
   <tile gid="4201"/>
   <tile gid="4201"/>
   <tile gid="4201"/>
   <tile gid="4201"/>
   <tile gid="4201"/>
   <tile gid="4201"/>
   <tile gid="4201"/>
   <tile gid="4201"/>
   <tile gid="4201"/>
   <tile gid="4201"/>
   <tile gid="4201"/>
   <tile gid="4201"/>
   <tile gid="4201"/>
   <tile gid="4201"/>
   <tile gid="4201"/>
   <tile gid="4201"/>
   <tile gid="4201"/>
   <tile gid="4201"/>
   <tile gid="4201"/>
   <tile gid="4201"/>
   <tile gid="4201"/>
   <tile gid="4201"/>
   <tile gid="4201"/>
   <tile gid="4201"/>
   <tile gid="4201"/>
   <tile gid="4201"/>
   <tile gid="4201"/>
   <tile gid="4201"/>
   <tile gid="4201"/>
   <tile gid="4201"/>
   <tile gid="4201"/>
   <tile gid="4201"/>
   <tile gid="4201"/>
   <tile gid="4201"/>
   <tile gid="4201"/>
   <tile gid="4201"/>
   <tile gid="4201"/>
   <tile gid="4201"/>
   <tile gid="4201"/>
   <tile gid="4201"/>
   <tile gid="4201"/>
   <tile gid="4201"/>
   <tile gid="4201"/>
   <tile gid="4201"/>
   <tile gid="4201"/>
   <tile gid="4201"/>
   <tile gid="4201"/>
   <tile gid="4201"/>
   <tile gid="4201"/>
   <tile gid="4201"/>
   <tile gid="4201"/>
   <tile gid="4201"/>
   <tile gid="4201"/>
   <tile gid="4201"/>
   <tile gid="4201"/>
   <tile gid="4201"/>
   <tile gid="4201"/>
   <tile gid="4201"/>
   <tile gid="4201"/>
   <tile gid="4201"/>
   <tile gid="4201"/>
   <tile gid="4201"/>
   <tile gid="4201"/>
   <tile/>
   <tile/>
   <tile/>
   <tile/>
   <tile/>
   <tile/>
   <tile/>
   <tile/>
   <tile/>
   <tile/>
   <tile/>
   <tile/>
   <tile/>
   <tile/>
   <tile/>
   <tile/>
   <tile/>
   <tile/>
   <tile/>
   <tile/>
   <tile/>
   <tile/>
   <tile/>
   <tile/>
   <tile/>
   <tile/>
   <tile/>
   <tile/>
   <tile/>
   <tile/>
   <tile/>
   <tile/>
   <tile/>
   <tile/>
   <tile/>
   <tile/>
   <tile/>
   <tile/>
   <tile/>
   <tile/>
   <tile/>
   <tile/>
   <tile/>
   <tile/>
   <tile/>
   <tile/>
   <tile/>
   <tile/>
   <tile/>
   <tile/>
   <tile/>
   <tile/>
   <tile/>
   <tile/>
   <tile/>
   <tile/>
   <tile/>
   <tile/>
   <tile/>
   <tile/>
   <tile/>
   <tile/>
   <tile/>
   <tile/>
   <tile/>
   <tile/>
   <tile/>
   <tile/>
   <tile/>
   <tile/>
   <tile/>
   <tile/>
   <tile/>
   <tile/>
   <tile/>
   <tile/>
   <tile/>
   <tile/>
   <tile/>
   <tile/>
   <tile/>
   <tile gid="4201"/>
   <tile gid="4201"/>
   <tile gid="4201"/>
   <tile gid="4201"/>
   <tile gid="4201"/>
   <tile gid="4201"/>
   <tile gid="4201"/>
   <tile gid="4201"/>
   <tile gid="4201"/>
   <tile gid="4201"/>
   <tile gid="4201"/>
   <tile gid="4201"/>
   <tile gid="4201"/>
   <tile gid="4201"/>
   <tile gid="4201"/>
   <tile gid="4201"/>
   <tile gid="4201"/>
   <tile gid="4201"/>
   <tile gid="4201"/>
   <tile gid="4201"/>
   <tile gid="4201"/>
   <tile gid="4201"/>
   <tile gid="4201"/>
   <tile gid="4201"/>
   <tile gid="4201"/>
   <tile gid="4201"/>
   <tile gid="4201"/>
   <tile gid="4201"/>
   <tile gid="4201"/>
   <tile gid="4201"/>
   <tile gid="4201"/>
   <tile gid="1521"/>
   <tile/>
   <tile/>
   <tile/>
   <tile gid="1521"/>
   <tile gid="4201"/>
   <tile gid="4201"/>
   <tile gid="4201"/>
   <tile/>
   <tile/>
   <tile/>
   <tile/>
   <tile/>
   <tile/>
   <tile/>
   <tile/>
   <tile/>
   <tile/>
   <tile/>
   <tile/>
   <tile/>
   <tile/>
   <tile/>
   <tile/>
   <tile/>
   <tile/>
   <tile/>
   <tile/>
   <tile/>
   <tile/>
   <tile/>
   <tile/>
   <tile/>
   <tile/>
   <tile/>
   <tile/>
   <tile/>
   <tile/>
   <tile/>
   <tile/>
   <tile/>
   <tile/>
   <tile/>
   <tile/>
   <tile/>
   <tile/>
   <tile/>
   <tile/>
   <tile/>
   <tile/>
   <tile/>
   <tile/>
   <tile/>
   <tile/>
   <tile/>
   <tile/>
   <tile/>
   <tile/>
   <tile/>
   <tile/>
   <tile/>
   <tile/>
   <tile/>
   <tile/>
   <tile/>
   <tile/>
   <tile/>
   <tile/>
   <tile/>
   <tile/>
   <tile/>
   <tile/>
   <tile/>
   <tile/>
   <tile/>
   <tile/>
   <tile/>
   <tile/>
   <tile/>
   <tile/>
   <tile/>
   <tile/>
   <tile/>
   <tile/>
   <tile/>
   <tile/>
   <tile/>
   <tile/>
   <tile/>
   <tile gid="4201"/>
   <tile gid="4201"/>
   <tile gid="4201"/>
   <tile gid="4201"/>
   <tile gid="4201"/>
   <tile gid="4201"/>
   <tile gid="4201"/>
   <tile gid="4201"/>
   <tile gid="4201"/>
   <tile gid="4201"/>
   <tile gid="4201"/>
   <tile gid="4201"/>
   <tile gid="4201"/>
   <tile gid="4201"/>
   <tile gid="4201"/>
   <tile gid="4201"/>
   <tile gid="4201"/>
   <tile gid="4201"/>
   <tile gid="4201"/>
   <tile gid="4201"/>
   <tile gid="4201"/>
   <tile gid="4201"/>
   <tile gid="4201"/>
   <tile gid="4201"/>
   <tile gid="4201"/>
   <tile gid="4201"/>
   <tile gid="4201"/>
   <tile gid="4201"/>
   <tile gid="4201"/>
   <tile gid="4201"/>
   <tile gid="4201"/>
   <tile/>
   <tile/>
   <tile/>
   <tile/>
   <tile gid="1521"/>
   <tile gid="4201"/>
   <tile gid="4201"/>
   <tile gid="4201"/>
   <tile/>
   <tile/>
   <tile/>
   <tile/>
   <tile/>
   <tile/>
   <tile/>
   <tile/>
   <tile/>
   <tile/>
   <tile/>
   <tile/>
   <tile/>
   <tile/>
   <tile/>
   <tile/>
   <tile/>
   <tile/>
   <tile/>
   <tile/>
   <tile/>
   <tile/>
   <tile/>
   <tile/>
   <tile/>
   <tile/>
   <tile/>
   <tile/>
   <tile/>
   <tile/>
   <tile/>
   <tile/>
   <tile/>
   <tile/>
   <tile/>
   <tile/>
   <tile/>
   <tile/>
   <tile/>
   <tile/>
   <tile/>
   <tile/>
   <tile/>
   <tile/>
   <tile/>
   <tile/>
   <tile/>
   <tile/>
   <tile/>
   <tile/>
   <tile/>
   <tile/>
   <tile/>
   <tile/>
   <tile/>
   <tile/>
   <tile/>
   <tile/>
   <tile/>
   <tile/>
   <tile/>
   <tile/>
   <tile/>
   <tile/>
   <tile/>
   <tile/>
   <tile/>
   <tile/>
   <tile/>
   <tile/>
   <tile/>
   <tile/>
   <tile/>
   <tile/>
   <tile/>
   <tile/>
   <tile/>
   <tile/>
   <tile/>
   <tile/>
   <tile/>
   <tile gid="4201"/>
   <tile gid="4201"/>
   <tile gid="4201"/>
   <tile gid="4201"/>
   <tile gid="4201"/>
   <tile gid="4201"/>
   <tile gid="4201"/>
   <tile gid="4201"/>
   <tile gid="4201"/>
   <tile gid="4201"/>
   <tile gid="4201"/>
   <tile gid="4201"/>
   <tile gid="4201"/>
   <tile gid="4201"/>
   <tile gid="4201"/>
   <tile gid="4201"/>
   <tile gid="4201"/>
   <tile gid="4201"/>
   <tile gid="4201"/>
   <tile gid="4201"/>
   <tile gid="4201"/>
   <tile gid="4201"/>
   <tile gid="4201"/>
   <tile gid="4201"/>
   <tile gid="4201"/>
   <tile gid="4201"/>
   <tile gid="4201"/>
   <tile gid="4201"/>
   <tile gid="4201"/>
   <tile gid="4201"/>
   <tile gid="4201"/>
   <tile/>
   <tile/>
   <tile/>
   <tile/>
   <tile gid="1521"/>
   <tile gid="4201"/>
   <tile gid="4201"/>
   <tile gid="4201"/>
   <tile/>
   <tile/>
   <tile/>
   <tile/>
   <tile/>
   <tile/>
   <tile/>
   <tile/>
   <tile/>
   <tile/>
   <tile/>
   <tile/>
   <tile/>
   <tile/>
   <tile/>
   <tile/>
   <tile/>
   <tile/>
   <tile/>
   <tile/>
   <tile/>
   <tile/>
   <tile/>
   <tile/>
   <tile/>
   <tile/>
   <tile/>
   <tile/>
   <tile/>
   <tile/>
   <tile/>
   <tile/>
   <tile/>
   <tile/>
   <tile/>
   <tile/>
   <tile/>
   <tile/>
   <tile/>
   <tile/>
   <tile/>
   <tile/>
   <tile/>
   <tile/>
   <tile/>
   <tile/>
   <tile/>
   <tile/>
   <tile/>
   <tile/>
   <tile/>
   <tile/>
   <tile/>
   <tile/>
   <tile/>
   <tile/>
   <tile/>
   <tile/>
   <tile/>
   <tile/>
   <tile/>
   <tile/>
   <tile/>
   <tile/>
   <tile/>
   <tile/>
   <tile/>
   <tile/>
   <tile/>
   <tile/>
   <tile/>
   <tile/>
   <tile/>
   <tile/>
   <tile/>
   <tile/>
   <tile/>
   <tile/>
   <tile/>
   <tile/>
   <tile/>
   <tile gid="4201"/>
   <tile gid="4201"/>
   <tile gid="4201"/>
   <tile gid="4201"/>
   <tile gid="4201"/>
   <tile gid="4201"/>
   <tile gid="4201"/>
   <tile gid="4201"/>
   <tile gid="4201"/>
   <tile gid="4201"/>
   <tile gid="4201"/>
   <tile gid="4201"/>
   <tile gid="4201"/>
   <tile gid="4201"/>
   <tile gid="4201"/>
   <tile gid="4201"/>
   <tile gid="4201"/>
   <tile gid="4201"/>
   <tile gid="4201"/>
   <tile gid="4201"/>
   <tile gid="4201"/>
   <tile gid="4201"/>
   <tile gid="4201"/>
   <tile gid="4201"/>
   <tile gid="4201"/>
   <tile gid="4201"/>
   <tile gid="4201"/>
   <tile gid="4201"/>
   <tile gid="4201"/>
   <tile gid="4201"/>
   <tile gid="4201"/>
   <tile gid="1521"/>
   <tile/>
   <tile/>
   <tile/>
   <tile gid="1521"/>
   <tile gid="4201"/>
   <tile gid="4201"/>
   <tile gid="4201"/>
   <tile/>
   <tile/>
   <tile/>
   <tile/>
   <tile/>
   <tile/>
   <tile/>
   <tile/>
   <tile/>
   <tile/>
   <tile/>
   <tile/>
   <tile/>
   <tile/>
   <tile/>
   <tile/>
   <tile/>
   <tile/>
   <tile/>
   <tile/>
   <tile/>
   <tile/>
   <tile/>
   <tile/>
   <tile/>
   <tile/>
   <tile/>
   <tile/>
   <tile/>
   <tile/>
   <tile/>
   <tile/>
   <tile/>
   <tile/>
   <tile/>
   <tile/>
   <tile/>
   <tile/>
   <tile/>
   <tile/>
   <tile/>
   <tile/>
   <tile/>
   <tile/>
   <tile/>
   <tile/>
   <tile/>
   <tile/>
   <tile/>
   <tile/>
   <tile/>
   <tile/>
   <tile/>
   <tile/>
   <tile/>
   <tile/>
   <tile/>
   <tile/>
   <tile/>
   <tile/>
   <tile/>
   <tile/>
   <tile/>
   <tile/>
   <tile/>
   <tile/>
   <tile/>
   <tile/>
   <tile/>
   <tile/>
   <tile/>
   <tile/>
   <tile/>
   <tile/>
   <tile/>
   <tile/>
   <tile/>
   <tile/>
   <tile/>
   <tile/>
   <tile/>
   <tile gid="4201"/>
   <tile gid="4201"/>
   <tile gid="4201"/>
   <tile gid="4201"/>
   <tile gid="4201"/>
   <tile gid="4201"/>
   <tile gid="4201"/>
   <tile gid="4201"/>
   <tile gid="4201"/>
   <tile gid="4201"/>
   <tile gid="4201"/>
   <tile gid="4201"/>
   <tile gid="4201"/>
   <tile gid="4201"/>
   <tile gid="4201"/>
   <tile gid="4201"/>
   <tile gid="4201"/>
   <tile gid="4201"/>
   <tile gid="4201"/>
   <tile gid="4201"/>
   <tile gid="4201"/>
   <tile gid="4201"/>
   <tile gid="4201"/>
   <tile gid="4201"/>
   <tile gid="4201"/>
   <tile gid="4201"/>
   <tile gid="4201"/>
   <tile gid="4201"/>
   <tile gid="4201"/>
   <tile gid="4201"/>
   <tile gid="4201"/>
   <tile gid="4201"/>
   <tile gid="4201"/>
   <tile gid="4201"/>
   <tile gid="4201"/>
   <tile gid="4201"/>
   <tile gid="4201"/>
   <tile gid="4201"/>
   <tile gid="4201"/>
   <tile/>
   <tile/>
   <tile/>
   <tile/>
   <tile/>
   <tile/>
   <tile/>
   <tile/>
   <tile/>
   <tile/>
   <tile/>
   <tile/>
   <tile/>
   <tile/>
   <tile/>
   <tile/>
   <tile/>
   <tile/>
   <tile/>
   <tile/>
   <tile/>
   <tile/>
   <tile/>
   <tile/>
   <tile/>
   <tile/>
   <tile/>
   <tile/>
   <tile/>
   <tile/>
   <tile/>
   <tile/>
   <tile/>
   <tile/>
   <tile/>
   <tile/>
   <tile/>
   <tile/>
   <tile/>
   <tile/>
   <tile/>
   <tile/>
   <tile/>
   <tile/>
   <tile/>
   <tile/>
   <tile/>
   <tile/>
   <tile/>
   <tile/>
   <tile/>
   <tile/>
   <tile/>
   <tile/>
   <tile/>
   <tile/>
   <tile/>
   <tile/>
   <tile/>
   <tile/>
   <tile/>
   <tile/>
   <tile/>
   <tile/>
   <tile/>
   <tile/>
   <tile/>
   <tile/>
   <tile/>
   <tile/>
   <tile/>
   <tile/>
   <tile/>
   <tile/>
   <tile/>
   <tile/>
   <tile/>
   <tile/>
   <tile/>
   <tile/>
   <tile/>
   <tile gid="4201"/>
   <tile gid="4201"/>
   <tile gid="4201"/>
   <tile gid="4201"/>
   <tile gid="4201"/>
   <tile gid="4201"/>
   <tile gid="4201"/>
   <tile gid="4201"/>
   <tile gid="4201"/>
   <tile gid="4201"/>
   <tile gid="4201"/>
   <tile gid="4201"/>
   <tile gid="4201"/>
   <tile gid="4201"/>
   <tile gid="4201"/>
   <tile gid="4201"/>
   <tile gid="4201"/>
   <tile gid="4201"/>
   <tile gid="4201"/>
   <tile gid="4201"/>
   <tile gid="4201"/>
   <tile gid="4201"/>
   <tile gid="4201"/>
   <tile gid="4201"/>
   <tile gid="4201"/>
   <tile gid="4201"/>
   <tile gid="4201"/>
   <tile gid="4201"/>
   <tile gid="4201"/>
   <tile gid="4201"/>
   <tile gid="4201"/>
   <tile gid="4201"/>
   <tile gid="4201"/>
   <tile gid="4201"/>
   <tile gid="4201"/>
   <tile gid="4201"/>
   <tile gid="4201"/>
   <tile gid="4201"/>
   <tile gid="4201"/>
   <tile/>
   <tile/>
   <tile/>
   <tile/>
   <tile/>
   <tile/>
   <tile/>
   <tile/>
   <tile/>
   <tile/>
   <tile/>
   <tile/>
   <tile/>
   <tile/>
   <tile/>
   <tile/>
   <tile/>
   <tile/>
   <tile/>
   <tile/>
   <tile/>
   <tile/>
   <tile/>
   <tile/>
   <tile/>
   <tile/>
   <tile/>
   <tile/>
   <tile/>
   <tile/>
   <tile/>
   <tile/>
   <tile/>
   <tile/>
   <tile/>
   <tile/>
   <tile/>
   <tile/>
   <tile/>
   <tile/>
   <tile/>
   <tile/>
   <tile/>
   <tile/>
   <tile/>
   <tile/>
   <tile/>
   <tile/>
   <tile/>
   <tile/>
   <tile/>
   <tile/>
   <tile/>
   <tile/>
   <tile/>
   <tile/>
   <tile/>
   <tile/>
   <tile/>
   <tile/>
   <tile/>
   <tile/>
   <tile/>
   <tile/>
   <tile/>
   <tile/>
   <tile/>
   <tile/>
   <tile/>
   <tile/>
   <tile/>
   <tile/>
   <tile/>
   <tile/>
   <tile/>
   <tile/>
   <tile/>
   <tile/>
   <tile/>
   <tile/>
   <tile/>
   <tile gid="4201"/>
   <tile gid="4201"/>
   <tile gid="4201"/>
   <tile gid="4201"/>
   <tile gid="4201"/>
   <tile gid="4201"/>
   <tile gid="4201"/>
   <tile gid="4201"/>
   <tile gid="4201"/>
   <tile gid="4201"/>
   <tile gid="4201"/>
   <tile gid="4201"/>
   <tile gid="4201"/>
   <tile gid="4201"/>
   <tile gid="4201"/>
   <tile gid="4201"/>
   <tile gid="4201"/>
   <tile gid="4201"/>
   <tile gid="4201"/>
   <tile gid="4201"/>
   <tile gid="4201"/>
   <tile gid="4201"/>
   <tile gid="4201"/>
   <tile gid="4201"/>
   <tile gid="4201"/>
   <tile gid="4201"/>
   <tile gid="4201"/>
   <tile gid="4201"/>
   <tile gid="4201"/>
   <tile gid="4201"/>
   <tile gid="4201"/>
   <tile gid="4201"/>
   <tile gid="4201"/>
   <tile gid="4201"/>
   <tile gid="4201"/>
   <tile gid="4201"/>
   <tile gid="4201"/>
   <tile gid="4201"/>
   <tile gid="4201"/>
   <tile/>
   <tile/>
   <tile/>
   <tile/>
   <tile/>
   <tile/>
   <tile/>
   <tile/>
   <tile/>
   <tile/>
   <tile/>
   <tile/>
   <tile/>
   <tile/>
   <tile/>
   <tile/>
   <tile/>
   <tile/>
   <tile/>
   <tile/>
   <tile/>
   <tile/>
   <tile/>
   <tile/>
   <tile/>
   <tile/>
   <tile/>
   <tile/>
   <tile/>
   <tile/>
   <tile/>
   <tile/>
   <tile/>
   <tile/>
   <tile/>
   <tile/>
   <tile/>
   <tile/>
   <tile/>
   <tile/>
   <tile/>
   <tile/>
   <tile/>
   <tile/>
   <tile/>
   <tile/>
   <tile/>
   <tile/>
   <tile/>
   <tile/>
   <tile/>
   <tile/>
   <tile/>
   <tile/>
   <tile/>
   <tile/>
   <tile/>
   <tile/>
   <tile/>
   <tile/>
   <tile/>
   <tile/>
   <tile/>
   <tile/>
   <tile/>
   <tile/>
   <tile/>
   <tile/>
   <tile/>
   <tile/>
   <tile/>
   <tile/>
   <tile/>
   <tile/>
   <tile/>
   <tile/>
   <tile/>
   <tile/>
   <tile/>
   <tile/>
   <tile/>
   <tile gid="4201"/>
   <tile gid="4201"/>
   <tile gid="4201"/>
   <tile gid="4201"/>
   <tile gid="4201"/>
   <tile gid="4201"/>
   <tile gid="4201"/>
   <tile gid="4201"/>
   <tile gid="4201"/>
   <tile gid="4201"/>
   <tile gid="4201"/>
   <tile gid="4201"/>
   <tile gid="4201"/>
   <tile gid="4201"/>
   <tile gid="4201"/>
   <tile gid="4201"/>
   <tile gid="4201"/>
   <tile gid="4201"/>
   <tile gid="4201"/>
   <tile gid="4201"/>
   <tile gid="4201"/>
   <tile gid="4201"/>
   <tile gid="4201"/>
   <tile gid="4201"/>
   <tile gid="4201"/>
   <tile gid="4201"/>
   <tile gid="4201"/>
   <tile gid="4201"/>
   <tile gid="4201"/>
   <tile gid="4201"/>
   <tile gid="4201"/>
   <tile gid="4201"/>
   <tile gid="4201"/>
   <tile gid="4201"/>
   <tile gid="4201"/>
   <tile gid="4201"/>
   <tile gid="4201"/>
   <tile gid="4201"/>
   <tile gid="4201"/>
   <tile/>
   <tile/>
   <tile/>
   <tile/>
   <tile/>
   <tile/>
   <tile/>
   <tile/>
   <tile/>
   <tile/>
   <tile/>
   <tile/>
   <tile/>
   <tile/>
   <tile/>
   <tile/>
   <tile/>
   <tile/>
   <tile/>
   <tile/>
   <tile/>
   <tile/>
   <tile/>
   <tile/>
   <tile/>
   <tile/>
   <tile/>
   <tile/>
   <tile/>
   <tile/>
   <tile/>
   <tile/>
   <tile/>
   <tile/>
   <tile/>
   <tile/>
   <tile/>
   <tile/>
   <tile/>
   <tile/>
   <tile/>
   <tile/>
   <tile/>
   <tile/>
   <tile/>
   <tile/>
   <tile/>
   <tile/>
   <tile/>
   <tile/>
   <tile/>
   <tile/>
   <tile/>
   <tile/>
   <tile/>
   <tile/>
   <tile/>
   <tile/>
   <tile/>
   <tile/>
   <tile/>
   <tile/>
   <tile/>
   <tile/>
   <tile/>
   <tile/>
   <tile/>
   <tile/>
   <tile/>
   <tile/>
   <tile/>
   <tile/>
   <tile/>
   <tile/>
   <tile/>
   <tile/>
   <tile/>
   <tile/>
   <tile/>
   <tile/>
   <tile/>
   <tile gid="4201"/>
   <tile gid="4201"/>
   <tile gid="4201"/>
   <tile gid="4201"/>
   <tile gid="4201"/>
   <tile gid="4201"/>
   <tile gid="4201"/>
   <tile gid="4201"/>
   <tile gid="4201"/>
   <tile gid="4201"/>
   <tile gid="4201"/>
   <tile gid="4201"/>
   <tile gid="4201"/>
   <tile gid="4201"/>
   <tile gid="4201"/>
   <tile gid="4201"/>
   <tile gid="4201"/>
   <tile gid="4201"/>
   <tile gid="4201"/>
   <tile gid="4201"/>
   <tile gid="4201"/>
   <tile gid="4201"/>
   <tile gid="4201"/>
   <tile gid="4201"/>
   <tile gid="4201"/>
   <tile gid="4201"/>
   <tile gid="4201"/>
   <tile gid="4201"/>
   <tile gid="4201"/>
   <tile gid="4201"/>
   <tile gid="4201"/>
   <tile gid="4201"/>
   <tile gid="4201"/>
   <tile gid="4201"/>
   <tile gid="4201"/>
   <tile gid="4201"/>
   <tile gid="4201"/>
   <tile gid="4201"/>
   <tile gid="4201"/>
   <tile/>
   <tile/>
   <tile/>
   <tile/>
   <tile/>
   <tile/>
   <tile/>
   <tile/>
   <tile/>
   <tile/>
   <tile/>
   <tile/>
   <tile/>
   <tile/>
   <tile/>
   <tile/>
   <tile/>
   <tile/>
   <tile/>
   <tile/>
   <tile/>
   <tile/>
   <tile/>
   <tile/>
   <tile/>
   <tile/>
   <tile/>
   <tile/>
   <tile/>
   <tile/>
   <tile/>
   <tile/>
   <tile/>
   <tile/>
   <tile/>
   <tile/>
   <tile/>
   <tile/>
   <tile/>
   <tile/>
   <tile/>
   <tile/>
   <tile/>
   <tile/>
   <tile/>
   <tile/>
   <tile/>
   <tile/>
   <tile/>
   <tile/>
   <tile/>
   <tile/>
   <tile/>
   <tile/>
   <tile/>
   <tile/>
   <tile/>
   <tile/>
   <tile/>
   <tile/>
   <tile/>
   <tile/>
   <tile/>
   <tile/>
   <tile/>
   <tile/>
   <tile/>
   <tile/>
   <tile/>
   <tile/>
   <tile/>
   <tile/>
   <tile/>
   <tile/>
   <tile/>
   <tile/>
   <tile/>
   <tile/>
   <tile/>
   <tile/>
   <tile/>
   <tile gid="4201"/>
   <tile gid="4201"/>
   <tile gid="4201"/>
   <tile gid="4201"/>
   <tile gid="4201"/>
   <tile gid="4201"/>
   <tile gid="4201"/>
   <tile gid="4201"/>
   <tile gid="4201"/>
   <tile gid="4201"/>
   <tile gid="4201"/>
   <tile gid="4201"/>
   <tile gid="4201"/>
   <tile gid="4201"/>
   <tile gid="4201"/>
   <tile gid="4201"/>
   <tile gid="4201"/>
   <tile gid="4201"/>
   <tile gid="4201"/>
   <tile gid="4201"/>
   <tile gid="4201"/>
   <tile gid="4201"/>
   <tile gid="4201"/>
   <tile gid="4201"/>
   <tile gid="4201"/>
   <tile gid="4201"/>
   <tile gid="4201"/>
   <tile gid="4201"/>
   <tile gid="4201"/>
   <tile gid="4201"/>
   <tile gid="4201"/>
   <tile gid="4201"/>
   <tile gid="4201"/>
   <tile gid="4201"/>
   <tile gid="4201"/>
   <tile gid="4201"/>
   <tile gid="4201"/>
   <tile gid="4201"/>
   <tile gid="4201"/>
   <tile/>
   <tile/>
   <tile/>
   <tile/>
   <tile/>
   <tile/>
   <tile/>
   <tile/>
   <tile/>
   <tile/>
   <tile/>
   <tile/>
   <tile/>
   <tile/>
   <tile/>
   <tile/>
   <tile/>
   <tile/>
   <tile/>
   <tile/>
   <tile/>
   <tile/>
   <tile/>
   <tile/>
   <tile/>
   <tile/>
   <tile/>
   <tile/>
   <tile/>
   <tile/>
   <tile/>
   <tile/>
   <tile/>
   <tile/>
   <tile/>
   <tile/>
   <tile/>
   <tile/>
   <tile/>
   <tile/>
   <tile/>
   <tile/>
   <tile/>
   <tile/>
   <tile/>
   <tile/>
   <tile/>
   <tile/>
   <tile/>
   <tile/>
   <tile/>
   <tile/>
   <tile/>
   <tile/>
   <tile/>
   <tile/>
   <tile/>
   <tile/>
   <tile/>
   <tile/>
   <tile/>
   <tile/>
   <tile/>
   <tile/>
   <tile/>
   <tile/>
   <tile/>
   <tile/>
   <tile/>
   <tile/>
   <tile/>
   <tile/>
   <tile/>
   <tile/>
   <tile/>
   <tile/>
   <tile/>
   <tile/>
   <tile/>
   <tile/>
   <tile/>
   <tile gid="4201"/>
   <tile gid="4201"/>
   <tile gid="4201"/>
   <tile gid="4201"/>
   <tile gid="4201"/>
   <tile gid="4201"/>
   <tile gid="4201"/>
   <tile gid="4201"/>
   <tile gid="4201"/>
   <tile gid="4201"/>
   <tile gid="4201"/>
   <tile gid="4201"/>
   <tile gid="4201"/>
   <tile gid="4201"/>
   <tile gid="4201"/>
   <tile gid="4201"/>
   <tile gid="4201"/>
   <tile gid="4201"/>
   <tile gid="4201"/>
   <tile gid="4201"/>
   <tile gid="4201"/>
   <tile gid="4201"/>
   <tile gid="4201"/>
   <tile gid="4201"/>
   <tile gid="4201"/>
   <tile gid="4201"/>
   <tile gid="4201"/>
   <tile gid="4201"/>
   <tile gid="4201"/>
   <tile gid="4201"/>
   <tile gid="4201"/>
   <tile gid="4201"/>
   <tile gid="4201"/>
   <tile gid="4201"/>
   <tile gid="4201"/>
   <tile gid="4201"/>
   <tile gid="4201"/>
   <tile gid="4201"/>
   <tile gid="4201"/>
   <tile/>
   <tile/>
   <tile/>
   <tile/>
   <tile/>
   <tile/>
   <tile/>
   <tile/>
   <tile/>
   <tile/>
   <tile/>
   <tile/>
   <tile/>
   <tile/>
   <tile/>
   <tile/>
   <tile/>
   <tile/>
   <tile/>
   <tile/>
   <tile/>
   <tile/>
   <tile/>
   <tile/>
   <tile/>
   <tile/>
   <tile/>
   <tile/>
   <tile/>
   <tile/>
   <tile/>
   <tile/>
   <tile/>
   <tile/>
   <tile/>
   <tile/>
   <tile/>
   <tile/>
   <tile/>
   <tile/>
   <tile/>
   <tile/>
   <tile/>
   <tile/>
   <tile/>
   <tile/>
   <tile/>
   <tile/>
   <tile/>
   <tile/>
   <tile/>
   <tile/>
   <tile/>
   <tile/>
   <tile/>
   <tile/>
   <tile/>
   <tile/>
   <tile/>
   <tile/>
   <tile/>
   <tile/>
   <tile/>
   <tile/>
   <tile/>
   <tile/>
   <tile/>
   <tile/>
   <tile/>
   <tile/>
   <tile/>
   <tile/>
   <tile/>
   <tile/>
   <tile/>
   <tile/>
   <tile/>
   <tile/>
   <tile/>
   <tile/>
   <tile/>
   <tile gid="4201"/>
   <tile gid="4201"/>
   <tile gid="4201"/>
   <tile gid="4201"/>
   <tile gid="4201"/>
   <tile gid="4201"/>
   <tile gid="4201"/>
   <tile gid="4201"/>
   <tile gid="4201"/>
   <tile gid="4201"/>
   <tile gid="4201"/>
   <tile gid="4201"/>
   <tile gid="4201"/>
   <tile gid="4201"/>
   <tile gid="4201"/>
   <tile gid="4201"/>
   <tile gid="4201"/>
   <tile gid="4201"/>
   <tile gid="4201"/>
   <tile gid="4201"/>
   <tile gid="4201"/>
   <tile gid="2032"/>
   <tile/>
   <tile/>
   <tile/>
   <tile/>
   <tile gid="2032"/>
   <tile gid="2032"/>
   <tile/>
   <tile/>
   <tile/>
   <tile/>
   <tile/>
   <tile/>
   <tile gid="4201"/>
   <tile gid="4201"/>
   <tile gid="4201"/>
   <tile gid="4201"/>
   <tile gid="4201"/>
   <tile/>
   <tile/>
   <tile/>
   <tile/>
   <tile/>
   <tile/>
   <tile/>
   <tile/>
   <tile/>
   <tile/>
   <tile/>
   <tile/>
   <tile/>
   <tile/>
   <tile/>
   <tile/>
   <tile/>
   <tile/>
   <tile/>
   <tile/>
   <tile/>
   <tile/>
   <tile/>
   <tile/>
   <tile/>
   <tile/>
   <tile/>
   <tile/>
   <tile/>
   <tile/>
   <tile/>
   <tile/>
   <tile/>
   <tile/>
   <tile/>
   <tile/>
   <tile/>
   <tile/>
   <tile/>
   <tile/>
   <tile/>
   <tile/>
   <tile/>
   <tile/>
   <tile/>
   <tile/>
   <tile/>
   <tile/>
   <tile/>
   <tile/>
   <tile/>
   <tile/>
   <tile/>
   <tile/>
   <tile/>
   <tile/>
   <tile/>
   <tile/>
   <tile/>
   <tile/>
   <tile/>
   <tile/>
   <tile/>
   <tile/>
   <tile/>
   <tile/>
   <tile/>
   <tile/>
   <tile/>
   <tile/>
   <tile/>
   <tile/>
   <tile/>
   <tile/>
   <tile/>
   <tile/>
   <tile/>
   <tile/>
   <tile/>
   <tile/>
   <tile/>
   <tile gid="4201"/>
   <tile gid="4201"/>
   <tile gid="4201"/>
   <tile gid="4201"/>
   <tile gid="4201"/>
   <tile gid="4201"/>
   <tile gid="4201"/>
   <tile gid="4201"/>
   <tile gid="4201"/>
   <tile gid="4201"/>
   <tile gid="4201"/>
   <tile gid="4201"/>
   <tile gid="4201"/>
   <tile gid="4201"/>
   <tile gid="4201"/>
   <tile gid="4201"/>
   <tile gid="4201"/>
   <tile gid="4201"/>
   <tile gid="4201"/>
   <tile gid="4201"/>
   <tile gid="4201"/>
   <tile/>
   <tile/>
   <tile/>
   <tile/>
   <tile/>
   <tile/>
   <tile/>
   <tile/>
   <tile/>
   <tile/>
   <tile/>
   <tile/>
   <tile/>
   <tile gid="4201"/>
   <tile gid="4201"/>
   <tile gid="4201"/>
   <tile gid="4201"/>
   <tile gid="4201"/>
   <tile/>
   <tile/>
   <tile/>
   <tile/>
   <tile/>
   <tile/>
   <tile/>
   <tile/>
   <tile/>
   <tile/>
   <tile/>
   <tile/>
   <tile/>
   <tile/>
   <tile/>
   <tile/>
   <tile/>
   <tile/>
   <tile/>
   <tile/>
   <tile/>
   <tile/>
   <tile/>
   <tile/>
   <tile/>
   <tile/>
   <tile/>
   <tile/>
   <tile/>
   <tile/>
   <tile/>
   <tile/>
   <tile/>
   <tile/>
   <tile/>
   <tile/>
   <tile/>
   <tile/>
   <tile/>
   <tile/>
   <tile/>
   <tile/>
   <tile/>
   <tile/>
   <tile/>
   <tile/>
   <tile/>
   <tile/>
   <tile/>
   <tile/>
   <tile/>
   <tile/>
   <tile/>
   <tile/>
   <tile/>
   <tile/>
   <tile/>
   <tile/>
   <tile/>
   <tile/>
   <tile/>
   <tile/>
   <tile/>
   <tile/>
   <tile/>
   <tile/>
   <tile/>
   <tile/>
   <tile/>
   <tile/>
   <tile/>
   <tile/>
   <tile/>
   <tile/>
   <tile/>
   <tile/>
   <tile/>
   <tile/>
   <tile/>
   <tile/>
   <tile/>
   <tile gid="4201"/>
   <tile gid="4201"/>
   <tile gid="4201"/>
   <tile gid="4201"/>
   <tile gid="4201"/>
   <tile gid="4201"/>
   <tile gid="4201"/>
   <tile gid="4201"/>
   <tile gid="4201"/>
   <tile gid="4201"/>
   <tile gid="4201"/>
   <tile gid="4201"/>
   <tile gid="4201"/>
   <tile gid="4201"/>
   <tile gid="1713"/>
   <tile gid="1713"/>
   <tile gid="1713"/>
   <tile gid="1713"/>
   <tile gid="1713"/>
   <tile gid="1713"/>
   <tile gid="1713"/>
   <tile/>
   <tile/>
   <tile/>
   <tile/>
   <tile/>
   <tile/>
   <tile/>
   <tile/>
   <tile/>
   <tile/>
   <tile/>
   <tile/>
   <tile/>
   <tile gid="4201"/>
   <tile gid="4201"/>
   <tile gid="4201"/>
   <tile gid="4201"/>
   <tile gid="4201"/>
   <tile/>
   <tile/>
   <tile/>
   <tile/>
   <tile/>
   <tile/>
   <tile/>
   <tile/>
   <tile/>
   <tile/>
   <tile/>
   <tile/>
   <tile/>
   <tile/>
   <tile/>
   <tile/>
   <tile/>
   <tile/>
   <tile/>
   <tile/>
   <tile/>
   <tile/>
   <tile/>
   <tile/>
   <tile/>
   <tile/>
   <tile/>
   <tile/>
   <tile/>
   <tile/>
   <tile/>
   <tile/>
   <tile/>
   <tile/>
   <tile/>
   <tile/>
   <tile/>
   <tile/>
   <tile/>
   <tile/>
   <tile/>
   <tile/>
   <tile/>
   <tile/>
   <tile/>
   <tile/>
   <tile/>
   <tile/>
   <tile/>
   <tile/>
   <tile/>
   <tile/>
   <tile/>
   <tile/>
   <tile/>
   <tile/>
   <tile/>
   <tile/>
   <tile/>
   <tile/>
   <tile/>
   <tile/>
   <tile/>
   <tile/>
   <tile/>
   <tile/>
   <tile/>
   <tile/>
   <tile/>
   <tile/>
   <tile/>
   <tile/>
   <tile/>
   <tile/>
   <tile/>
   <tile/>
   <tile/>
   <tile/>
   <tile/>
   <tile/>
   <tile/>
   <tile gid="4201"/>
   <tile gid="4201"/>
   <tile gid="4201"/>
   <tile gid="4201"/>
   <tile gid="4201"/>
   <tile gid="4201"/>
   <tile gid="4201"/>
   <tile gid="4201"/>
   <tile gid="4201"/>
   <tile gid="4201"/>
   <tile gid="4201"/>
   <tile gid="4201"/>
   <tile gid="4201"/>
   <tile gid="4201"/>
   <tile gid="1713"/>
   <tile/>
   <tile/>
   <tile/>
   <tile/>
   <tile/>
   <tile gid="1713"/>
   <tile/>
   <tile/>
   <tile/>
   <tile/>
   <tile/>
   <tile/>
   <tile/>
   <tile/>
   <tile/>
   <tile/>
   <tile/>
   <tile/>
   <tile/>
   <tile gid="4201"/>
   <tile gid="4201"/>
   <tile gid="4201"/>
   <tile gid="4201"/>
   <tile gid="4201"/>
   <tile/>
   <tile/>
   <tile/>
   <tile/>
   <tile/>
   <tile/>
   <tile/>
   <tile/>
   <tile/>
   <tile/>
   <tile/>
   <tile/>
   <tile/>
   <tile/>
   <tile/>
   <tile/>
   <tile/>
   <tile/>
   <tile/>
   <tile/>
   <tile/>
   <tile/>
   <tile/>
   <tile/>
   <tile/>
   <tile/>
   <tile/>
   <tile/>
   <tile/>
   <tile/>
   <tile/>
   <tile/>
   <tile/>
   <tile/>
   <tile/>
   <tile/>
   <tile/>
   <tile/>
   <tile/>
   <tile/>
   <tile/>
   <tile/>
   <tile/>
   <tile/>
   <tile/>
   <tile/>
   <tile/>
   <tile/>
   <tile/>
   <tile/>
   <tile/>
   <tile/>
   <tile/>
   <tile/>
   <tile/>
   <tile/>
   <tile/>
   <tile/>
   <tile/>
   <tile/>
   <tile/>
   <tile/>
   <tile/>
   <tile/>
   <tile/>
   <tile/>
   <tile/>
   <tile/>
   <tile/>
   <tile/>
   <tile/>
   <tile/>
   <tile/>
   <tile/>
   <tile/>
   <tile/>
   <tile/>
   <tile/>
   <tile/>
   <tile/>
   <tile/>
   <tile gid="4201"/>
   <tile gid="4201"/>
   <tile gid="4201"/>
   <tile gid="4201"/>
   <tile gid="4201"/>
   <tile gid="4201"/>
   <tile gid="4201"/>
   <tile gid="4201"/>
   <tile gid="4201"/>
   <tile gid="4201"/>
   <tile gid="4201"/>
   <tile gid="4201"/>
   <tile gid="4201"/>
   <tile gid="4201"/>
   <tile gid="1713"/>
   <tile/>
   <tile/>
   <tile/>
   <tile/>
   <tile/>
   <tile gid="1713"/>
   <tile/>
   <tile/>
   <tile/>
   <tile/>
   <tile/>
   <tile/>
   <tile/>
   <tile/>
   <tile/>
   <tile/>
   <tile/>
   <tile/>
   <tile/>
   <tile gid="4201"/>
   <tile gid="4201"/>
   <tile gid="4201"/>
   <tile gid="4201"/>
   <tile gid="4201"/>
   <tile/>
   <tile/>
   <tile/>
   <tile/>
   <tile/>
   <tile/>
   <tile/>
   <tile/>
   <tile/>
   <tile/>
   <tile/>
   <tile/>
   <tile/>
   <tile/>
   <tile/>
   <tile/>
   <tile/>
   <tile/>
   <tile/>
   <tile/>
   <tile/>
   <tile/>
   <tile/>
   <tile/>
   <tile/>
   <tile/>
   <tile/>
   <tile/>
   <tile/>
   <tile/>
   <tile/>
   <tile/>
   <tile/>
   <tile/>
   <tile/>
   <tile/>
   <tile/>
   <tile/>
   <tile/>
   <tile/>
   <tile/>
   <tile/>
   <tile/>
   <tile/>
   <tile/>
   <tile/>
   <tile/>
   <tile/>
   <tile/>
   <tile/>
   <tile/>
   <tile/>
   <tile/>
   <tile/>
   <tile/>
   <tile/>
   <tile/>
   <tile/>
   <tile/>
   <tile/>
   <tile/>
   <tile/>
   <tile/>
   <tile/>
   <tile/>
   <tile/>
   <tile/>
   <tile/>
   <tile/>
   <tile/>
   <tile/>
   <tile/>
   <tile/>
   <tile/>
   <tile/>
   <tile/>
   <tile/>
   <tile/>
   <tile/>
   <tile/>
   <tile/>
   <tile gid="4201"/>
   <tile gid="4201"/>
   <tile gid="4201"/>
   <tile gid="4201"/>
   <tile gid="4201"/>
   <tile gid="4201"/>
   <tile gid="4201"/>
   <tile gid="4201"/>
   <tile gid="4201"/>
   <tile gid="4201"/>
   <tile gid="4201"/>
   <tile gid="4201"/>
   <tile gid="4201"/>
   <tile gid="4201"/>
   <tile gid="1713"/>
   <tile/>
   <tile/>
   <tile/>
   <tile/>
   <tile/>
   <tile gid="1713"/>
   <tile gid="2032"/>
   <tile/>
   <tile/>
   <tile/>
   <tile/>
   <tile/>
   <tile/>
   <tile/>
   <tile/>
   <tile/>
   <tile/>
   <tile/>
   <tile gid="2032"/>
   <tile gid="4201"/>
   <tile gid="4201"/>
   <tile gid="4201"/>
   <tile gid="4201"/>
   <tile gid="4201"/>
   <tile/>
   <tile/>
   <tile/>
   <tile/>
   <tile/>
   <tile/>
   <tile/>
   <tile/>
   <tile/>
   <tile/>
   <tile/>
   <tile/>
   <tile/>
   <tile/>
   <tile/>
   <tile/>
   <tile/>
   <tile/>
   <tile/>
   <tile/>
   <tile/>
   <tile/>
   <tile/>
   <tile/>
   <tile/>
   <tile/>
   <tile/>
   <tile/>
   <tile/>
   <tile/>
   <tile/>
   <tile/>
   <tile/>
   <tile/>
   <tile/>
   <tile/>
   <tile/>
   <tile/>
   <tile/>
   <tile/>
   <tile/>
   <tile/>
   <tile/>
   <tile/>
   <tile/>
   <tile/>
   <tile/>
   <tile/>
   <tile/>
   <tile/>
   <tile/>
   <tile/>
   <tile/>
   <tile/>
   <tile/>
   <tile/>
   <tile/>
   <tile/>
   <tile/>
   <tile/>
   <tile/>
   <tile/>
   <tile/>
   <tile/>
   <tile/>
   <tile/>
   <tile/>
   <tile/>
   <tile/>
   <tile/>
   <tile/>
   <tile/>
   <tile/>
   <tile/>
   <tile/>
   <tile/>
   <tile/>
   <tile/>
   <tile/>
   <tile/>
   <tile/>
   <tile gid="4201"/>
   <tile gid="4201"/>
   <tile gid="4201"/>
   <tile gid="4201"/>
   <tile gid="4201"/>
   <tile gid="4201"/>
   <tile gid="4201"/>
   <tile gid="4201"/>
   <tile gid="4201"/>
   <tile gid="4201"/>
   <tile gid="4201"/>
   <tile gid="4201"/>
   <tile gid="4201"/>
   <tile gid="4201"/>
   <tile gid="1713"/>
   <tile gid="1713"/>
   <tile/>
   <tile/>
   <tile/>
   <tile/>
   <tile gid="1713"/>
   <tile gid="2032"/>
   <tile gid="2032"/>
   <tile/>
   <tile/>
   <tile/>
   <tile/>
   <tile/>
   <tile/>
   <tile/>
   <tile/>
   <tile/>
   <tile/>
   <tile gid="2032"/>
   <tile gid="4201"/>
   <tile gid="4201"/>
   <tile gid="4201"/>
   <tile gid="4201"/>
   <tile gid="4201"/>
   <tile/>
   <tile/>
   <tile/>
   <tile/>
   <tile/>
   <tile/>
   <tile/>
   <tile/>
   <tile/>
   <tile/>
   <tile/>
   <tile/>
   <tile/>
   <tile/>
   <tile/>
   <tile/>
   <tile/>
   <tile/>
   <tile/>
   <tile/>
   <tile/>
   <tile/>
   <tile/>
   <tile/>
   <tile/>
   <tile/>
   <tile/>
   <tile/>
   <tile/>
   <tile/>
   <tile/>
   <tile/>
   <tile/>
   <tile/>
   <tile/>
   <tile/>
   <tile/>
   <tile/>
   <tile/>
   <tile/>
   <tile/>
   <tile/>
   <tile/>
   <tile/>
   <tile/>
   <tile/>
   <tile/>
   <tile/>
   <tile/>
   <tile/>
   <tile/>
   <tile/>
   <tile/>
   <tile/>
   <tile/>
   <tile/>
   <tile/>
   <tile/>
   <tile/>
   <tile/>
   <tile/>
   <tile/>
   <tile/>
   <tile/>
   <tile/>
   <tile/>
   <tile/>
   <tile/>
   <tile/>
   <tile/>
   <tile/>
   <tile/>
   <tile/>
   <tile/>
   <tile/>
   <tile/>
   <tile/>
   <tile/>
   <tile/>
   <tile/>
   <tile/>
   <tile gid="4201"/>
   <tile gid="4201"/>
   <tile gid="4201"/>
   <tile gid="4201"/>
   <tile gid="4201"/>
   <tile gid="4201"/>
   <tile gid="4201"/>
   <tile gid="4201"/>
   <tile gid="4201"/>
   <tile gid="4201"/>
   <tile gid="4201"/>
   <tile gid="4201"/>
   <tile gid="4201"/>
   <tile gid="4201"/>
   <tile gid="1713"/>
   <tile gid="1713"/>
   <tile/>
   <tile/>
   <tile/>
   <tile/>
   <tile gid="1713"/>
   <tile gid="2032"/>
   <tile gid="2032"/>
   <tile/>
   <tile/>
   <tile/>
   <tile/>
   <tile/>
   <tile/>
   <tile/>
   <tile/>
   <tile/>
   <tile/>
   <tile gid="2032"/>
   <tile gid="4201"/>
   <tile gid="4201"/>
   <tile gid="4201"/>
   <tile gid="4201"/>
   <tile gid="4201"/>
   <tile/>
   <tile/>
   <tile/>
   <tile/>
   <tile/>
   <tile/>
   <tile/>
   <tile/>
   <tile/>
   <tile/>
   <tile/>
   <tile/>
   <tile/>
   <tile/>
   <tile/>
   <tile/>
   <tile/>
   <tile/>
   <tile/>
   <tile/>
   <tile/>
   <tile/>
   <tile/>
   <tile/>
   <tile/>
   <tile/>
   <tile/>
   <tile/>
   <tile/>
   <tile/>
   <tile/>
   <tile/>
   <tile/>
   <tile/>
   <tile/>
   <tile/>
   <tile/>
   <tile/>
   <tile/>
   <tile/>
   <tile/>
   <tile/>
   <tile/>
   <tile/>
   <tile/>
   <tile/>
   <tile/>
   <tile/>
   <tile/>
   <tile/>
   <tile/>
   <tile/>
   <tile/>
   <tile/>
   <tile/>
   <tile/>
   <tile/>
   <tile/>
   <tile/>
   <tile/>
   <tile/>
   <tile/>
   <tile/>
   <tile/>
   <tile/>
   <tile/>
   <tile/>
   <tile/>
   <tile/>
   <tile/>
   <tile/>
   <tile/>
   <tile/>
   <tile/>
   <tile/>
   <tile/>
   <tile/>
   <tile/>
   <tile/>
   <tile/>
   <tile/>
   <tile gid="4201"/>
   <tile gid="4201"/>
   <tile gid="4201"/>
   <tile gid="4201"/>
   <tile gid="4201"/>
   <tile gid="4201"/>
   <tile gid="4201"/>
   <tile gid="4201"/>
   <tile gid="4201"/>
   <tile gid="4201"/>
   <tile gid="4201"/>
   <tile gid="4201"/>
   <tile gid="4201"/>
   <tile gid="4201"/>
   <tile gid="1713"/>
   <tile gid="1713"/>
   <tile gid="1713"/>
   <tile gid="1713"/>
   <tile gid="1713"/>
   <tile gid="1713"/>
   <tile gid="1713"/>
   <tile gid="2032"/>
   <tile gid="2032"/>
   <tile/>
   <tile/>
   <tile/>
   <tile/>
   <tile/>
   <tile/>
   <tile/>
   <tile/>
   <tile/>
   <tile/>
   <tile gid="2032"/>
   <tile gid="4201"/>
   <tile gid="4201"/>
   <tile gid="4201"/>
   <tile gid="4201"/>
   <tile gid="4201"/>
   <tile/>
   <tile/>
   <tile/>
   <tile/>
   <tile/>
   <tile/>
   <tile/>
   <tile/>
   <tile/>
   <tile/>
   <tile/>
   <tile/>
   <tile/>
   <tile/>
   <tile/>
   <tile/>
   <tile/>
   <tile/>
   <tile/>
   <tile/>
   <tile/>
   <tile/>
   <tile/>
   <tile/>
   <tile/>
   <tile/>
   <tile/>
   <tile/>
   <tile/>
   <tile/>
   <tile/>
   <tile/>
   <tile/>
   <tile/>
   <tile/>
   <tile/>
   <tile/>
   <tile/>
   <tile/>
   <tile/>
   <tile/>
   <tile/>
   <tile/>
   <tile/>
   <tile/>
   <tile/>
   <tile/>
   <tile/>
   <tile/>
   <tile/>
   <tile/>
   <tile/>
   <tile/>
   <tile/>
   <tile/>
   <tile/>
   <tile/>
   <tile/>
   <tile/>
   <tile/>
   <tile/>
   <tile/>
   <tile/>
   <tile/>
   <tile/>
   <tile/>
   <tile/>
   <tile/>
   <tile/>
   <tile/>
   <tile/>
   <tile/>
   <tile/>
   <tile/>
   <tile/>
   <tile/>
   <tile/>
   <tile/>
   <tile/>
   <tile/>
   <tile/>
   <tile gid="4201"/>
   <tile gid="4201"/>
   <tile gid="4201"/>
   <tile gid="4201"/>
   <tile gid="4201"/>
   <tile gid="4201"/>
   <tile gid="4201"/>
   <tile gid="4201"/>
   <tile gid="4201"/>
   <tile gid="4201"/>
   <tile gid="4201"/>
   <tile gid="4201"/>
   <tile gid="4201"/>
   <tile gid="4201"/>
   <tile gid="4201"/>
   <tile gid="4201"/>
   <tile gid="4201"/>
   <tile gid="4201"/>
   <tile gid="4201"/>
   <tile gid="4201"/>
   <tile gid="4201"/>
   <tile gid="4201"/>
   <tile gid="4201"/>
   <tile gid="4201"/>
   <tile gid="4201"/>
   <tile gid="4201"/>
   <tile gid="4201"/>
   <tile gid="4201"/>
   <tile gid="4201"/>
   <tile gid="4201"/>
   <tile gid="4201"/>
   <tile gid="4201"/>
   <tile gid="4201"/>
   <tile gid="4201"/>
   <tile gid="4201"/>
   <tile gid="4201"/>
   <tile gid="4201"/>
   <tile gid="4201"/>
   <tile gid="4201"/>
   <tile/>
   <tile/>
   <tile/>
   <tile/>
   <tile/>
   <tile/>
   <tile/>
   <tile/>
   <tile/>
   <tile/>
   <tile/>
   <tile/>
   <tile/>
   <tile/>
   <tile/>
   <tile/>
   <tile/>
   <tile/>
   <tile/>
   <tile/>
   <tile/>
   <tile/>
   <tile/>
   <tile/>
   <tile/>
   <tile/>
   <tile/>
   <tile/>
   <tile/>
   <tile/>
   <tile/>
   <tile/>
   <tile/>
   <tile/>
   <tile/>
   <tile/>
   <tile/>
   <tile/>
   <tile/>
   <tile/>
   <tile/>
   <tile/>
   <tile/>
   <tile/>
   <tile/>
   <tile/>
   <tile/>
   <tile/>
   <tile/>
   <tile/>
   <tile/>
   <tile/>
   <tile/>
   <tile/>
   <tile/>
   <tile/>
   <tile/>
   <tile/>
   <tile/>
   <tile/>
   <tile/>
   <tile/>
   <tile/>
   <tile/>
   <tile/>
   <tile/>
   <tile/>
   <tile/>
   <tile/>
   <tile/>
   <tile/>
   <tile/>
   <tile/>
   <tile/>
   <tile/>
   <tile/>
   <tile/>
   <tile/>
   <tile/>
   <tile/>
   <tile/>
   <tile gid="4201"/>
   <tile gid="4201"/>
   <tile gid="4201"/>
   <tile gid="4201"/>
   <tile gid="4201"/>
   <tile gid="4201"/>
   <tile gid="4201"/>
   <tile gid="4201"/>
   <tile gid="4201"/>
   <tile gid="4201"/>
   <tile gid="4201"/>
   <tile gid="4201"/>
   <tile gid="4201"/>
   <tile gid="4201"/>
   <tile gid="4201"/>
   <tile gid="4201"/>
   <tile gid="4201"/>
   <tile gid="4201"/>
   <tile gid="4201"/>
   <tile gid="4201"/>
   <tile gid="4201"/>
   <tile gid="4201"/>
   <tile gid="4201"/>
   <tile gid="4201"/>
   <tile gid="4201"/>
   <tile gid="4201"/>
   <tile gid="4201"/>
   <tile gid="4201"/>
   <tile gid="4201"/>
   <tile gid="4201"/>
   <tile gid="4201"/>
   <tile gid="4201"/>
   <tile gid="4201"/>
   <tile gid="4201"/>
   <tile gid="4201"/>
   <tile gid="4201"/>
   <tile gid="4201"/>
   <tile gid="4201"/>
   <tile gid="4201"/>
  </data>
 </layer>
 <layer id="2" name="paredes" width="120" height="90">
  <data>
   <tile gid="246"/>
   <tile gid="247"/>
   <tile gid="248"/>
   <tile gid="249"/>
   <tile gid="250"/>
   <tile gid="251"/>
   <tile gid="252"/>
   <tile gid="242"/>
   <tile gid="243"/>
   <tile gid="244"/>
   <tile gid="245"/>
   <tile gid="246"/>
   <tile gid="247"/>
   <tile gid="248"/>
   <tile gid="249"/>
   <tile gid="250"/>
   <tile gid="251"/>
   <tile gid="252"/>
   <tile gid="244"/>
   <tile gid="245"/>
   <tile gid="246"/>
   <tile gid="247"/>
   <tile gid="248"/>
   <tile gid="249"/>
   <tile gid="250"/>
   <tile gid="251"/>
   <tile gid="252"/>
   <tile gid="243"/>
   <tile gid="244"/>
   <tile gid="245"/>
   <tile gid="246"/>
   <tile gid="247"/>
   <tile gid="248"/>
   <tile gid="249"/>
   <tile gid="250"/>
   <tile gid="251"/>
   <tile gid="252"/>
   <tile gid="243"/>
   <tile gid="244"/>
   <tile gid="245"/>
   <tile gid="246"/>
   <tile gid="247"/>
   <tile gid="248"/>
   <tile gid="249"/>
   <tile gid="250"/>
   <tile gid="251"/>
   <tile gid="252"/>
   <tile gid="243"/>
   <tile gid="244"/>
   <tile gid="245"/>
   <tile gid="246"/>
   <tile gid="247"/>
   <tile gid="248"/>
   <tile gid="249"/>
   <tile gid="250"/>
   <tile gid="251"/>
   <tile gid="252"/>
   <tile gid="243"/>
   <tile gid="244"/>
   <tile gid="245"/>
   <tile gid="246"/>
   <tile gid="247"/>
   <tile gid="248"/>
   <tile gid="249"/>
   <tile gid="250"/>
   <tile gid="251"/>
   <tile gid="252"/>
   <tile gid="243"/>
   <tile gid="244"/>
   <tile gid="245"/>
   <tile gid="246"/>
   <tile gid="247"/>
   <tile gid="248"/>
   <tile gid="249"/>
   <tile gid="250"/>
   <tile gid="251"/>
   <tile gid="252"/>
   <tile gid="243"/>
   <tile gid="244"/>
   <tile gid="245"/>
   <tile gid="246"/>
   <tile gid="247"/>
   <tile gid="248"/>
   <tile gid="249"/>
   <tile gid="250"/>
   <tile gid="251"/>
   <tile gid="252"/>
   <tile gid="242"/>
   <tile gid="243"/>
   <tile gid="244"/>
   <tile gid="245"/>
   <tile gid="246"/>
   <tile gid="247"/>
   <tile gid="248"/>
   <tile gid="249"/>
   <tile gid="250"/>
   <tile gid="187"/>
   <tile gid="188"/>
   <tile gid="189"/>
   <tile gid="190"/>
   <tile gid="191"/>
   <tile gid="994"/>
   <tile gid="995"/>
   <tile gid="996"/>
   <tile gid="997"/>
   <tile gid="998"/>
   <tile gid="999"/>
   <tile gid="1000"/>
   <tile gid="1001"/>
   <tile gid="1002"/>
   <tile gid="1003"/>
   <tile gid="1004"/>
   <tile gid="1005"/>
   <tile gid="1006"/>
   <tile gid="1007"/>
   <tile gid="306"/>
   <tile gid="307"/>
   <tile gid="308"/>
   <tile gid="246"/>
   <tile gid="247"/>
   <tile gid="310"/>
   <tile gid="311"/>
   <tile gid="312"/>
   <tile gid="313"/>
   <tile gid="314"/>
   <tile gid="315"/>
   <tile gid="316"/>
   <tile gid="306"/>
   <tile gid="307"/>
   <tile gid="308"/>
   <tile gid="309"/>
   <tile gid="310"/>
   <tile gid="311"/>
   <tile gid="312"/>
   <tile gid="313"/>
   <tile gid="314"/>
   <tile gid="315"/>
   <tile gid="316"/>
   <tile gid="308"/>
   <tile gid="309"/>
   <tile gid="310"/>
   <tile gid="311"/>
   <tile gid="312"/>
   <tile gid="313"/>
   <tile gid="314"/>
   <tile gid="315"/>
   <tile gid="316"/>
   <tile gid="307"/>
   <tile gid="308"/>
   <tile gid="309"/>
   <tile gid="310"/>
   <tile gid="311"/>
   <tile gid="312"/>
   <tile gid="313"/>
   <tile gid="314"/>
   <tile gid="315"/>
   <tile gid="316"/>
   <tile gid="307"/>
   <tile gid="308"/>
   <tile gid="309"/>
   <tile gid="310"/>
   <tile gid="311"/>
   <tile gid="312"/>
   <tile gid="313"/>
   <tile gid="314"/>
   <tile gid="315"/>
   <tile gid="316"/>
   <tile gid="307"/>
   <tile gid="308"/>
   <tile gid="309"/>
   <tile gid="310"/>
   <tile gid="311"/>
   <tile gid="312"/>
   <tile gid="313"/>
   <tile gid="314"/>
   <tile gid="315"/>
   <tile gid="316"/>
   <tile gid="307"/>
   <tile gid="308"/>
   <tile gid="309"/>
   <tile gid="310"/>
   <tile gid="311"/>
   <tile gid="312"/>
   <tile gid="313"/>
   <tile gid="314"/>
   <tile gid="315"/>
   <tile gid="316"/>
   <tile gid="307"/>
   <tile gid="308"/>
   <tile gid="309"/>
   <tile gid="310"/>
   <tile gid="311"/>
   <tile gid="312"/>
   <tile gid="313"/>
   <tile gid="314"/>
   <tile gid="315"/>
   <tile gid="316"/>
   <tile gid="307"/>
   <tile gid="308"/>
   <tile gid="309"/>
   <tile gid="310"/>
   <tile gid="311"/>
   <tile gid="312"/>
   <tile gid="313"/>
   <tile gid="314"/>
   <tile gid="315"/>
   <tile gid="316"/>
   <tile gid="306"/>
   <tile gid="307"/>
   <tile gid="308"/>
   <tile gid="309"/>
   <tile gid="310"/>
   <tile gid="311"/>
   <tile gid="312"/>
   <tile gid="313"/>
   <tile gid="314"/>
   <tile gid="251"/>
   <tile gid="252"/>
   <tile gid="253"/>
   <tile gid="254"/>
   <tile gid="255"/>
   <tile gid="1058"/>
   <tile gid="1059"/>
   <tile gid="1060"/>
   <tile gid="1061"/>
   <tile gid="1062"/>
   <tile gid="1063"/>
   <tile gid="1064"/>
   <tile gid="1065"/>
   <tile gid="1066"/>
   <tile gid="1067"/>
   <tile gid="1068"/>
   <tile gid="1069"/>
   <tile gid="1070"/>
   <tile gid="1071"/>
   <tile gid="370"/>
   <tile gid="371"/>
   <tile gid="372"/>
   <tile gid="310"/>
   <tile gid="311"/>
   <tile gid="374"/>
   <tile gid="375"/>
   <tile gid="376"/>
   <tile gid="377"/>
   <tile gid="378"/>
   <tile gid="379"/>
   <tile gid="380"/>
   <tile gid="370"/>
   <tile gid="371"/>
   <tile gid="372"/>
   <tile gid="373"/>
   <tile gid="374"/>
   <tile gid="375"/>
   <tile gid="376"/>
   <tile gid="377"/>
   <tile gid="378"/>
   <tile gid="379"/>
   <tile gid="380"/>
   <tile gid="372"/>
   <tile gid="373"/>
   <tile gid="374"/>
   <tile gid="375"/>
   <tile gid="376"/>
   <tile gid="377"/>
   <tile gid="378"/>
   <tile gid="379"/>
   <tile gid="380"/>
   <tile gid="371"/>
   <tile gid="372"/>
   <tile gid="373"/>
   <tile gid="374"/>
   <tile gid="375"/>
   <tile gid="376"/>
   <tile gid="377"/>
   <tile gid="378"/>
   <tile gid="379"/>
   <tile gid="380"/>
   <tile gid="371"/>
   <tile gid="372"/>
   <tile gid="373"/>
   <tile gid="374"/>
   <tile gid="375"/>
   <tile gid="376"/>
   <tile gid="377"/>
   <tile gid="378"/>
   <tile gid="379"/>
   <tile gid="380"/>
   <tile gid="371"/>
   <tile gid="372"/>
   <tile gid="373"/>
   <tile gid="374"/>
   <tile gid="375"/>
   <tile gid="376"/>
   <tile gid="377"/>
   <tile gid="378"/>
   <tile gid="379"/>
   <tile gid="380"/>
   <tile gid="371"/>
   <tile gid="372"/>
   <tile gid="373"/>
   <tile gid="374"/>
   <tile gid="375"/>
   <tile gid="376"/>
   <tile gid="377"/>
   <tile gid="378"/>
   <tile gid="379"/>
   <tile gid="380"/>
   <tile gid="371"/>
   <tile gid="372"/>
   <tile gid="373"/>
   <tile gid="374"/>
   <tile gid="375"/>
   <tile gid="376"/>
   <tile gid="377"/>
   <tile gid="378"/>
   <tile gid="379"/>
   <tile gid="380"/>
   <tile gid="371"/>
   <tile gid="372"/>
   <tile gid="373"/>
   <tile gid="374"/>
   <tile gid="375"/>
   <tile gid="376"/>
   <tile gid="377"/>
   <tile gid="378"/>
   <tile gid="379"/>
   <tile gid="380"/>
   <tile gid="370"/>
   <tile gid="371"/>
   <tile gid="372"/>
   <tile gid="373"/>
   <tile gid="374"/>
   <tile gid="375"/>
   <tile gid="376"/>
   <tile gid="377"/>
   <tile gid="378"/>
   <tile gid="315"/>
   <tile gid="316"/>
   <tile gid="317"/>
   <tile gid="318"/>
   <tile gid="319"/>
   <tile gid="1122"/>
   <tile gid="1123"/>
   <tile gid="1124"/>
   <tile gid="1125"/>
   <tile gid="1126"/>
   <tile gid="1127"/>
   <tile gid="1128"/>
   <tile gid="1129"/>
   <tile gid="1130"/>
   <tile gid="1131"/>
   <tile gid="1132"/>
   <tile gid="1133"/>
   <tile gid="1134"/>
   <tile gid="1135"/>
   <tile gid="434"/>
   <tile gid="435"/>
   <tile gid="436"/>
   <tile gid="374"/>
   <tile gid="375"/>
   <tile gid="438"/>
   <tile gid="439"/>
   <tile gid="440"/>
   <tile gid="441"/>
   <tile gid="442"/>
   <tile gid="443"/>
   <tile gid="444"/>
   <tile gid="434"/>
   <tile gid="435"/>
   <tile gid="436"/>
   <tile gid="437"/>
   <tile gid="438"/>
   <tile gid="439"/>
   <tile gid="440"/>
   <tile gid="441"/>
   <tile gid="442"/>
   <tile gid="443"/>
   <tile gid="444"/>
   <tile gid="436"/>
   <tile gid="437"/>
   <tile gid="438"/>
   <tile gid="439"/>
   <tile gid="440"/>
   <tile gid="441"/>
   <tile gid="442"/>
   <tile gid="443"/>
   <tile gid="444"/>
   <tile gid="435"/>
   <tile gid="436"/>
   <tile gid="437"/>
   <tile gid="438"/>
   <tile gid="439"/>
   <tile gid="440"/>
   <tile gid="441"/>
   <tile gid="442"/>
   <tile gid="443"/>
   <tile gid="444"/>
   <tile gid="435"/>
   <tile gid="436"/>
   <tile gid="437"/>
   <tile gid="438"/>
   <tile gid="439"/>
   <tile gid="440"/>
   <tile gid="441"/>
   <tile gid="442"/>
   <tile gid="443"/>
   <tile gid="444"/>
   <tile gid="435"/>
   <tile gid="436"/>
   <tile gid="437"/>
   <tile gid="438"/>
   <tile gid="439"/>
   <tile gid="440"/>
   <tile gid="441"/>
   <tile gid="442"/>
   <tile gid="443"/>
   <tile gid="444"/>
   <tile gid="435"/>
   <tile gid="436"/>
   <tile gid="437"/>
   <tile gid="438"/>
   <tile gid="439"/>
   <tile gid="440"/>
   <tile gid="441"/>
   <tile gid="442"/>
   <tile gid="443"/>
   <tile gid="444"/>
   <tile gid="435"/>
   <tile gid="436"/>
   <tile gid="437"/>
   <tile gid="438"/>
   <tile gid="439"/>
   <tile gid="440"/>
   <tile gid="441"/>
   <tile gid="442"/>
   <tile gid="443"/>
   <tile gid="444"/>
   <tile gid="435"/>
   <tile gid="436"/>
   <tile gid="437"/>
   <tile gid="438"/>
   <tile gid="439"/>
   <tile gid="440"/>
   <tile gid="441"/>
   <tile gid="442"/>
   <tile gid="443"/>
   <tile gid="444"/>
   <tile gid="434"/>
   <tile gid="435"/>
   <tile gid="436"/>
   <tile gid="437"/>
   <tile gid="438"/>
   <tile gid="439"/>
   <tile gid="440"/>
   <tile gid="441"/>
   <tile gid="442"/>
   <tile gid="379"/>
   <tile gid="380"/>
   <tile gid="381"/>
   <tile gid="382"/>
   <tile gid="383"/>
   <tile gid="1186"/>
   <tile gid="1187"/>
   <tile gid="1188"/>
   <tile gid="1189"/>
   <tile gid="1190"/>
   <tile gid="1191"/>
   <tile gid="1192"/>
   <tile gid="1193"/>
   <tile gid="1194"/>
   <tile gid="1195"/>
   <tile gid="1196"/>
   <tile gid="1197"/>
   <tile gid="1198"/>
   <tile gid="1199"/>
   <tile gid="498"/>
   <tile gid="499"/>
   <tile gid="500"/>
   <tile gid="438"/>
   <tile gid="439"/>
   <tile gid="502"/>
   <tile gid="503"/>
   <tile gid="504"/>
   <tile gid="505"/>
   <tile gid="506"/>
   <tile gid="507"/>
   <tile gid="508"/>
   <tile gid="498"/>
   <tile gid="499"/>
   <tile gid="500"/>
   <tile gid="501"/>
   <tile gid="502"/>
   <tile gid="503"/>
   <tile gid="504"/>
   <tile gid="505"/>
   <tile gid="506"/>
   <tile gid="507"/>
   <tile gid="508"/>
   <tile gid="500"/>
   <tile gid="501"/>
   <tile gid="502"/>
   <tile gid="503"/>
   <tile gid="504"/>
   <tile gid="505"/>
   <tile gid="506"/>
   <tile gid="507"/>
   <tile gid="508"/>
   <tile gid="499"/>
   <tile gid="500"/>
   <tile gid="501"/>
   <tile gid="502"/>
   <tile gid="503"/>
   <tile gid="504"/>
   <tile gid="505"/>
   <tile gid="506"/>
   <tile gid="507"/>
   <tile gid="508"/>
   <tile gid="499"/>
   <tile gid="500"/>
   <tile gid="501"/>
   <tile gid="502"/>
   <tile gid="503"/>
   <tile gid="504"/>
   <tile gid="505"/>
   <tile gid="506"/>
   <tile gid="507"/>
   <tile gid="508"/>
   <tile gid="499"/>
   <tile gid="500"/>
   <tile gid="501"/>
   <tile gid="502"/>
   <tile gid="503"/>
   <tile gid="504"/>
   <tile gid="505"/>
   <tile gid="506"/>
   <tile gid="507"/>
   <tile gid="508"/>
   <tile gid="499"/>
   <tile gid="500"/>
   <tile gid="501"/>
   <tile gid="502"/>
   <tile gid="503"/>
   <tile gid="504"/>
   <tile gid="505"/>
   <tile gid="506"/>
   <tile gid="507"/>
   <tile gid="508"/>
   <tile gid="499"/>
   <tile gid="500"/>
   <tile gid="501"/>
   <tile gid="502"/>
   <tile gid="503"/>
   <tile gid="504"/>
   <tile gid="505"/>
   <tile gid="506"/>
   <tile gid="507"/>
   <tile gid="508"/>
   <tile gid="499"/>
   <tile gid="500"/>
   <tile gid="501"/>
   <tile gid="502"/>
   <tile gid="503"/>
   <tile gid="504"/>
   <tile gid="505"/>
   <tile gid="506"/>
   <tile gid="507"/>
   <tile gid="508"/>
   <tile gid="498"/>
   <tile gid="499"/>
   <tile gid="500"/>
   <tile gid="501"/>
   <tile gid="502"/>
   <tile gid="503"/>
   <tile gid="504"/>
   <tile gid="505"/>
   <tile gid="506"/>
   <tile gid="443"/>
   <tile gid="444"/>
   <tile gid="445"/>
   <tile gid="446"/>
   <tile gid="447"/>
   <tile gid="1250"/>
   <tile gid="1251"/>
   <tile gid="1252"/>
   <tile gid="1253"/>
   <tile gid="1254"/>
   <tile gid="1255"/>
   <tile gid="1256"/>
   <tile gid="1257"/>
   <tile gid="1258"/>
   <tile gid="1259"/>
   <tile gid="1260"/>
   <tile gid="1261"/>
   <tile gid="1262"/>
   <tile gid="1263"/>
   <tile gid="562"/>
   <tile gid="563"/>
   <tile gid="564"/>
   <tile gid="502"/>
   <tile gid="503"/>
   <tile gid="566"/>
   <tile gid="567"/>
   <tile gid="568"/>
   <tile gid="569"/>
   <tile gid="570"/>
   <tile gid="571"/>
   <tile gid="572"/>
   <tile gid="562"/>
   <tile gid="563"/>
   <tile gid="564"/>
   <tile gid="565"/>
   <tile gid="566"/>
   <tile gid="567"/>
   <tile gid="568"/>
   <tile gid="569"/>
   <tile gid="570"/>
   <tile gid="571"/>
   <tile gid="572"/>
   <tile gid="564"/>
   <tile gid="565"/>
   <tile gid="566"/>
   <tile gid="567"/>
   <tile gid="568"/>
   <tile gid="569"/>
   <tile gid="570"/>
   <tile gid="571"/>
   <tile gid="572"/>
   <tile gid="563"/>
   <tile gid="564"/>
   <tile gid="565"/>
   <tile gid="566"/>
   <tile gid="567"/>
   <tile gid="568"/>
   <tile gid="569"/>
   <tile gid="570"/>
   <tile gid="571"/>
   <tile gid="572"/>
   <tile gid="563"/>
   <tile gid="564"/>
   <tile gid="565"/>
   <tile gid="566"/>
   <tile gid="567"/>
   <tile gid="568"/>
   <tile gid="569"/>
   <tile gid="570"/>
   <tile gid="571"/>
   <tile gid="572"/>
   <tile gid="563"/>
   <tile gid="564"/>
   <tile gid="565"/>
   <tile gid="566"/>
   <tile gid="567"/>
   <tile gid="568"/>
   <tile gid="569"/>
   <tile gid="570"/>
   <tile gid="571"/>
   <tile gid="572"/>
   <tile gid="563"/>
   <tile gid="564"/>
   <tile gid="565"/>
   <tile gid="566"/>
   <tile gid="567"/>
   <tile gid="568"/>
   <tile gid="569"/>
   <tile gid="570"/>
   <tile gid="571"/>
   <tile gid="572"/>
   <tile gid="563"/>
   <tile gid="564"/>
   <tile gid="565"/>
   <tile gid="566"/>
   <tile gid="567"/>
   <tile gid="568"/>
   <tile gid="569"/>
   <tile gid="570"/>
   <tile gid="571"/>
   <tile gid="572"/>
   <tile gid="563"/>
   <tile gid="564"/>
   <tile gid="565"/>
   <tile gid="566"/>
   <tile gid="567"/>
   <tile gid="568"/>
   <tile gid="569"/>
   <tile gid="570"/>
   <tile gid="571"/>
   <tile gid="572"/>
   <tile gid="562"/>
   <tile gid="563"/>
   <tile gid="564"/>
   <tile gid="565"/>
   <tile gid="566"/>
   <tile gid="567"/>
   <tile gid="568"/>
   <tile gid="569"/>
   <tile gid="570"/>
   <tile gid="507"/>
   <tile gid="508"/>
   <tile gid="509"/>
   <tile gid="510"/>
   <tile gid="511"/>
   <tile gid="1314"/>
   <tile gid="1315"/>
   <tile gid="1316"/>
   <tile gid="1317"/>
   <tile gid="1318"/>
   <tile gid="1319"/>
   <tile gid="1320"/>
   <tile gid="1321"/>
   <tile gid="1322"/>
   <tile gid="1323"/>
   <tile gid="1324"/>
   <tile gid="1325"/>
   <tile gid="1326"/>
   <tile gid="1327"/>
   <tile gid="626"/>
   <tile gid="627"/>
   <tile gid="628"/>
   <tile gid="566"/>
   <tile gid="567"/>
   <tile gid="630"/>
   <tile gid="631"/>
   <tile gid="632"/>
   <tile gid="633"/>
   <tile gid="634"/>
   <tile gid="635"/>
   <tile gid="636"/>
   <tile gid="626"/>
   <tile gid="627"/>
   <tile gid="628"/>
   <tile gid="629"/>
   <tile gid="630"/>
   <tile gid="631"/>
   <tile gid="632"/>
   <tile gid="633"/>
   <tile gid="634"/>
   <tile gid="635"/>
   <tile gid="636"/>
   <tile gid="628"/>
   <tile gid="629"/>
   <tile gid="630"/>
   <tile gid="631"/>
   <tile gid="632"/>
   <tile gid="633"/>
   <tile gid="634"/>
   <tile gid="635"/>
   <tile gid="636"/>
   <tile gid="627"/>
   <tile gid="628"/>
   <tile gid="629"/>
   <tile gid="630"/>
   <tile gid="631"/>
   <tile gid="632"/>
   <tile gid="633"/>
   <tile gid="634"/>
   <tile gid="635"/>
   <tile gid="636"/>
   <tile gid="627"/>
   <tile gid="628"/>
   <tile gid="629"/>
   <tile gid="630"/>
   <tile gid="631"/>
   <tile gid="632"/>
   <tile gid="633"/>
   <tile gid="634"/>
   <tile gid="635"/>
   <tile gid="636"/>
   <tile gid="627"/>
   <tile gid="628"/>
   <tile gid="629"/>
   <tile gid="630"/>
   <tile gid="631"/>
   <tile gid="632"/>
   <tile gid="633"/>
   <tile gid="634"/>
   <tile gid="635"/>
   <tile gid="636"/>
   <tile gid="627"/>
   <tile gid="628"/>
   <tile gid="629"/>
   <tile gid="630"/>
   <tile gid="631"/>
   <tile gid="632"/>
   <tile gid="633"/>
   <tile gid="634"/>
   <tile gid="635"/>
   <tile gid="636"/>
   <tile gid="627"/>
   <tile gid="628"/>
   <tile gid="629"/>
   <tile gid="630"/>
   <tile gid="631"/>
   <tile gid="632"/>
   <tile gid="633"/>
   <tile gid="634"/>
   <tile gid="635"/>
   <tile gid="636"/>
   <tile gid="627"/>
   <tile gid="628"/>
   <tile gid="629"/>
   <tile gid="630"/>
   <tile gid="631"/>
   <tile gid="632"/>
   <tile gid="633"/>
   <tile gid="634"/>
   <tile gid="635"/>
   <tile gid="636"/>
   <tile gid="626"/>
   <tile gid="627"/>
   <tile gid="628"/>
   <tile gid="629"/>
   <tile gid="630"/>
   <tile gid="631"/>
   <tile gid="632"/>
   <tile gid="633"/>
   <tile gid="634"/>
   <tile gid="571"/>
   <tile gid="572"/>
   <tile gid="573"/>
   <tile gid="574"/>
   <tile gid="575"/>
   <tile gid="1378"/>
   <tile gid="1379"/>
   <tile gid="1380"/>
   <tile gid="1381"/>
   <tile gid="1382"/>
   <tile gid="1383"/>
   <tile gid="1384"/>
   <tile gid="1385"/>
   <tile gid="1386"/>
   <tile gid="1387"/>
   <tile gid="1388"/>
   <tile gid="1389"/>
   <tile gid="1390"/>
   <tile gid="1391"/>
   <tile gid="690"/>
   <tile gid="691"/>
   <tile gid="692"/>
   <tile gid="630"/>
   <tile gid="631"/>
   <tile gid="694"/>
   <tile gid="695"/>
   <tile gid="696"/>
   <tile gid="697"/>
   <tile gid="698"/>
   <tile gid="699"/>
   <tile gid="700"/>
   <tile gid="690"/>
   <tile gid="691"/>
   <tile gid="692"/>
   <tile gid="693"/>
   <tile gid="694"/>
   <tile gid="695"/>
   <tile gid="696"/>
   <tile gid="697"/>
   <tile gid="698"/>
   <tile gid="699"/>
   <tile gid="700"/>
   <tile gid="692"/>
   <tile gid="693"/>
   <tile gid="694"/>
   <tile gid="695"/>
   <tile gid="696"/>
   <tile gid="697"/>
   <tile gid="698"/>
   <tile gid="699"/>
   <tile gid="700"/>
   <tile gid="691"/>
   <tile gid="692"/>
   <tile gid="693"/>
   <tile gid="694"/>
   <tile gid="695"/>
   <tile gid="696"/>
   <tile gid="697"/>
   <tile gid="698"/>
   <tile gid="699"/>
   <tile gid="700"/>
   <tile gid="691"/>
   <tile gid="692"/>
   <tile gid="693"/>
   <tile gid="694"/>
   <tile gid="695"/>
   <tile gid="696"/>
   <tile gid="697"/>
   <tile gid="698"/>
   <tile gid="699"/>
   <tile gid="700"/>
   <tile gid="691"/>
   <tile gid="692"/>
   <tile gid="693"/>
   <tile gid="694"/>
   <tile gid="695"/>
   <tile gid="696"/>
   <tile gid="697"/>
   <tile gid="698"/>
   <tile gid="699"/>
   <tile gid="700"/>
   <tile gid="691"/>
   <tile gid="692"/>
   <tile gid="693"/>
   <tile gid="694"/>
   <tile gid="695"/>
   <tile gid="696"/>
   <tile gid="697"/>
   <tile gid="698"/>
   <tile gid="699"/>
   <tile gid="700"/>
   <tile gid="691"/>
   <tile gid="692"/>
   <tile gid="693"/>
   <tile gid="694"/>
   <tile gid="695"/>
   <tile gid="696"/>
   <tile gid="697"/>
   <tile gid="698"/>
   <tile gid="699"/>
   <tile gid="700"/>
   <tile gid="691"/>
   <tile gid="692"/>
   <tile gid="693"/>
   <tile gid="694"/>
   <tile gid="695"/>
   <tile gid="696"/>
   <tile gid="697"/>
   <tile gid="698"/>
   <tile gid="699"/>
   <tile gid="700"/>
   <tile gid="690"/>
   <tile gid="691"/>
   <tile gid="692"/>
   <tile gid="693"/>
   <tile gid="694"/>
   <tile gid="695"/>
   <tile gid="696"/>
   <tile gid="697"/>
   <tile gid="698"/>
   <tile gid="635"/>
   <tile gid="636"/>
   <tile gid="637"/>
   <tile gid="638"/>
   <tile gid="639"/>
   <tile gid="1442"/>
   <tile gid="1443"/>
   <tile gid="1444"/>
   <tile gid="1445"/>
   <tile gid="1446"/>
   <tile gid="1447"/>
   <tile gid="1448"/>
   <tile gid="1449"/>
   <tile gid="1450"/>
   <tile gid="1451"/>
   <tile gid="1452"/>
   <tile gid="1453"/>
   <tile gid="1454"/>
   <tile gid="1455"/>
   <tile gid="754"/>
   <tile gid="755"/>
   <tile gid="756"/>
   <tile gid="694"/>
   <tile gid="695"/>
   <tile gid="758"/>
   <tile gid="759"/>
   <tile gid="760"/>
   <tile gid="761"/>
   <tile gid="762"/>
   <tile gid="763"/>
   <tile gid="764"/>
   <tile gid="754"/>
   <tile gid="755"/>
   <tile gid="756"/>
   <tile gid="757"/>
   <tile gid="758"/>
   <tile gid="759"/>
   <tile gid="760"/>
   <tile gid="761"/>
   <tile gid="762"/>
   <tile gid="763"/>
   <tile gid="764"/>
   <tile gid="756"/>
   <tile gid="757"/>
   <tile gid="758"/>
   <tile gid="759"/>
   <tile gid="760"/>
   <tile gid="761"/>
   <tile gid="762"/>
   <tile gid="763"/>
   <tile gid="764"/>
   <tile gid="755"/>
   <tile gid="756"/>
   <tile gid="757"/>
   <tile gid="758"/>
   <tile gid="759"/>
   <tile gid="760"/>
   <tile gid="761"/>
   <tile gid="762"/>
   <tile gid="763"/>
   <tile gid="764"/>
   <tile gid="755"/>
   <tile gid="756"/>
   <tile gid="757"/>
   <tile gid="758"/>
   <tile gid="759"/>
   <tile gid="760"/>
   <tile gid="761"/>
   <tile gid="762"/>
   <tile gid="763"/>
   <tile gid="764"/>
   <tile gid="755"/>
   <tile gid="756"/>
   <tile gid="757"/>
   <tile gid="758"/>
   <tile gid="759"/>
   <tile gid="760"/>
   <tile gid="761"/>
   <tile gid="762"/>
   <tile gid="763"/>
   <tile gid="764"/>
   <tile gid="755"/>
   <tile gid="756"/>
   <tile gid="757"/>
   <tile gid="758"/>
   <tile gid="759"/>
   <tile gid="760"/>
   <tile gid="761"/>
   <tile gid="762"/>
   <tile gid="763"/>
   <tile gid="764"/>
   <tile gid="755"/>
   <tile gid="756"/>
   <tile gid="757"/>
   <tile gid="758"/>
   <tile gid="759"/>
   <tile gid="760"/>
   <tile gid="761"/>
   <tile gid="762"/>
   <tile gid="763"/>
   <tile gid="764"/>
   <tile gid="755"/>
   <tile gid="756"/>
   <tile gid="757"/>
   <tile gid="758"/>
   <tile gid="759"/>
   <tile gid="760"/>
   <tile gid="761"/>
   <tile gid="762"/>
   <tile gid="763"/>
   <tile gid="764"/>
   <tile gid="754"/>
   <tile gid="755"/>
   <tile gid="756"/>
   <tile gid="757"/>
   <tile gid="758"/>
   <tile gid="759"/>
   <tile gid="760"/>
   <tile gid="761"/>
   <tile gid="762"/>
   <tile gid="699"/>
   <tile gid="700"/>
   <tile gid="701"/>
   <tile gid="702"/>
   <tile gid="703"/>
   <tile gid="1506"/>
   <tile gid="1507"/>
   <tile gid="1508"/>
   <tile gid="1509"/>
   <tile gid="1510"/>
   <tile gid="1511"/>
   <tile gid="1512"/>
   <tile gid="1513"/>
   <tile gid="1514"/>
   <tile gid="1515"/>
   <tile gid="1516"/>
   <tile gid="1517"/>
   <tile gid="1518"/>
   <tile gid="1519"/>
   <tile gid="818"/>
   <tile gid="819"/>
   <tile gid="820"/>
   <tile gid="758"/>
   <tile gid="759"/>
   <tile gid="822"/>
   <tile gid="823"/>
   <tile gid="824"/>
   <tile gid="825"/>
   <tile gid="826"/>
   <tile gid="827"/>
   <tile gid="828"/>
   <tile gid="818"/>
   <tile gid="819"/>
   <tile gid="820"/>
   <tile gid="821"/>
   <tile gid="822"/>
   <tile gid="823"/>
   <tile gid="824"/>
   <tile gid="825"/>
   <tile gid="826"/>
   <tile gid="827"/>
   <tile gid="828"/>
   <tile gid="820"/>
   <tile gid="821"/>
   <tile gid="822"/>
   <tile gid="823"/>
   <tile gid="824"/>
   <tile gid="825"/>
   <tile gid="826"/>
   <tile gid="827"/>
   <tile gid="828"/>
   <tile gid="819"/>
   <tile gid="820"/>
   <tile gid="821"/>
   <tile gid="822"/>
   <tile gid="823"/>
   <tile gid="824"/>
   <tile gid="825"/>
   <tile gid="826"/>
   <tile gid="827"/>
   <tile gid="828"/>
   <tile gid="819"/>
   <tile gid="820"/>
   <tile gid="821"/>
   <tile gid="822"/>
   <tile gid="823"/>
   <tile gid="824"/>
   <tile gid="825"/>
   <tile gid="826"/>
   <tile gid="827"/>
   <tile gid="828"/>
   <tile gid="819"/>
   <tile gid="820"/>
   <tile gid="821"/>
   <tile gid="822"/>
   <tile gid="823"/>
   <tile gid="824"/>
   <tile gid="825"/>
   <tile gid="826"/>
   <tile gid="827"/>
   <tile gid="828"/>
   <tile gid="819"/>
   <tile gid="820"/>
   <tile gid="821"/>
   <tile gid="822"/>
   <tile gid="823"/>
   <tile gid="824"/>
   <tile gid="825"/>
   <tile gid="826"/>
   <tile gid="827"/>
   <tile gid="828"/>
   <tile gid="819"/>
   <tile gid="820"/>
   <tile gid="821"/>
   <tile gid="822"/>
   <tile gid="823"/>
   <tile gid="824"/>
   <tile gid="825"/>
   <tile gid="826"/>
   <tile gid="827"/>
   <tile gid="828"/>
   <tile gid="819"/>
   <tile gid="820"/>
   <tile gid="821"/>
   <tile gid="822"/>
   <tile gid="823"/>
   <tile gid="824"/>
   <tile gid="825"/>
   <tile gid="826"/>
   <tile gid="827"/>
   <tile gid="828"/>
   <tile gid="818"/>
   <tile gid="819"/>
   <tile gid="820"/>
   <tile gid="821"/>
   <tile gid="822"/>
   <tile gid="823"/>
   <tile gid="824"/>
   <tile gid="825"/>
   <tile gid="826"/>
   <tile gid="763"/>
   <tile gid="764"/>
   <tile gid="765"/>
   <tile gid="766"/>
   <tile gid="767"/>
   <tile gid="1570"/>
   <tile gid="1571"/>
   <tile gid="1572"/>
   <tile gid="1573"/>
   <tile gid="1574"/>
   <tile gid="1575"/>
   <tile gid="1576"/>
   <tile gid="1577"/>
   <tile gid="1578"/>
   <tile gid="1579"/>
   <tile gid="1580"/>
   <tile gid="1581"/>
   <tile gid="1582"/>
   <tile gid="1583"/>
   <tile gid="882"/>
   <tile gid="883"/>
   <tile gid="884"/>
   <tile gid="822"/>
   <tile gid="823"/>
   <tile gid="886"/>
   <tile gid="887"/>
   <tile gid="888"/>
   <tile gid="889"/>
   <tile gid="890"/>
   <tile gid="891"/>
   <tile gid="892"/>
   <tile gid="882"/>
   <tile gid="883"/>
   <tile gid="884"/>
   <tile gid="885"/>
   <tile gid="886"/>
   <tile gid="887"/>
   <tile gid="888"/>
   <tile gid="889"/>
   <tile gid="890"/>
   <tile gid="891"/>
   <tile gid="892"/>
   <tile gid="884"/>
   <tile gid="885"/>
   <tile gid="886"/>
   <tile gid="887"/>
   <tile gid="888"/>
   <tile gid="889"/>
   <tile gid="890"/>
   <tile gid="891"/>
   <tile gid="892"/>
   <tile gid="883"/>
   <tile gid="884"/>
   <tile gid="885"/>
   <tile gid="886"/>
   <tile gid="887"/>
   <tile gid="888"/>
   <tile gid="889"/>
   <tile gid="890"/>
   <tile gid="891"/>
   <tile gid="892"/>
   <tile gid="883"/>
   <tile gid="884"/>
   <tile gid="885"/>
   <tile gid="886"/>
   <tile gid="887"/>
   <tile gid="888"/>
   <tile gid="889"/>
   <tile gid="890"/>
   <tile gid="891"/>
   <tile gid="892"/>
   <tile gid="883"/>
   <tile gid="884"/>
   <tile gid="885"/>
   <tile gid="886"/>
   <tile gid="887"/>
   <tile gid="888"/>
   <tile gid="889"/>
   <tile gid="890"/>
   <tile gid="891"/>
   <tile gid="892"/>
   <tile gid="883"/>
   <tile gid="884"/>
   <tile gid="885"/>
   <tile gid="886"/>
   <tile gid="887"/>
   <tile gid="888"/>
   <tile gid="889"/>
   <tile gid="890"/>
   <tile gid="891"/>
   <tile gid="892"/>
   <tile gid="883"/>
   <tile gid="884"/>
   <tile gid="885"/>
   <tile gid="886"/>
   <tile gid="887"/>
   <tile gid="888"/>
   <tile gid="889"/>
   <tile gid="890"/>
   <tile gid="891"/>
   <tile gid="892"/>
   <tile gid="883"/>
   <tile gid="884"/>
   <tile gid="885"/>
   <tile gid="886"/>
   <tile gid="887"/>
   <tile gid="888"/>
   <tile gid="889"/>
   <tile gid="890"/>
   <tile gid="891"/>
   <tile gid="892"/>
   <tile gid="882"/>
   <tile gid="883"/>
   <tile gid="884"/>
   <tile gid="885"/>
   <tile gid="886"/>
   <tile gid="887"/>
   <tile gid="888"/>
   <tile gid="889"/>
   <tile gid="890"/>
   <tile gid="827"/>
   <tile gid="828"/>
   <tile gid="829"/>
   <tile gid="830"/>
   <tile gid="831"/>
   <tile gid="1634"/>
   <tile gid="1635"/>
   <tile gid="1636"/>
   <tile gid="1637"/>
   <tile gid="1638"/>
   <tile gid="1639"/>
   <tile gid="1640"/>
   <tile gid="1641"/>
   <tile gid="1642"/>
   <tile gid="1643"/>
   <tile gid="1644"/>
   <tile gid="1645"/>
   <tile gid="1646"/>
   <tile gid="1647"/>
   <tile gid="946"/>
   <tile gid="947"/>
   <tile gid="948"/>
   <tile gid="886"/>
   <tile gid="887"/>
   <tile/>
   <tile/>
   <tile/>
   <tile/>
   <tile/>
   <tile/>
   <tile/>
   <tile/>
   <tile/>
   <tile/>
   <tile/>
   <tile/>
   <tile/>
   <tile/>
   <tile/>
   <tile/>
   <tile/>
   <tile/>
   <tile/>
   <tile/>
   <tile/>
   <tile/>
   <tile/>
   <tile/>
   <tile/>
   <tile/>
   <tile/>
   <tile/>
   <tile/>
   <tile/>
   <tile/>
   <tile/>
   <tile/>
   <tile/>
   <tile/>
   <tile/>
   <tile/>
   <tile/>
   <tile/>
   <tile/>
   <tile/>
   <tile/>
   <tile/>
   <tile/>
   <tile/>
   <tile/>
   <tile/>
   <tile/>
   <tile/>
   <tile/>
   <tile/>
   <tile/>
   <tile/>
   <tile/>
   <tile/>
   <tile/>
   <tile/>
   <tile/>
   <tile/>
   <tile/>
   <tile/>
   <tile/>
   <tile/>
   <tile/>
   <tile/>
   <tile/>
   <tile/>
   <tile/>
   <tile/>
   <tile/>
   <tile/>
   <tile/>
   <tile/>
   <tile/>
   <tile/>
   <tile/>
   <tile/>
   <tile/>
   <tile/>
   <tile/>
   <tile/>
   <tile/>
   <tile/>
   <tile/>
   <tile/>
   <tile/>
   <tile/>
   <tile/>
   <tile/>
   <tile/>
   <tile/>
   <tile/>
   <tile/>
   <tile/>
   <tile/>
   <tile/>
   <tile/>
   <tile/>
   <tile/>
   <tile/>
   <tile/>
   <tile/>
   <tile/>
   <tile/>
   <tile/>
   <tile/>
   <tile/>
   <tile/>
   <tile/>
   <tile/>
   <tile/>
   <tile/>
   <tile/>
   <tile/>
   <tile/>
   <tile/>
   <tile/>
   <tile/>
   <tile/>
   <tile/>
   <tile/>
   <tile/>
   <tile/>
   <tile/>
   <tile/>
   <tile/>
   <tile/>
   <tile/>
   <tile/>
   <tile/>
   <tile/>
   <tile/>
   <tile/>
   <tile/>
   <tile/>
   <tile/>
   <tile/>
   <tile/>
   <tile/>
   <tile/>
   <tile/>
   <tile/>
   <tile/>
   <tile/>
   <tile/>
   <tile/>
   <tile/>
   <tile/>
   <tile/>
   <tile/>
   <tile/>
   <tile/>
   <tile/>
   <tile/>
   <tile/>
   <tile/>
   <tile/>
   <tile/>
   <tile/>
   <tile/>
   <tile/>
   <tile/>
   <tile/>
   <tile/>
   <tile/>
   <tile/>
   <tile/>
   <tile/>
   <tile/>
   <tile/>
   <tile/>
   <tile/>
   <tile/>
   <tile/>
   <tile/>
   <tile/>
   <tile/>
   <tile/>
   <tile/>
   <tile/>
   <tile/>
   <tile/>
   <tile/>
   <tile/>
   <tile/>
   <tile/>
   <tile/>
   <tile/>
   <tile/>
   <tile/>
   <tile/>
   <tile/>
   <tile/>
   <tile/>
   <tile/>
   <tile/>
   <tile/>
   <tile/>
   <tile/>
   <tile/>
   <tile/>
   <tile/>
   <tile/>
   <tile/>
   <tile/>
   <tile/>
   <tile/>
   <tile/>
   <tile/>
   <tile/>
   <tile/>
   <tile/>
   <tile/>
   <tile/>
   <tile/>
   <tile/>
   <tile/>
   <tile/>
   <tile/>
   <tile/>
   <tile/>
   <tile/>
   <tile/>
   <tile/>
   <tile/>
   <tile/>
   <tile/>
   <tile/>
   <tile/>
   <tile/>
   <tile/>
   <tile/>
   <tile/>
   <tile/>
   <tile/>
   <tile/>
   <tile/>
   <tile/>
   <tile/>
   <tile/>
   <tile/>
   <tile/>
   <tile/>
   <tile/>
   <tile/>
   <tile/>
   <tile/>
   <tile/>
   <tile/>
   <tile/>
   <tile/>
   <tile/>
   <tile/>
   <tile/>
   <tile/>
   <tile/>
   <tile/>
   <tile/>
   <tile/>
   <tile/>
   <tile/>
   <tile/>
   <tile/>
   <tile/>
   <tile/>
   <tile/>
   <tile/>
   <tile/>
   <tile/>
   <tile/>
   <tile/>
   <tile/>
   <tile/>
   <tile/>
   <tile/>
   <tile/>
   <tile/>
   <tile/>
   <tile/>
   <tile/>
   <tile/>
   <tile/>
   <tile/>
   <tile/>
   <tile/>
   <tile/>
   <tile/>
   <tile/>
   <tile/>
   <tile/>
   <tile/>
   <tile/>
   <tile/>
   <tile/>
   <tile/>
   <tile/>
   <tile/>
   <tile/>
   <tile/>
   <tile/>
   <tile/>
   <tile/>
   <tile/>
   <tile/>
   <tile/>
   <tile/>
   <tile/>
   <tile/>
   <tile/>
   <tile/>
   <tile/>
   <tile/>
   <tile/>
   <tile/>
   <tile/>
   <tile/>
   <tile/>
   <tile/>
   <tile/>
   <tile/>
   <tile/>
   <tile/>
   <tile/>
   <tile/>
   <tile/>
   <tile/>
   <tile/>
   <tile/>
   <tile/>
   <tile/>
   <tile/>
   <tile/>
   <tile/>
   <tile/>
   <tile/>
   <tile/>
   <tile/>
   <tile/>
   <tile/>
   <tile/>
   <tile/>
   <tile/>
   <tile/>
   <tile/>
   <tile/>
   <tile/>
   <tile/>
   <tile/>
   <tile/>
   <tile/>
   <tile/>
   <tile/>
   <tile/>
   <tile/>
   <tile/>
   <tile/>
   <tile/>
   <tile/>
   <tile/>
   <tile/>
   <tile/>
   <tile/>
   <tile/>
   <tile/>
   <tile/>
   <tile/>
   <tile/>
   <tile/>
   <tile/>
   <tile/>
   <tile/>
   <tile/>
   <tile/>
   <tile/>
   <tile/>
   <tile/>
   <tile/>
   <tile/>
   <tile/>
   <tile/>
   <tile/>
   <tile/>
   <tile/>
   <tile/>
   <tile/>
   <tile/>
   <tile/>
   <tile/>
   <tile/>
   <tile/>
   <tile/>
   <tile/>
   <tile/>
   <tile/>
   <tile/>
   <tile/>
   <tile/>
   <tile/>
   <tile/>
   <tile/>
   <tile/>
   <tile/>
   <tile/>
   <tile/>
   <tile/>
   <tile/>
   <tile/>
   <tile/>
   <tile/>
   <tile/>
   <tile/>
   <tile/>
   <tile/>
   <tile/>
   <tile/>
   <tile/>
   <tile/>
   <tile/>
   <tile/>
   <tile/>
   <tile/>
   <tile/>
   <tile/>
   <tile/>
   <tile/>
   <tile/>
   <tile/>
   <tile/>
   <tile/>
   <tile/>
   <tile/>
   <tile/>
   <tile/>
   <tile/>
   <tile/>
   <tile/>
   <tile/>
   <tile/>
   <tile/>
   <tile/>
   <tile/>
   <tile/>
   <tile/>
   <tile/>
   <tile/>
   <tile/>
   <tile/>
   <tile/>
   <tile/>
   <tile/>
   <tile/>
   <tile/>
   <tile/>
   <tile/>
   <tile/>
   <tile/>
   <tile/>
   <tile/>
   <tile/>
   <tile/>
   <tile/>
   <tile/>
   <tile/>
   <tile/>
   <tile/>
   <tile/>
   <tile/>
   <tile/>
   <tile/>
   <tile/>
   <tile/>
   <tile/>
   <tile/>
   <tile/>
   <tile/>
   <tile/>
   <tile/>
   <tile/>
   <tile/>
   <tile/>
   <tile/>
   <tile/>
   <tile/>
   <tile/>
   <tile/>
   <tile/>
   <tile/>
   <tile/>
   <tile/>
   <tile/>
   <tile/>
   <tile/>
   <tile/>
   <tile/>
   <tile/>
   <tile/>
   <tile/>
   <tile/>
   <tile/>
   <tile/>
   <tile/>
   <tile/>
   <tile/>
   <tile/>
   <tile/>
   <tile/>
   <tile/>
   <tile/>
   <tile/>
   <tile/>
   <tile/>
   <tile/>
   <tile/>
   <tile/>
   <tile/>
   <tile/>
   <tile/>
   <tile/>
   <tile/>
   <tile/>
   <tile/>
   <tile/>
   <tile/>
   <tile/>
   <tile/>
   <tile/>
   <tile/>
   <tile/>
   <tile/>
   <tile/>
   <tile/>
   <tile/>
   <tile/>
   <tile/>
   <tile/>
   <tile/>
   <tile/>
   <tile/>
   <tile/>
   <tile/>
   <tile/>
   <tile/>
   <tile/>
   <tile/>
   <tile/>
   <tile/>
   <tile/>
   <tile/>
   <tile/>
   <tile/>
   <tile/>
   <tile/>
   <tile/>
   <tile/>
   <tile/>
   <tile/>
   <tile/>
   <tile/>
   <tile/>
   <tile/>
   <tile/>
   <tile/>
   <tile/>
   <tile/>
   <tile/>
   <tile/>
   <tile/>
   <tile/>
   <tile/>
   <tile/>
   <tile/>
   <tile/>
   <tile/>
   <tile/>
   <tile/>
   <tile/>
   <tile/>
   <tile/>
   <tile/>
   <tile/>
   <tile/>
   <tile/>
   <tile/>
   <tile/>
   <tile/>
   <tile/>
   <tile/>
   <tile/>
   <tile/>
   <tile/>
   <tile/>
   <tile/>
   <tile/>
   <tile/>
   <tile/>
   <tile/>
   <tile/>
   <tile/>
   <tile/>
   <tile/>
   <tile/>
   <tile/>
   <tile/>
   <tile/>
   <tile/>
   <tile/>
   <tile/>
   <tile/>
   <tile/>
   <tile/>
   <tile/>
   <tile/>
   <tile/>
   <tile/>
   <tile/>
   <tile/>
   <tile/>
   <tile/>
   <tile/>
   <tile/>
   <tile/>
   <tile/>
   <tile/>
   <tile/>
   <tile/>
   <tile/>
   <tile/>
   <tile/>
   <tile/>
   <tile/>
   <tile/>
   <tile/>
   <tile/>
   <tile/>
   <tile/>
   <tile/>
   <tile/>
   <tile/>
   <tile/>
   <tile/>
   <tile/>
   <tile/>
   <tile/>
   <tile/>
   <tile/>
   <tile/>
   <tile/>
   <tile/>
   <tile/>
   <tile/>
   <tile/>
   <tile/>
   <tile/>
   <tile/>
   <tile/>
   <tile/>
   <tile/>
   <tile/>
   <tile/>
   <tile/>
   <tile/>
   <tile/>
   <tile/>
   <tile/>
   <tile/>
   <tile/>
   <tile/>
   <tile/>
   <tile/>
   <tile/>
   <tile/>
   <tile/>
   <tile/>
   <tile/>
   <tile/>
   <tile/>
   <tile/>
   <tile/>
   <tile/>
   <tile/>
   <tile/>
   <tile/>
   <tile/>
   <tile/>
   <tile/>
   <tile/>
   <tile/>
   <tile/>
   <tile/>
   <tile/>
   <tile/>
   <tile/>
   <tile/>
   <tile/>
   <tile/>
   <tile/>
   <tile/>
   <tile/>
   <tile/>
   <tile/>
   <tile/>
   <tile/>
   <tile/>
   <tile/>
   <tile/>
   <tile/>
   <tile/>
   <tile/>
   <tile/>
   <tile/>
   <tile/>
   <tile/>
   <tile/>
   <tile/>
   <tile/>
   <tile/>
   <tile/>
   <tile/>
   <tile/>
   <tile/>
   <tile/>
   <tile/>
   <tile/>
   <tile/>
   <tile/>
   <tile/>
   <tile/>
   <tile/>
   <tile/>
   <tile/>
   <tile/>
   <tile/>
   <tile/>
   <tile/>
   <tile/>
   <tile/>
   <tile/>
   <tile/>
   <tile/>
   <tile/>
   <tile/>
   <tile/>
   <tile/>
   <tile/>
   <tile/>
   <tile/>
   <tile/>
   <tile/>
   <tile/>
   <tile/>
   <tile/>
   <tile/>
   <tile/>
   <tile/>
   <tile/>
   <tile/>
   <tile/>
   <tile/>
   <tile/>
   <tile/>
   <tile/>
   <tile/>
   <tile/>
   <tile/>
   <tile/>
   <tile/>
   <tile/>
   <tile/>
   <tile/>
   <tile/>
   <tile/>
   <tile/>
   <tile/>
   <tile/>
   <tile/>
   <tile/>
   <tile/>
   <tile/>
   <tile/>
   <tile/>
   <tile/>
   <tile/>
   <tile/>
   <tile/>
   <tile/>
   <tile/>
   <tile/>
   <tile/>
   <tile/>
   <tile/>
   <tile/>
   <tile/>
   <tile/>
   <tile/>
   <tile/>
   <tile/>
   <tile/>
   <tile/>
   <tile/>
   <tile/>
   <tile/>
   <tile/>
   <tile/>
   <tile/>
   <tile/>
   <tile/>
   <tile/>
   <tile/>
   <tile/>
   <tile/>
   <tile/>
   <tile/>
   <tile/>
   <tile/>
   <tile/>
   <tile/>
   <tile/>
   <tile/>
   <tile/>
   <tile/>
   <tile/>
   <tile/>
   <tile/>
   <tile/>
   <tile/>
   <tile/>
   <tile/>
   <tile/>
   <tile/>
   <tile/>
   <tile/>
   <tile/>
   <tile/>
   <tile/>
   <tile/>
   <tile/>
   <tile/>
   <tile/>
   <tile/>
   <tile/>
   <tile/>
   <tile/>
   <tile/>
   <tile/>
   <tile/>
   <tile/>
   <tile/>
   <tile/>
   <tile/>
   <tile/>
   <tile/>
   <tile/>
   <tile/>
   <tile/>
   <tile/>
   <tile/>
   <tile/>
   <tile/>
   <tile/>
   <tile/>
   <tile/>
   <tile/>
   <tile/>
   <tile/>
   <tile/>
   <tile/>
   <tile/>
   <tile/>
   <tile/>
   <tile/>
   <tile/>
   <tile/>
   <tile/>
   <tile/>
   <tile/>
   <tile/>
   <tile/>
   <tile/>
   <tile/>
   <tile/>
   <tile/>
   <tile/>
   <tile/>
   <tile/>
   <tile/>
   <tile/>
   <tile/>
   <tile/>
   <tile/>
   <tile/>
   <tile/>
   <tile/>
   <tile/>
   <tile/>
   <tile/>
   <tile/>
   <tile/>
   <tile/>
   <tile/>
   <tile/>
   <tile/>
   <tile/>
   <tile/>
   <tile/>
   <tile/>
   <tile/>
   <tile/>
   <tile/>
   <tile/>
   <tile/>
   <tile/>
   <tile/>
   <tile/>
   <tile/>
   <tile/>
   <tile/>
   <tile/>
   <tile/>
   <tile/>
   <tile/>
   <tile/>
   <tile/>
   <tile/>
   <tile/>
   <tile/>
   <tile/>
   <tile/>
   <tile/>
   <tile/>
   <tile/>
   <tile/>
   <tile/>
   <tile/>
   <tile/>
   <tile/>
   <tile/>
   <tile/>
   <tile/>
   <tile/>
   <tile/>
   <tile/>
   <tile/>
   <tile/>
   <tile/>
   <tile/>
   <tile/>
   <tile/>
   <tile/>
   <tile/>
   <tile/>
   <tile/>
   <tile/>
   <tile/>
   <tile/>
   <tile/>
   <tile/>
   <tile/>
   <tile/>
   <tile/>
   <tile/>
   <tile/>
   <tile/>
   <tile/>
   <tile/>
   <tile/>
   <tile/>
   <tile/>
   <tile/>
   <tile/>
   <tile/>
   <tile/>
   <tile/>
   <tile/>
   <tile/>
   <tile/>
   <tile/>
   <tile/>
   <tile/>
   <tile/>
   <tile/>
   <tile/>
   <tile/>
   <tile/>
   <tile/>
   <tile/>
   <tile/>
   <tile/>
   <tile/>
   <tile/>
   <tile/>
   <tile/>
   <tile/>
   <tile/>
   <tile/>
   <tile/>
   <tile/>
   <tile/>
   <tile/>
   <tile/>
   <tile/>
   <tile/>
   <tile/>
   <tile/>
   <tile/>
   <tile/>
   <tile/>
   <tile/>
   <tile/>
   <tile/>
   <tile/>
   <tile/>
   <tile/>
   <tile/>
   <tile/>
   <tile/>
   <tile/>
   <tile/>
   <tile/>
   <tile/>
   <tile/>
   <tile/>
   <tile/>
   <tile/>
   <tile/>
   <tile/>
   <tile/>
   <tile/>
   <tile/>
   <tile/>
   <tile/>
   <tile/>
   <tile/>
   <tile/>
   <tile/>
   <tile/>
   <tile/>
   <tile/>
   <tile/>
   <tile/>
   <tile/>
   <tile/>
   <tile/>
   <tile/>
   <tile/>
   <tile/>
   <tile/>
   <tile/>
   <tile/>
   <tile/>
   <tile/>
   <tile/>
   <tile/>
   <tile/>
   <tile/>
   <tile/>
   <tile/>
   <tile/>
   <tile/>
   <tile/>
   <tile/>
   <tile/>
   <tile/>
   <tile/>
   <tile/>
   <tile/>
   <tile/>
   <tile/>
   <tile/>
   <tile/>
   <tile/>
   <tile/>
   <tile/>
   <tile/>
   <tile/>
   <tile/>
   <tile/>
   <tile/>
   <tile/>
   <tile/>
   <tile/>
   <tile/>
   <tile/>
   <tile/>
   <tile/>
   <tile/>
   <tile/>
   <tile/>
   <tile/>
   <tile/>
   <tile/>
   <tile/>
   <tile/>
   <tile/>
   <tile/>
   <tile/>
   <tile/>
   <tile/>
   <tile/>
   <tile/>
   <tile/>
   <tile/>
   <tile/>
   <tile/>
   <tile/>
   <tile/>
   <tile/>
   <tile/>
   <tile/>
   <tile/>
   <tile/>
   <tile/>
   <tile/>
   <tile/>
   <tile/>
   <tile/>
   <tile/>
   <tile/>
   <tile/>
   <tile/>
   <tile/>
   <tile/>
   <tile/>
   <tile/>
   <tile/>
   <tile/>
   <tile/>
   <tile/>
   <tile/>
   <tile/>
   <tile/>
   <tile/>
   <tile/>
   <tile/>
   <tile/>
   <tile/>
   <tile/>
   <tile/>
   <tile/>
   <tile/>
   <tile/>
   <tile/>
   <tile/>
   <tile/>
   <tile/>
   <tile/>
   <tile/>
   <tile/>
   <tile/>
   <tile/>
   <tile/>
   <tile/>
   <tile/>
   <tile/>
   <tile/>
   <tile/>
   <tile/>
   <tile/>
   <tile/>
   <tile/>
   <tile/>
   <tile/>
   <tile/>
   <tile/>
   <tile/>
   <tile/>
   <tile/>
   <tile/>
   <tile/>
   <tile/>
   <tile/>
   <tile/>
   <tile/>
   <tile/>
   <tile/>
   <tile/>
   <tile/>
   <tile/>
   <tile/>
   <tile/>
   <tile/>
   <tile/>
   <tile/>
   <tile/>
   <tile/>
   <tile/>
   <tile/>
   <tile/>
   <tile/>
   <tile/>
   <tile/>
   <tile/>
   <tile/>
   <tile/>
   <tile/>
   <tile/>
   <tile/>
   <tile/>
   <tile/>
   <tile/>
   <tile/>
   <tile/>
   <tile/>
   <tile/>
   <tile/>
   <tile/>
   <tile/>
   <tile/>
   <tile/>
   <tile/>
   <tile/>
   <tile/>
   <tile/>
   <tile/>
   <tile/>
   <tile/>
   <tile/>
   <tile/>
   <tile/>
   <tile/>
   <tile/>
   <tile/>
   <tile/>
   <tile/>
   <tile/>
   <tile/>
   <tile/>
   <tile/>
   <tile/>
   <tile/>
   <tile/>
   <tile/>
   <tile/>
   <tile/>
   <tile/>
   <tile/>
   <tile/>
   <tile/>
   <tile/>
   <tile/>
   <tile/>
   <tile/>
   <tile/>
   <tile/>
   <tile/>
   <tile/>
   <tile/>
   <tile/>
   <tile/>
   <tile/>
   <tile/>
   <tile/>
   <tile/>
   <tile/>
   <tile/>
   <tile/>
   <tile/>
   <tile/>
   <tile/>
   <tile/>
   <tile/>
   <tile/>
   <tile/>
   <tile/>
   <tile/>
   <tile/>
   <tile/>
   <tile/>
   <tile/>
   <tile/>
   <tile/>
   <tile/>
   <tile/>
   <tile/>
   <tile/>
   <tile/>
   <tile/>
   <tile/>
   <tile/>
   <tile/>
   <tile/>
   <tile/>
   <tile/>
   <tile/>
   <tile/>
   <tile/>
   <tile/>
   <tile/>
   <tile/>
   <tile/>
   <tile/>
   <tile/>
   <tile/>
   <tile/>
   <tile/>
   <tile/>
   <tile/>
   <tile/>
   <tile/>
   <tile/>
   <tile/>
   <tile/>
   <tile/>
   <tile/>
   <tile/>
   <tile/>
   <tile/>
   <tile/>
   <tile/>
   <tile/>
   <tile/>
   <tile/>
   <tile/>
   <tile/>
   <tile/>
   <tile/>
   <tile/>
   <tile/>
   <tile/>
   <tile/>
   <tile/>
   <tile/>
   <tile/>
   <tile/>
   <tile/>
   <tile/>
   <tile/>
   <tile/>
   <tile/>
   <tile/>
   <tile/>
   <tile/>
   <tile/>
   <tile/>
   <tile/>
   <tile/>
   <tile/>
   <tile/>
   <tile/>
   <tile/>
   <tile/>
   <tile/>
   <tile/>
   <tile/>
   <tile/>
   <tile/>
   <tile/>
   <tile/>
   <tile/>
   <tile/>
   <tile/>
   <tile/>
   <tile/>
   <tile/>
   <tile/>
   <tile/>
   <tile/>
   <tile/>
   <tile/>
   <tile/>
   <tile/>
   <tile/>
   <tile/>
   <tile/>
   <tile/>
   <tile/>
   <tile/>
   <tile/>
   <tile/>
   <tile/>
   <tile/>
   <tile/>
   <tile/>
   <tile/>
   <tile/>
   <tile/>
   <tile/>
   <tile/>
   <tile/>
   <tile/>
   <tile/>
   <tile/>
   <tile/>
   <tile/>
   <tile/>
   <tile/>
   <tile/>
   <tile/>
   <tile/>
   <tile/>
   <tile/>
   <tile/>
   <tile/>
   <tile/>
   <tile/>
   <tile/>
   <tile/>
   <tile/>
   <tile/>
   <tile/>
   <tile/>
   <tile/>
   <tile/>
   <tile/>
   <tile/>
   <tile/>
   <tile/>
   <tile/>
   <tile/>
   <tile/>
   <tile/>
   <tile/>
   <tile/>
   <tile/>
   <tile/>
   <tile/>
   <tile/>
   <tile/>
   <tile/>
   <tile/>
   <tile/>
   <tile/>
   <tile/>
   <tile/>
   <tile/>
   <tile/>
   <tile/>
   <tile/>
   <tile/>
   <tile/>
   <tile/>
   <tile/>
   <tile/>
   <tile/>
   <tile/>
   <tile/>
   <tile/>
   <tile/>
   <tile/>
   <tile/>
   <tile/>
   <tile/>
   <tile/>
   <tile/>
   <tile/>
   <tile/>
   <tile/>
   <tile/>
   <tile/>
   <tile/>
   <tile/>
   <tile/>
   <tile/>
   <tile/>
   <tile/>
   <tile/>
   <tile/>
   <tile/>
   <tile/>
   <tile/>
   <tile/>
   <tile/>
   <tile/>
   <tile/>
   <tile/>
   <tile/>
   <tile/>
   <tile/>
   <tile/>
   <tile/>
   <tile/>
   <tile/>
   <tile/>
   <tile/>
   <tile/>
   <tile/>
   <tile/>
   <tile/>
   <tile/>
   <tile/>
   <tile/>
   <tile/>
   <tile/>
   <tile/>
   <tile/>
   <tile/>
   <tile/>
   <tile/>
   <tile/>
   <tile/>
   <tile/>
   <tile/>
   <tile/>
   <tile/>
   <tile/>
   <tile/>
   <tile/>
   <tile/>
   <tile/>
   <tile/>
   <tile/>
   <tile/>
   <tile/>
   <tile/>
   <tile/>
   <tile/>
   <tile/>
   <tile/>
   <tile/>
   <tile/>
   <tile/>
   <tile/>
   <tile/>
   <tile/>
   <tile/>
   <tile/>
   <tile/>
   <tile/>
   <tile/>
   <tile/>
   <tile/>
   <tile/>
   <tile/>
   <tile/>
   <tile/>
   <tile/>
   <tile/>
   <tile/>
   <tile/>
   <tile/>
   <tile/>
   <tile/>
   <tile/>
   <tile/>
   <tile/>
   <tile/>
   <tile/>
   <tile/>
   <tile/>
   <tile/>
   <tile/>
   <tile/>
   <tile/>
   <tile/>
   <tile/>
   <tile/>
   <tile/>
   <tile/>
   <tile/>
   <tile/>
   <tile/>
   <tile/>
   <tile/>
   <tile/>
   <tile/>
   <tile/>
   <tile/>
   <tile/>
   <tile/>
   <tile/>
   <tile/>
   <tile/>
   <tile/>
   <tile/>
   <tile/>
   <tile/>
   <tile/>
   <tile/>
   <tile/>
   <tile/>
   <tile/>
   <tile/>
   <tile/>
   <tile/>
   <tile/>
   <tile/>
   <tile/>
   <tile/>
   <tile/>
   <tile/>
   <tile/>
   <tile/>
   <tile/>
   <tile/>
   <tile/>
   <tile/>
   <tile/>
   <tile/>
   <tile/>
   <tile/>
   <tile/>
   <tile/>
   <tile/>
   <tile/>
   <tile/>
   <tile/>
   <tile/>
   <tile/>
   <tile/>
   <tile/>
   <tile/>
   <tile/>
   <tile/>
   <tile/>
   <tile/>
   <tile/>
   <tile/>
   <tile/>
   <tile/>
   <tile/>
   <tile/>
   <tile/>
   <tile/>
   <tile/>
   <tile/>
   <tile/>
   <tile/>
   <tile/>
   <tile/>
   <tile/>
   <tile/>
   <tile/>
   <tile/>
   <tile/>
   <tile/>
   <tile/>
   <tile/>
   <tile/>
   <tile/>
   <tile/>
   <tile/>
   <tile/>
   <tile/>
   <tile/>
   <tile/>
   <tile/>
   <tile/>
   <tile/>
   <tile/>
   <tile/>
   <tile/>
   <tile/>
   <tile/>
   <tile/>
   <tile/>
   <tile/>
   <tile/>
   <tile/>
   <tile/>
   <tile/>
   <tile/>
   <tile/>
   <tile/>
   <tile/>
   <tile/>
   <tile/>
   <tile/>
   <tile/>
   <tile/>
   <tile/>
   <tile/>
   <tile/>
   <tile/>
   <tile/>
   <tile/>
   <tile/>
   <tile/>
   <tile/>
   <tile/>
   <tile/>
   <tile/>
   <tile/>
   <tile/>
   <tile/>
   <tile/>
   <tile/>
   <tile/>
   <tile/>
   <tile/>
   <tile/>
   <tile/>
   <tile/>
   <tile/>
   <tile/>
   <tile/>
   <tile/>
   <tile/>
   <tile/>
   <tile/>
   <tile/>
   <tile/>
   <tile/>
   <tile/>
   <tile/>
   <tile/>
   <tile/>
   <tile/>
   <tile/>
   <tile/>
   <tile/>
   <tile/>
   <tile/>
   <tile/>
   <tile/>
   <tile/>
   <tile/>
   <tile/>
   <tile/>
   <tile/>
   <tile/>
   <tile/>
   <tile/>
   <tile/>
   <tile/>
   <tile/>
   <tile/>
   <tile/>
   <tile/>
   <tile/>
   <tile/>
   <tile/>
   <tile/>
   <tile/>
   <tile/>
   <tile/>
   <tile/>
   <tile/>
   <tile/>
   <tile/>
   <tile/>
   <tile/>
   <tile/>
   <tile/>
   <tile/>
   <tile/>
   <tile/>
   <tile/>
   <tile/>
   <tile/>
   <tile/>
   <tile/>
   <tile/>
   <tile/>
   <tile/>
   <tile/>
   <tile/>
   <tile/>
   <tile/>
   <tile/>
   <tile/>
   <tile/>
   <tile/>
   <tile/>
   <tile/>
   <tile/>
   <tile/>
   <tile/>
   <tile/>
   <tile/>
   <tile/>
   <tile/>
   <tile/>
   <tile/>
   <tile/>
   <tile/>
   <tile/>
   <tile/>
   <tile/>
   <tile/>
   <tile/>
   <tile/>
   <tile/>
   <tile/>
   <tile/>
   <tile/>
   <tile/>
   <tile/>
   <tile/>
   <tile/>
   <tile/>
   <tile/>
   <tile/>
   <tile/>
   <tile/>
   <tile/>
   <tile/>
   <tile/>
   <tile/>
   <tile/>
   <tile/>
   <tile/>
   <tile/>
   <tile/>
   <tile/>
   <tile/>
   <tile/>
   <tile/>
   <tile/>
   <tile/>
   <tile/>
   <tile/>
   <tile/>
   <tile/>
   <tile/>
   <tile/>
   <tile/>
   <tile/>
   <tile/>
   <tile/>
   <tile/>
   <tile/>
   <tile/>
   <tile/>
   <tile/>
   <tile/>
   <tile/>
   <tile/>
   <tile/>
   <tile/>
   <tile/>
   <tile/>
   <tile/>
   <tile/>
   <tile/>
   <tile/>
   <tile/>
   <tile/>
   <tile/>
   <tile/>
   <tile/>
   <tile/>
   <tile/>
   <tile/>
   <tile/>
   <tile/>
   <tile/>
   <tile/>
   <tile/>
   <tile/>
   <tile/>
   <tile/>
   <tile/>
   <tile/>
   <tile/>
   <tile/>
   <tile/>
   <tile/>
   <tile/>
   <tile/>
   <tile/>
   <tile/>
   <tile/>
   <tile/>
   <tile/>
   <tile/>
   <tile/>
   <tile/>
   <tile/>
   <tile/>
   <tile/>
   <tile/>
   <tile/>
   <tile/>
   <tile/>
   <tile/>
   <tile/>
   <tile/>
   <tile/>
   <tile/>
   <tile/>
   <tile/>
   <tile/>
   <tile/>
   <tile/>
   <tile/>
   <tile/>
   <tile/>
   <tile/>
   <tile/>
   <tile/>
   <tile/>
   <tile/>
   <tile/>
   <tile/>
   <tile/>
   <tile/>
   <tile/>
   <tile/>
   <tile/>
   <tile/>
   <tile/>
   <tile/>
   <tile/>
   <tile/>
   <tile/>
   <tile/>
   <tile/>
   <tile/>
   <tile/>
   <tile/>
   <tile/>
   <tile/>
   <tile/>
   <tile/>
   <tile/>
   <tile/>
   <tile/>
   <tile/>
   <tile/>
   <tile/>
   <tile/>
   <tile/>
   <tile/>
   <tile/>
   <tile/>
   <tile/>
   <tile/>
   <tile/>
   <tile/>
   <tile/>
   <tile/>
   <tile/>
   <tile/>
   <tile/>
   <tile/>
   <tile/>
   <tile/>
   <tile/>
   <tile/>
   <tile/>
   <tile/>
   <tile/>
   <tile/>
   <tile/>
   <tile/>
   <tile/>
   <tile/>
   <tile/>
   <tile/>
   <tile/>
   <tile/>
   <tile/>
   <tile/>
   <tile/>
   <tile/>
   <tile/>
   <tile/>
   <tile/>
   <tile/>
   <tile/>
   <tile/>
   <tile/>
   <tile/>
   <tile/>
   <tile/>
   <tile/>
   <tile/>
   <tile/>
   <tile/>
   <tile/>
   <tile/>
   <tile/>
   <tile/>
   <tile/>
   <tile/>
   <tile/>
   <tile/>
   <tile/>
   <tile/>
   <tile/>
   <tile/>
   <tile/>
   <tile/>
   <tile/>
   <tile/>
   <tile/>
   <tile/>
   <tile/>
   <tile/>
   <tile/>
   <tile/>
   <tile/>
   <tile/>
   <tile/>
   <tile/>
   <tile/>
   <tile/>
   <tile/>
   <tile/>
   <tile/>
   <tile/>
   <tile/>
   <tile/>
   <tile/>
   <tile/>
   <tile/>
   <tile/>
   <tile/>
   <tile/>
   <tile/>
   <tile/>
   <tile/>
   <tile/>
   <tile/>
   <tile/>
   <tile/>
   <tile/>
   <tile/>
   <tile/>
   <tile/>
   <tile/>
   <tile/>
   <tile/>
   <tile/>
   <tile/>
   <tile/>
   <tile/>
   <tile/>
   <tile/>
   <tile/>
   <tile/>
   <tile/>
   <tile/>
   <tile/>
   <tile/>
   <tile/>
   <tile/>
   <tile/>
   <tile/>
   <tile/>
   <tile/>
   <tile/>
   <tile/>
   <tile/>
   <tile/>
   <tile/>
   <tile/>
   <tile/>
   <tile/>
   <tile/>
   <tile/>
   <tile/>
   <tile/>
   <tile/>
   <tile/>
   <tile/>
   <tile/>
   <tile/>
   <tile/>
   <tile/>
   <tile/>
   <tile/>
   <tile/>
   <tile/>
   <tile/>
   <tile/>
   <tile/>
   <tile/>
   <tile/>
   <tile/>
   <tile/>
   <tile/>
   <tile/>
   <tile/>
   <tile/>
   <tile/>
   <tile/>
   <tile/>
   <tile/>
   <tile/>
   <tile/>
   <tile/>
   <tile/>
   <tile/>
   <tile/>
   <tile/>
   <tile/>
   <tile/>
   <tile/>
   <tile/>
   <tile/>
   <tile/>
   <tile/>
   <tile/>
   <tile/>
   <tile/>
   <tile/>
   <tile/>
   <tile/>
   <tile/>
   <tile/>
   <tile/>
   <tile/>
   <tile/>
   <tile/>
   <tile/>
   <tile/>
   <tile/>
   <tile/>
   <tile/>
   <tile/>
   <tile/>
   <tile/>
   <tile/>
   <tile/>
   <tile/>
   <tile/>
   <tile/>
   <tile/>
   <tile/>
   <tile/>
   <tile/>
   <tile/>
   <tile/>
   <tile/>
   <tile/>
   <tile/>
   <tile/>
   <tile/>
   <tile/>
   <tile/>
   <tile/>
   <tile/>
   <tile/>
   <tile/>
   <tile/>
   <tile/>
   <tile/>
   <tile/>
   <tile/>
   <tile/>
   <tile/>
   <tile/>
   <tile/>
   <tile/>
   <tile/>
   <tile/>
   <tile/>
   <tile/>
   <tile/>
   <tile/>
   <tile/>
   <tile/>
   <tile/>
   <tile/>
   <tile/>
   <tile/>
   <tile/>
   <tile/>
   <tile/>
   <tile/>
   <tile/>
   <tile/>
   <tile/>
   <tile/>
   <tile/>
   <tile/>
   <tile/>
   <tile/>
   <tile/>
   <tile/>
   <tile/>
   <tile/>
   <tile/>
   <tile/>
   <tile/>
   <tile/>
   <tile/>
   <tile/>
   <tile/>
   <tile/>
   <tile/>
   <tile/>
   <tile/>
   <tile/>
   <tile/>
   <tile/>
   <tile/>
   <tile/>
   <tile/>
   <tile/>
   <tile/>
   <tile/>
   <tile/>
   <tile/>
   <tile/>
   <tile/>
   <tile/>
   <tile/>
   <tile/>
   <tile/>
   <tile/>
   <tile/>
   <tile/>
   <tile/>
   <tile/>
   <tile/>
   <tile/>
   <tile/>
   <tile/>
   <tile/>
   <tile/>
   <tile/>
   <tile/>
   <tile/>
   <tile/>
   <tile/>
   <tile/>
   <tile/>
   <tile/>
   <tile/>
   <tile/>
   <tile/>
   <tile/>
   <tile/>
   <tile/>
   <tile/>
   <tile/>
   <tile/>
   <tile/>
   <tile/>
   <tile/>
   <tile/>
   <tile/>
   <tile/>
   <tile/>
   <tile/>
   <tile/>
   <tile/>
   <tile/>
   <tile/>
   <tile/>
   <tile/>
   <tile/>
   <tile/>
   <tile/>
   <tile/>
   <tile/>
   <tile/>
   <tile/>
   <tile/>
   <tile/>
   <tile/>
   <tile/>
   <tile/>
   <tile/>
   <tile/>
   <tile/>
   <tile/>
   <tile/>
   <tile/>
   <tile/>
   <tile/>
   <tile/>
   <tile/>
   <tile/>
   <tile/>
   <tile/>
   <tile/>
   <tile/>
   <tile/>
   <tile/>
   <tile/>
   <tile/>
   <tile/>
   <tile/>
   <tile/>
   <tile/>
   <tile/>
   <tile/>
   <tile/>
   <tile/>
   <tile/>
   <tile/>
   <tile/>
   <tile/>
   <tile/>
   <tile/>
   <tile/>
   <tile/>
   <tile/>
   <tile/>
   <tile/>
   <tile/>
   <tile/>
   <tile/>
   <tile/>
   <tile/>
   <tile/>
   <tile/>
   <tile/>
   <tile/>
   <tile/>
   <tile/>
   <tile/>
   <tile/>
   <tile/>
   <tile/>
   <tile/>
   <tile/>
   <tile/>
   <tile/>
   <tile/>
   <tile/>
   <tile/>
   <tile/>
   <tile/>
   <tile/>
   <tile/>
   <tile/>
   <tile/>
   <tile/>
   <tile/>
   <tile/>
   <tile/>
   <tile/>
   <tile/>
   <tile/>
   <tile/>
   <tile/>
   <tile/>
   <tile/>
   <tile/>
   <tile/>
   <tile/>
   <tile/>
   <tile/>
   <tile/>
   <tile/>
   <tile/>
   <tile/>
   <tile/>
   <tile/>
   <tile/>
   <tile/>
   <tile/>
   <tile/>
   <tile/>
   <tile/>
   <tile/>
   <tile/>
   <tile/>
   <tile/>
   <tile/>
   <tile/>
   <tile/>
   <tile/>
   <tile/>
   <tile/>
   <tile/>
   <tile/>
   <tile/>
   <tile/>
   <tile/>
   <tile/>
   <tile/>
   <tile/>
   <tile/>
   <tile/>
   <tile/>
   <tile/>
   <tile/>
   <tile/>
   <tile/>
   <tile/>
   <tile/>
   <tile/>
   <tile/>
   <tile/>
   <tile/>
   <tile/>
   <tile/>
   <tile/>
   <tile/>
   <tile/>
   <tile/>
   <tile/>
   <tile/>
   <tile/>
   <tile/>
   <tile/>
   <tile/>
   <tile/>
   <tile/>
   <tile/>
   <tile/>
   <tile/>
   <tile/>
   <tile/>
   <tile/>
   <tile/>
   <tile/>
   <tile/>
   <tile/>
   <tile/>
   <tile/>
   <tile/>
   <tile/>
   <tile/>
   <tile/>
   <tile/>
   <tile/>
   <tile/>
   <tile/>
   <tile/>
   <tile/>
   <tile/>
   <tile/>
   <tile/>
   <tile/>
   <tile/>
   <tile/>
   <tile/>
   <tile/>
   <tile/>
   <tile/>
   <tile/>
   <tile/>
   <tile/>
   <tile/>
   <tile/>
   <tile/>
   <tile/>
   <tile/>
   <tile/>
   <tile/>
   <tile/>
   <tile/>
   <tile/>
   <tile/>
   <tile/>
   <tile/>
   <tile/>
   <tile/>
   <tile/>
   <tile/>
   <tile/>
   <tile/>
   <tile/>
   <tile/>
   <tile/>
   <tile/>
   <tile/>
   <tile/>
   <tile/>
   <tile/>
   <tile/>
   <tile/>
   <tile/>
   <tile/>
   <tile/>
   <tile/>
   <tile/>
   <tile/>
   <tile/>
   <tile/>
   <tile/>
   <tile/>
   <tile/>
   <tile/>
   <tile/>
   <tile/>
   <tile/>
   <tile/>
   <tile/>
   <tile/>
   <tile/>
   <tile/>
   <tile/>
   <tile/>
   <tile/>
   <tile/>
   <tile/>
   <tile/>
   <tile/>
   <tile/>
   <tile/>
   <tile/>
   <tile/>
   <tile/>
   <tile/>
   <tile/>
   <tile/>
   <tile/>
   <tile/>
   <tile/>
   <tile/>
   <tile/>
   <tile/>
   <tile/>
   <tile/>
   <tile/>
   <tile/>
   <tile/>
   <tile/>
   <tile/>
   <tile/>
   <tile/>
   <tile/>
   <tile/>
   <tile/>
   <tile/>
   <tile/>
   <tile/>
   <tile/>
   <tile/>
   <tile/>
   <tile/>
   <tile/>
   <tile/>
   <tile/>
   <tile/>
   <tile/>
   <tile/>
   <tile/>
   <tile/>
   <tile/>
   <tile/>
   <tile/>
   <tile/>
   <tile/>
   <tile/>
   <tile/>
   <tile/>
   <tile/>
   <tile/>
   <tile/>
   <tile/>
   <tile/>
   <tile/>
   <tile/>
   <tile/>
   <tile/>
   <tile/>
   <tile/>
   <tile/>
   <tile/>
   <tile/>
   <tile/>
   <tile/>
   <tile/>
   <tile/>
   <tile/>
   <tile/>
   <tile/>
   <tile/>
   <tile/>
   <tile/>
   <tile/>
   <tile/>
   <tile/>
   <tile/>
   <tile/>
   <tile/>
   <tile/>
   <tile/>
   <tile/>
   <tile/>
   <tile/>
   <tile/>
   <tile/>
   <tile/>
   <tile/>
   <tile/>
   <tile/>
   <tile/>
   <tile/>
   <tile/>
   <tile/>
   <tile/>
   <tile/>
   <tile/>
   <tile/>
   <tile/>
   <tile/>
   <tile/>
   <tile/>
   <tile/>
   <tile/>
   <tile/>
   <tile/>
   <tile/>
   <tile/>
   <tile/>
   <tile/>
   <tile/>
   <tile/>
   <tile/>
   <tile/>
   <tile/>
   <tile/>
   <tile/>
   <tile/>
   <tile/>
   <tile/>
   <tile/>
   <tile/>
   <tile/>
   <tile/>
   <tile/>
   <tile/>
   <tile/>
   <tile/>
   <tile/>
   <tile/>
   <tile/>
   <tile/>
   <tile/>
   <tile/>
   <tile/>
   <tile/>
   <tile/>
   <tile/>
   <tile/>
   <tile/>
   <tile/>
   <tile/>
   <tile/>
   <tile/>
   <tile/>
   <tile/>
   <tile/>
   <tile/>
   <tile/>
   <tile/>
   <tile/>
   <tile/>
   <tile/>
   <tile/>
   <tile/>
   <tile/>
   <tile/>
   <tile/>
   <tile/>
   <tile/>
   <tile/>
   <tile/>
   <tile/>
   <tile/>
   <tile/>
   <tile/>
   <tile/>
   <tile/>
   <tile/>
   <tile/>
   <tile/>
   <tile/>
   <tile/>
   <tile/>
   <tile/>
   <tile/>
   <tile/>
   <tile/>
   <tile/>
   <tile/>
   <tile/>
   <tile/>
   <tile/>
   <tile/>
   <tile/>
   <tile/>
   <tile/>
   <tile/>
   <tile/>
   <tile/>
   <tile/>
   <tile/>
   <tile/>
   <tile/>
   <tile/>
   <tile/>
   <tile/>
   <tile/>
   <tile/>
   <tile/>
   <tile/>
   <tile/>
   <tile/>
   <tile/>
   <tile/>
   <tile/>
   <tile/>
   <tile/>
   <tile/>
   <tile/>
   <tile/>
   <tile/>
   <tile/>
   <tile/>
   <tile/>
   <tile/>
   <tile/>
   <tile/>
   <tile/>
   <tile/>
   <tile/>
   <tile/>
   <tile/>
   <tile/>
   <tile/>
   <tile/>
   <tile/>
   <tile/>
   <tile/>
   <tile/>
   <tile/>
   <tile/>
   <tile/>
   <tile/>
   <tile/>
   <tile/>
   <tile/>
   <tile/>
   <tile/>
   <tile/>
   <tile/>
   <tile/>
   <tile/>
   <tile/>
   <tile/>
   <tile/>
   <tile/>
   <tile/>
   <tile/>
   <tile/>
   <tile/>
   <tile/>
   <tile/>
   <tile/>
   <tile/>
   <tile/>
   <tile/>
   <tile/>
   <tile/>
   <tile/>
   <tile/>
   <tile/>
   <tile/>
   <tile/>
   <tile/>
   <tile/>
   <tile/>
   <tile/>
   <tile/>
   <tile/>
   <tile/>
   <tile/>
   <tile/>
   <tile/>
   <tile/>
   <tile/>
   <tile/>
   <tile/>
   <tile/>
   <tile/>
   <tile/>
   <tile/>
   <tile/>
   <tile/>
   <tile/>
   <tile/>
   <tile/>
   <tile/>
   <tile/>
   <tile/>
   <tile/>
   <tile/>
   <tile/>
   <tile/>
   <tile/>
   <tile/>
   <tile/>
   <tile/>
   <tile/>
   <tile/>
   <tile/>
   <tile/>
   <tile/>
   <tile/>
   <tile/>
   <tile/>
   <tile/>
   <tile/>
   <tile/>
   <tile/>
   <tile/>
   <tile/>
   <tile/>
   <tile/>
   <tile/>
   <tile/>
   <tile/>
   <tile/>
   <tile/>
   <tile/>
   <tile/>
   <tile/>
   <tile/>
   <tile/>
   <tile/>
   <tile/>
   <tile/>
   <tile/>
   <tile/>
   <tile/>
   <tile/>
   <tile/>
   <tile/>
   <tile/>
   <tile/>
   <tile/>
   <tile/>
   <tile/>
   <tile/>
   <tile/>
   <tile/>
   <tile/>
   <tile/>
   <tile/>
   <tile/>
   <tile/>
   <tile/>
   <tile/>
   <tile/>
   <tile/>
   <tile/>
   <tile/>
   <tile/>
   <tile/>
   <tile/>
   <tile/>
   <tile/>
   <tile/>
   <tile/>
   <tile/>
   <tile/>
   <tile/>
   <tile/>
   <tile/>
   <tile/>
   <tile/>
   <tile/>
   <tile/>
   <tile/>
   <tile/>
   <tile/>
   <tile/>
   <tile/>
   <tile/>
   <tile/>
   <tile/>
   <tile/>
   <tile/>
   <tile/>
   <tile/>
   <tile/>
   <tile/>
   <tile/>
   <tile/>
   <tile/>
   <tile/>
   <tile/>
   <tile/>
   <tile/>
   <tile/>
   <tile/>
   <tile/>
   <tile/>
   <tile/>
   <tile/>
   <tile/>
   <tile/>
   <tile/>
   <tile/>
   <tile/>
   <tile/>
   <tile/>
   <tile/>
   <tile/>
   <tile/>
   <tile/>
   <tile/>
   <tile/>
   <tile/>
   <tile/>
   <tile/>
   <tile/>
   <tile/>
   <tile/>
   <tile/>
   <tile/>
   <tile/>
   <tile/>
   <tile/>
   <tile/>
   <tile/>
   <tile/>
   <tile/>
   <tile/>
   <tile/>
   <tile/>
   <tile/>
   <tile/>
   <tile/>
   <tile/>
   <tile/>
   <tile/>
   <tile/>
   <tile/>
   <tile/>
   <tile/>
   <tile/>
   <tile/>
   <tile/>
   <tile/>
   <tile/>
   <tile/>
   <tile/>
   <tile/>
   <tile/>
   <tile/>
   <tile/>
   <tile/>
   <tile/>
   <tile/>
   <tile/>
   <tile/>
   <tile/>
   <tile/>
   <tile/>
   <tile/>
   <tile/>
   <tile/>
   <tile/>
   <tile/>
   <tile/>
   <tile/>
   <tile/>
   <tile/>
   <tile/>
   <tile/>
   <tile/>
   <tile/>
   <tile/>
   <tile/>
   <tile/>
   <tile/>
   <tile/>
   <tile/>
   <tile/>
   <tile/>
   <tile/>
   <tile/>
   <tile/>
   <tile/>
   <tile/>
   <tile/>
   <tile/>
   <tile/>
   <tile/>
   <tile/>
   <tile/>
   <tile/>
   <tile/>
   <tile/>
   <tile/>
   <tile/>
   <tile/>
   <tile/>
   <tile/>
   <tile/>
   <tile/>
   <tile/>
   <tile/>
   <tile/>
   <tile/>
   <tile/>
   <tile/>
   <tile/>
   <tile/>
   <tile/>
   <tile/>
   <tile/>
   <tile/>
   <tile/>
   <tile/>
   <tile/>
   <tile/>
   <tile/>
   <tile/>
   <tile/>
   <tile/>
   <tile/>
   <tile/>
   <tile/>
   <tile/>
   <tile/>
   <tile/>
   <tile/>
   <tile/>
   <tile/>
   <tile/>
   <tile/>
   <tile/>
   <tile/>
   <tile/>
   <tile/>
   <tile/>
   <tile/>
   <tile/>
   <tile/>
   <tile/>
   <tile/>
   <tile/>
   <tile/>
   <tile/>
   <tile/>
   <tile/>
   <tile/>
   <tile/>
   <tile/>
   <tile/>
   <tile/>
   <tile/>
   <tile/>
   <tile/>
   <tile/>
   <tile/>
   <tile/>
   <tile/>
   <tile/>
   <tile/>
   <tile/>
   <tile/>
   <tile/>
   <tile/>
   <tile/>
   <tile/>
   <tile/>
   <tile/>
   <tile/>
   <tile/>
   <tile/>
   <tile/>
   <tile/>
   <tile/>
   <tile/>
   <tile/>
   <tile/>
   <tile/>
   <tile/>
   <tile/>
   <tile/>
   <tile/>
   <tile/>
   <tile/>
   <tile/>
   <tile/>
   <tile/>
   <tile/>
   <tile/>
   <tile/>
   <tile/>
   <tile/>
   <tile/>
   <tile/>
   <tile/>
   <tile/>
   <tile/>
   <tile/>
   <tile/>
   <tile/>
   <tile/>
   <tile/>
   <tile/>
   <tile/>
   <tile/>
   <tile/>
   <tile/>
   <tile/>
   <tile/>
   <tile/>
   <tile/>
   <tile/>
   <tile/>
   <tile/>
   <tile/>
   <tile/>
   <tile/>
   <tile/>
   <tile/>
   <tile/>
   <tile/>
   <tile/>
   <tile/>
   <tile/>
   <tile/>
   <tile/>
   <tile/>
   <tile/>
   <tile/>
   <tile/>
   <tile/>
   <tile/>
   <tile/>
   <tile/>
   <tile/>
   <tile/>
   <tile/>
   <tile/>
   <tile/>
   <tile/>
   <tile/>
   <tile/>
   <tile/>
   <tile/>
   <tile/>
   <tile/>
   <tile/>
   <tile/>
   <tile/>
   <tile/>
   <tile/>
   <tile/>
   <tile/>
   <tile/>
   <tile/>
   <tile/>
   <tile/>
   <tile/>
   <tile/>
   <tile/>
   <tile/>
   <tile/>
   <tile/>
   <tile/>
   <tile/>
   <tile/>
   <tile/>
   <tile/>
   <tile/>
   <tile/>
   <tile/>
   <tile/>
   <tile/>
   <tile/>
   <tile/>
   <tile/>
   <tile/>
   <tile/>
   <tile/>
   <tile/>
   <tile/>
   <tile/>
   <tile/>
   <tile/>
   <tile/>
   <tile/>
   <tile/>
   <tile/>
   <tile/>
   <tile/>
   <tile/>
   <tile/>
   <tile/>
   <tile/>
   <tile/>
   <tile/>
   <tile/>
   <tile/>
   <tile/>
   <tile/>
   <tile/>
   <tile/>
   <tile/>
   <tile/>
   <tile/>
   <tile/>
   <tile/>
   <tile/>
   <tile/>
   <tile/>
   <tile/>
   <tile/>
   <tile/>
   <tile/>
   <tile/>
   <tile/>
   <tile/>
   <tile/>
   <tile/>
   <tile/>
   <tile/>
   <tile/>
   <tile/>
   <tile/>
   <tile/>
   <tile/>
   <tile/>
   <tile/>
   <tile/>
   <tile/>
   <tile/>
   <tile/>
   <tile/>
   <tile/>
   <tile/>
   <tile/>
   <tile/>
   <tile/>
   <tile/>
   <tile/>
   <tile/>
   <tile/>
   <tile/>
   <tile/>
   <tile/>
   <tile/>
   <tile/>
   <tile/>
   <tile/>
   <tile/>
   <tile/>
   <tile/>
   <tile/>
   <tile/>
   <tile/>
   <tile/>
   <tile/>
   <tile/>
   <tile/>
   <tile/>
   <tile/>
   <tile/>
   <tile/>
   <tile/>
   <tile/>
   <tile/>
   <tile/>
   <tile/>
   <tile/>
   <tile/>
   <tile/>
   <tile/>
   <tile/>
   <tile/>
   <tile/>
   <tile/>
   <tile/>
   <tile/>
   <tile/>
   <tile/>
   <tile/>
   <tile/>
   <tile/>
   <tile/>
   <tile/>
   <tile/>
   <tile/>
   <tile/>
   <tile/>
   <tile/>
   <tile/>
   <tile/>
   <tile/>
   <tile/>
   <tile/>
   <tile/>
   <tile/>
   <tile/>
   <tile/>
   <tile/>
   <tile/>
   <tile/>
   <tile/>
   <tile/>
   <tile/>
   <tile/>
   <tile/>
   <tile/>
   <tile/>
   <tile/>
   <tile/>
   <tile/>
   <tile/>
   <tile/>
   <tile/>
   <tile/>
   <tile/>
   <tile/>
   <tile/>
   <tile/>
   <tile/>
   <tile/>
   <tile/>
   <tile/>
   <tile/>
   <tile/>
   <tile/>
   <tile/>
   <tile/>
   <tile/>
   <tile/>
   <tile/>
   <tile/>
   <tile/>
   <tile/>
   <tile/>
   <tile/>
   <tile/>
   <tile/>
   <tile/>
   <tile/>
   <tile/>
   <tile/>
   <tile/>
   <tile/>
   <tile/>
   <tile/>
   <tile/>
   <tile/>
   <tile/>
   <tile/>
   <tile/>
   <tile/>
   <tile/>
   <tile/>
   <tile/>
   <tile/>
   <tile/>
   <tile/>
   <tile/>
   <tile/>
   <tile/>
   <tile/>
   <tile/>
   <tile/>
   <tile/>
   <tile/>
   <tile/>
   <tile/>
   <tile/>
   <tile/>
   <tile/>
   <tile/>
   <tile/>
   <tile/>
   <tile/>
   <tile/>
   <tile/>
   <tile/>
   <tile/>
   <tile/>
   <tile/>
   <tile/>
   <tile/>
   <tile/>
   <tile/>
   <tile/>
   <tile/>
   <tile/>
   <tile/>
   <tile/>
   <tile/>
   <tile/>
   <tile/>
   <tile/>
   <tile/>
   <tile/>
   <tile/>
   <tile/>
   <tile/>
   <tile/>
   <tile/>
   <tile/>
   <tile/>
   <tile/>
   <tile/>
   <tile/>
   <tile/>
   <tile/>
   <tile/>
   <tile/>
   <tile/>
   <tile/>
   <tile/>
   <tile/>
   <tile/>
   <tile/>
   <tile/>
   <tile/>
   <tile/>
   <tile/>
   <tile/>
   <tile/>
   <tile/>
   <tile/>
   <tile/>
   <tile/>
   <tile/>
   <tile/>
   <tile/>
   <tile/>
   <tile/>
   <tile/>
   <tile/>
   <tile/>
   <tile/>
   <tile/>
   <tile/>
   <tile/>
   <tile/>
   <tile/>
   <tile/>
   <tile/>
   <tile/>
   <tile/>
   <tile/>
   <tile/>
   <tile/>
   <tile/>
   <tile/>
   <tile/>
   <tile/>
   <tile/>
   <tile/>
   <tile/>
   <tile/>
   <tile/>
   <tile/>
   <tile/>
   <tile/>
   <tile/>
   <tile/>
   <tile/>
   <tile/>
   <tile/>
   <tile/>
   <tile/>
   <tile/>
   <tile/>
   <tile/>
   <tile/>
   <tile/>
   <tile/>
   <tile/>
   <tile/>
   <tile/>
   <tile/>
   <tile/>
   <tile/>
   <tile/>
   <tile/>
   <tile/>
   <tile/>
   <tile/>
   <tile/>
   <tile/>
   <tile/>
   <tile/>
   <tile/>
   <tile/>
   <tile/>
   <tile/>
   <tile/>
   <tile/>
   <tile/>
   <tile/>
   <tile/>
   <tile/>
   <tile/>
   <tile/>
   <tile/>
   <tile/>
   <tile/>
   <tile/>
   <tile/>
   <tile/>
   <tile/>
   <tile/>
   <tile/>
   <tile/>
   <tile/>
   <tile/>
   <tile/>
   <tile/>
   <tile/>
   <tile/>
   <tile/>
   <tile/>
   <tile/>
   <tile/>
   <tile/>
   <tile/>
   <tile/>
   <tile/>
   <tile/>
   <tile/>
   <tile/>
   <tile/>
   <tile/>
   <tile/>
   <tile/>
   <tile/>
   <tile/>
   <tile/>
   <tile/>
   <tile/>
   <tile/>
   <tile/>
   <tile/>
   <tile/>
   <tile/>
   <tile/>
   <tile/>
   <tile/>
   <tile/>
   <tile/>
   <tile/>
   <tile/>
   <tile/>
   <tile/>
   <tile/>
   <tile/>
   <tile/>
   <tile/>
   <tile/>
   <tile/>
   <tile/>
   <tile/>
   <tile/>
   <tile/>
   <tile/>
   <tile/>
   <tile/>
   <tile/>
   <tile/>
   <tile/>
   <tile/>
   <tile/>
   <tile/>
   <tile/>
   <tile/>
   <tile/>
   <tile/>
   <tile/>
   <tile/>
   <tile/>
   <tile/>
   <tile/>
   <tile/>
   <tile/>
   <tile/>
   <tile/>
   <tile/>
   <tile/>
   <tile/>
   <tile/>
   <tile/>
   <tile/>
   <tile/>
   <tile/>
   <tile/>
   <tile/>
   <tile/>
   <tile/>
   <tile/>
   <tile/>
   <tile/>
   <tile/>
   <tile/>
   <tile/>
   <tile/>
   <tile/>
   <tile/>
   <tile/>
   <tile/>
   <tile/>
   <tile/>
   <tile/>
   <tile/>
   <tile/>
   <tile/>
   <tile/>
   <tile/>
   <tile/>
   <tile/>
   <tile/>
   <tile/>
   <tile/>
   <tile/>
   <tile/>
   <tile/>
   <tile/>
   <tile/>
   <tile/>
   <tile/>
   <tile/>
   <tile/>
   <tile/>
   <tile/>
   <tile/>
   <tile/>
   <tile/>
   <tile/>
   <tile/>
   <tile/>
   <tile/>
   <tile/>
   <tile/>
   <tile/>
   <tile/>
   <tile/>
   <tile/>
   <tile/>
   <tile/>
   <tile/>
   <tile/>
   <tile/>
   <tile/>
   <tile/>
   <tile/>
   <tile/>
   <tile/>
   <tile/>
   <tile/>
   <tile/>
   <tile/>
   <tile/>
   <tile/>
   <tile/>
   <tile/>
   <tile/>
   <tile/>
   <tile/>
   <tile/>
   <tile/>
   <tile/>
   <tile/>
   <tile/>
   <tile/>
   <tile/>
   <tile/>
   <tile/>
   <tile/>
   <tile/>
   <tile/>
   <tile/>
   <tile/>
   <tile/>
   <tile/>
   <tile/>
   <tile/>
   <tile/>
   <tile/>
   <tile/>
   <tile/>
   <tile/>
   <tile/>
   <tile/>
   <tile/>
   <tile/>
   <tile/>
   <tile/>
   <tile/>
   <tile/>
   <tile/>
   <tile/>
   <tile/>
   <tile/>
   <tile/>
   <tile/>
   <tile/>
   <tile/>
   <tile/>
   <tile/>
   <tile/>
   <tile/>
   <tile/>
   <tile/>
   <tile/>
   <tile/>
   <tile/>
   <tile/>
   <tile/>
   <tile/>
   <tile/>
   <tile/>
   <tile/>
   <tile/>
   <tile/>
   <tile/>
   <tile/>
   <tile/>
   <tile/>
   <tile/>
   <tile/>
   <tile/>
   <tile/>
   <tile/>
   <tile/>
   <tile/>
   <tile/>
   <tile/>
   <tile/>
   <tile/>
   <tile/>
   <tile/>
   <tile/>
   <tile/>
   <tile/>
   <tile/>
   <tile/>
   <tile/>
   <tile/>
   <tile/>
   <tile/>
   <tile/>
   <tile/>
   <tile/>
   <tile/>
   <tile/>
   <tile/>
   <tile/>
   <tile/>
   <tile/>
   <tile/>
   <tile/>
   <tile/>
   <tile/>
   <tile/>
   <tile/>
   <tile/>
   <tile/>
   <tile/>
   <tile/>
   <tile/>
   <tile/>
   <tile/>
   <tile/>
   <tile/>
   <tile/>
   <tile/>
   <tile/>
   <tile/>
   <tile/>
   <tile/>
   <tile/>
   <tile/>
   <tile/>
   <tile/>
   <tile/>
   <tile/>
   <tile/>
   <tile/>
   <tile/>
   <tile/>
   <tile/>
   <tile/>
   <tile/>
   <tile/>
   <tile/>
   <tile/>
   <tile/>
   <tile/>
   <tile/>
   <tile/>
   <tile/>
   <tile/>
   <tile/>
   <tile/>
   <tile/>
   <tile/>
   <tile/>
   <tile/>
   <tile/>
   <tile/>
   <tile/>
   <tile/>
   <tile/>
   <tile/>
   <tile/>
   <tile/>
   <tile/>
   <tile/>
   <tile/>
   <tile/>
   <tile/>
   <tile/>
   <tile/>
   <tile/>
   <tile/>
   <tile/>
   <tile/>
   <tile/>
   <tile/>
   <tile/>
   <tile/>
   <tile/>
   <tile/>
   <tile/>
   <tile/>
   <tile/>
   <tile/>
   <tile/>
   <tile/>
   <tile/>
   <tile/>
   <tile/>
   <tile/>
   <tile/>
   <tile/>
   <tile/>
   <tile/>
   <tile/>
   <tile/>
   <tile/>
   <tile/>
   <tile/>
   <tile/>
   <tile/>
   <tile/>
   <tile/>
   <tile/>
   <tile/>
   <tile/>
   <tile/>
   <tile/>
   <tile/>
   <tile/>
   <tile/>
   <tile/>
   <tile/>
   <tile/>
   <tile/>
   <tile/>
   <tile/>
   <tile/>
   <tile/>
   <tile/>
   <tile/>
   <tile/>
   <tile/>
   <tile/>
   <tile/>
   <tile/>
   <tile/>
   <tile/>
   <tile/>
   <tile/>
   <tile/>
   <tile/>
   <tile/>
   <tile/>
   <tile/>
   <tile/>
   <tile/>
   <tile/>
   <tile/>
   <tile/>
   <tile/>
   <tile/>
   <tile/>
   <tile/>
   <tile/>
   <tile/>
   <tile/>
   <tile/>
   <tile/>
   <tile/>
   <tile/>
   <tile/>
   <tile/>
   <tile/>
   <tile/>
   <tile/>
   <tile/>
   <tile/>
   <tile/>
   <tile/>
   <tile/>
   <tile/>
   <tile/>
   <tile/>
   <tile/>
   <tile/>
   <tile/>
   <tile/>
   <tile/>
   <tile/>
   <tile/>
   <tile/>
   <tile/>
   <tile/>
   <tile/>
   <tile/>
   <tile/>
   <tile/>
   <tile/>
   <tile/>
   <tile/>
   <tile/>
   <tile/>
   <tile/>
   <tile/>
   <tile/>
   <tile/>
   <tile/>
   <tile/>
   <tile/>
   <tile/>
   <tile/>
   <tile/>
   <tile/>
   <tile/>
   <tile/>
   <tile/>
   <tile/>
   <tile/>
   <tile/>
   <tile/>
   <tile/>
   <tile/>
   <tile/>
   <tile/>
   <tile/>
   <tile/>
   <tile/>
   <tile/>
   <tile/>
   <tile/>
   <tile/>
   <tile/>
   <tile/>
   <tile/>
   <tile/>
   <tile/>
   <tile/>
   <tile/>
   <tile/>
   <tile/>
   <tile/>
   <tile/>
   <tile/>
   <tile/>
   <tile/>
   <tile/>
   <tile/>
   <tile/>
   <tile/>
   <tile/>
   <tile/>
   <tile/>
   <tile/>
   <tile/>
   <tile/>
   <tile/>
   <tile/>
   <tile/>
   <tile/>
   <tile/>
   <tile/>
   <tile/>
   <tile/>
   <tile/>
   <tile/>
   <tile/>
   <tile/>
   <tile/>
   <tile/>
   <tile/>
   <tile/>
   <tile/>
   <tile/>
   <tile/>
   <tile/>
   <tile/>
   <tile/>
   <tile/>
   <tile/>
   <tile/>
   <tile/>
   <tile/>
   <tile/>
   <tile/>
   <tile/>
   <tile/>
   <tile/>
   <tile/>
   <tile/>
   <tile/>
   <tile/>
   <tile/>
   <tile/>
   <tile/>
   <tile/>
   <tile/>
   <tile/>
   <tile/>
   <tile/>
   <tile/>
   <tile/>
   <tile/>
   <tile/>
   <tile/>
   <tile/>
   <tile/>
   <tile/>
   <tile/>
   <tile/>
   <tile/>
   <tile/>
   <tile/>
   <tile/>
   <tile/>
   <tile/>
   <tile/>
   <tile/>
   <tile/>
   <tile/>
   <tile/>
   <tile/>
   <tile/>
   <tile/>
   <tile/>
   <tile/>
   <tile/>
   <tile/>
   <tile/>
   <tile/>
   <tile/>
   <tile/>
   <tile/>
   <tile/>
   <tile/>
   <tile/>
   <tile/>
   <tile/>
   <tile/>
   <tile/>
   <tile/>
   <tile/>
   <tile/>
   <tile/>
   <tile/>
   <tile/>
   <tile/>
   <tile/>
   <tile/>
   <tile/>
   <tile/>
   <tile/>
   <tile/>
   <tile/>
   <tile/>
   <tile/>
   <tile/>
   <tile/>
   <tile/>
   <tile/>
   <tile/>
   <tile/>
   <tile/>
   <tile/>
   <tile/>
   <tile/>
   <tile/>
   <tile/>
   <tile/>
   <tile/>
   <tile/>
   <tile/>
   <tile/>
   <tile/>
   <tile/>
   <tile/>
   <tile/>
   <tile/>
   <tile/>
   <tile/>
   <tile/>
   <tile/>
   <tile/>
   <tile/>
   <tile/>
   <tile/>
   <tile/>
   <tile/>
   <tile/>
   <tile/>
   <tile/>
   <tile/>
   <tile/>
   <tile/>
   <tile/>
   <tile/>
   <tile/>
   <tile/>
   <tile/>
   <tile/>
   <tile/>
   <tile/>
   <tile/>
   <tile/>
   <tile/>
   <tile/>
   <tile/>
   <tile/>
   <tile/>
   <tile/>
   <tile/>
   <tile/>
   <tile/>
   <tile/>
   <tile/>
   <tile/>
   <tile/>
   <tile/>
   <tile/>
   <tile/>
   <tile/>
   <tile/>
   <tile/>
   <tile/>
   <tile/>
   <tile/>
   <tile/>
   <tile/>
   <tile/>
   <tile/>
   <tile/>
   <tile/>
   <tile/>
   <tile/>
   <tile/>
   <tile/>
   <tile/>
   <tile/>
   <tile/>
   <tile/>
   <tile/>
   <tile/>
   <tile/>
   <tile/>
   <tile/>
   <tile/>
   <tile/>
   <tile/>
   <tile/>
   <tile/>
   <tile/>
   <tile/>
   <tile/>
   <tile/>
   <tile/>
   <tile/>
   <tile/>
   <tile/>
   <tile/>
   <tile/>
   <tile/>
   <tile/>
   <tile/>
   <tile/>
   <tile/>
   <tile/>
   <tile/>
   <tile/>
   <tile/>
   <tile/>
   <tile/>
   <tile/>
   <tile/>
   <tile/>
   <tile/>
   <tile/>
   <tile/>
   <tile/>
   <tile/>
   <tile/>
   <tile/>
   <tile/>
   <tile/>
   <tile/>
   <tile/>
   <tile/>
   <tile/>
   <tile/>
   <tile/>
   <tile/>
   <tile/>
   <tile/>
   <tile/>
   <tile/>
   <tile/>
   <tile/>
   <tile/>
   <tile/>
   <tile/>
   <tile/>
   <tile/>
   <tile/>
   <tile/>
   <tile/>
   <tile/>
   <tile/>
   <tile/>
   <tile/>
   <tile/>
   <tile/>
   <tile/>
   <tile/>
   <tile/>
   <tile/>
   <tile/>
   <tile/>
   <tile/>
   <tile/>
   <tile/>
   <tile/>
   <tile/>
   <tile/>
   <tile/>
   <tile/>
   <tile/>
   <tile/>
   <tile/>
   <tile/>
   <tile/>
   <tile/>
   <tile/>
   <tile/>
   <tile/>
   <tile/>
   <tile/>
   <tile/>
   <tile/>
   <tile/>
   <tile/>
   <tile/>
   <tile/>
   <tile/>
   <tile/>
   <tile/>
   <tile/>
   <tile/>
   <tile/>
   <tile/>
   <tile/>
   <tile/>
   <tile/>
   <tile/>
   <tile/>
   <tile/>
   <tile/>
   <tile/>
   <tile/>
   <tile/>
   <tile/>
   <tile/>
   <tile/>
   <tile/>
   <tile/>
   <tile/>
   <tile/>
   <tile/>
   <tile/>
   <tile/>
   <tile/>
   <tile/>
   <tile/>
   <tile/>
   <tile/>
   <tile/>
   <tile/>
   <tile/>
   <tile/>
   <tile/>
   <tile/>
   <tile/>
   <tile/>
   <tile/>
   <tile/>
   <tile/>
   <tile/>
   <tile/>
   <tile/>
   <tile/>
   <tile/>
   <tile/>
   <tile/>
   <tile/>
   <tile/>
   <tile/>
   <tile/>
   <tile/>
   <tile/>
   <tile/>
   <tile/>
   <tile/>
   <tile/>
   <tile/>
   <tile/>
   <tile/>
   <tile/>
   <tile/>
   <tile/>
   <tile/>
   <tile/>
   <tile/>
   <tile/>
   <tile/>
   <tile/>
   <tile/>
   <tile/>
   <tile/>
   <tile/>
   <tile/>
   <tile/>
   <tile/>
   <tile/>
   <tile/>
   <tile/>
   <tile/>
   <tile/>
   <tile/>
   <tile/>
   <tile/>
   <tile/>
   <tile/>
   <tile/>
   <tile/>
   <tile/>
   <tile/>
   <tile/>
   <tile/>
   <tile/>
   <tile/>
   <tile/>
   <tile/>
   <tile/>
   <tile/>
   <tile/>
   <tile/>
   <tile/>
   <tile/>
   <tile/>
   <tile/>
   <tile/>
   <tile/>
   <tile/>
   <tile/>
   <tile/>
   <tile/>
   <tile/>
   <tile/>
   <tile/>
   <tile/>
   <tile/>
   <tile/>
   <tile/>
   <tile/>
   <tile/>
   <tile/>
   <tile/>
   <tile/>
   <tile/>
   <tile/>
   <tile/>
   <tile/>
   <tile/>
   <tile/>
   <tile/>
   <tile/>
   <tile/>
   <tile/>
   <tile/>
   <tile/>
   <tile/>
   <tile/>
   <tile/>
   <tile/>
   <tile/>
   <tile/>
   <tile/>
   <tile/>
   <tile/>
   <tile/>
   <tile/>
   <tile/>
   <tile/>
   <tile/>
   <tile/>
   <tile/>
   <tile/>
   <tile/>
   <tile/>
   <tile/>
   <tile/>
   <tile/>
   <tile/>
   <tile/>
   <tile/>
   <tile/>
   <tile/>
   <tile/>
   <tile/>
   <tile/>
   <tile/>
   <tile/>
   <tile/>
   <tile/>
   <tile/>
   <tile/>
   <tile/>
   <tile/>
   <tile/>
   <tile/>
   <tile/>
   <tile/>
   <tile/>
   <tile/>
   <tile/>
   <tile/>
   <tile/>
   <tile/>
   <tile/>
   <tile/>
   <tile/>
   <tile/>
   <tile/>
   <tile/>
   <tile/>
   <tile/>
   <tile/>
   <tile/>
   <tile/>
   <tile/>
   <tile/>
   <tile/>
   <tile/>
   <tile/>
   <tile/>
   <tile/>
   <tile/>
   <tile/>
   <tile/>
   <tile/>
   <tile/>
   <tile/>
   <tile/>
   <tile/>
   <tile/>
   <tile/>
   <tile/>
   <tile/>
   <tile/>
   <tile/>
   <tile/>
   <tile/>
   <tile/>
   <tile/>
   <tile/>
   <tile/>
   <tile/>
   <tile/>
   <tile/>
   <tile/>
   <tile/>
   <tile/>
   <tile/>
   <tile/>
   <tile/>
   <tile/>
   <tile/>
   <tile/>
   <tile/>
   <tile/>
   <tile/>
   <tile/>
   <tile/>
   <tile/>
   <tile/>
   <tile/>
   <tile/>
   <tile/>
   <tile/>
   <tile/>
   <tile/>
   <tile/>
   <tile/>
   <tile/>
   <tile/>
   <tile/>
   <tile/>
   <tile/>
   <tile/>
   <tile/>
   <tile/>
   <tile/>
   <tile/>
   <tile/>
   <tile/>
   <tile/>
   <tile/>
   <tile/>
   <tile/>
   <tile/>
   <tile/>
   <tile/>
   <tile/>
   <tile/>
   <tile/>
   <tile/>
   <tile/>
   <tile/>
   <tile/>
   <tile/>
   <tile/>
   <tile/>
   <tile/>
   <tile/>
   <tile/>
   <tile/>
   <tile/>
   <tile/>
   <tile/>
   <tile/>
   <tile/>
   <tile/>
   <tile/>
   <tile/>
   <tile/>
   <tile/>
   <tile/>
   <tile/>
   <tile/>
   <tile/>
   <tile/>
   <tile/>
   <tile/>
   <tile/>
   <tile/>
   <tile/>
   <tile/>
   <tile/>
   <tile/>
   <tile/>
   <tile/>
   <tile/>
   <tile/>
   <tile/>
   <tile/>
   <tile/>
   <tile/>
   <tile/>
   <tile/>
   <tile/>
   <tile/>
   <tile/>
   <tile/>
   <tile/>
   <tile/>
   <tile/>
   <tile/>
   <tile/>
   <tile/>
   <tile/>
   <tile/>
   <tile/>
   <tile/>
   <tile/>
   <tile/>
   <tile/>
   <tile/>
   <tile/>
   <tile/>
   <tile/>
   <tile/>
   <tile/>
   <tile/>
   <tile/>
   <tile/>
   <tile/>
   <tile/>
   <tile/>
   <tile/>
   <tile/>
   <tile/>
   <tile/>
   <tile/>
   <tile/>
   <tile/>
   <tile/>
   <tile/>
   <tile/>
   <tile/>
   <tile/>
   <tile/>
   <tile/>
   <tile/>
   <tile/>
   <tile/>
   <tile/>
   <tile/>
   <tile/>
   <tile/>
   <tile/>
   <tile/>
   <tile/>
   <tile/>
   <tile/>
   <tile/>
   <tile/>
   <tile/>
   <tile/>
   <tile/>
   <tile/>
   <tile/>
   <tile/>
   <tile/>
   <tile/>
   <tile/>
   <tile/>
   <tile/>
   <tile/>
   <tile/>
   <tile/>
   <tile/>
   <tile/>
   <tile/>
   <tile/>
   <tile/>
   <tile/>
   <tile/>
   <tile/>
   <tile/>
   <tile/>
   <tile/>
   <tile/>
   <tile/>
   <tile/>
   <tile/>
   <tile/>
   <tile/>
   <tile/>
   <tile/>
   <tile/>
   <tile/>
   <tile/>
   <tile/>
   <tile/>
   <tile/>
   <tile/>
   <tile/>
   <tile/>
   <tile/>
   <tile/>
   <tile/>
   <tile/>
   <tile/>
   <tile/>
   <tile/>
   <tile/>
   <tile/>
   <tile/>
   <tile/>
   <tile/>
   <tile/>
   <tile/>
   <tile/>
   <tile/>
   <tile/>
   <tile/>
   <tile/>
   <tile/>
   <tile/>
   <tile/>
   <tile/>
   <tile/>
   <tile/>
   <tile/>
   <tile/>
   <tile/>
   <tile/>
   <tile/>
   <tile/>
   <tile/>
   <tile/>
   <tile/>
   <tile/>
   <tile/>
   <tile/>
   <tile/>
   <tile/>
   <tile/>
   <tile/>
   <tile/>
   <tile/>
   <tile/>
   <tile/>
   <tile/>
   <tile/>
   <tile/>
   <tile/>
   <tile/>
   <tile/>
   <tile/>
   <tile/>
   <tile/>
   <tile/>
   <tile/>
   <tile/>
   <tile/>
   <tile/>
   <tile/>
   <tile/>
   <tile/>
   <tile/>
   <tile/>
   <tile/>
   <tile/>
   <tile/>
   <tile/>
   <tile/>
   <tile/>
   <tile/>
   <tile/>
   <tile/>
   <tile/>
   <tile/>
   <tile/>
   <tile/>
   <tile/>
   <tile/>
   <tile/>
   <tile/>
   <tile/>
   <tile/>
   <tile/>
   <tile/>
   <tile/>
   <tile/>
   <tile/>
   <tile/>
   <tile/>
   <tile/>
   <tile/>
   <tile/>
   <tile/>
   <tile/>
   <tile/>
   <tile/>
   <tile/>
   <tile/>
   <tile/>
   <tile/>
   <tile/>
   <tile/>
   <tile/>
   <tile/>
   <tile/>
   <tile/>
   <tile/>
   <tile/>
   <tile/>
   <tile/>
   <tile/>
   <tile/>
   <tile/>
   <tile/>
   <tile/>
   <tile/>
   <tile/>
   <tile/>
   <tile/>
   <tile/>
   <tile/>
   <tile/>
   <tile/>
   <tile/>
   <tile/>
   <tile/>
   <tile/>
   <tile/>
   <tile/>
   <tile/>
   <tile/>
   <tile/>
   <tile/>
   <tile/>
   <tile/>
   <tile/>
   <tile/>
   <tile/>
   <tile/>
   <tile/>
   <tile/>
   <tile/>
   <tile/>
   <tile/>
   <tile/>
   <tile/>
   <tile/>
   <tile/>
   <tile/>
   <tile/>
   <tile/>
   <tile/>
   <tile/>
   <tile/>
   <tile/>
   <tile/>
   <tile/>
   <tile/>
   <tile/>
   <tile/>
   <tile/>
   <tile/>
   <tile/>
   <tile/>
   <tile/>
   <tile/>
   <tile/>
   <tile/>
   <tile/>
   <tile/>
   <tile/>
   <tile/>
   <tile/>
   <tile/>
   <tile/>
   <tile/>
   <tile/>
   <tile/>
   <tile/>
   <tile/>
   <tile/>
   <tile/>
   <tile/>
   <tile/>
   <tile/>
   <tile/>
   <tile/>
   <tile/>
   <tile/>
   <tile/>
   <tile/>
   <tile/>
   <tile/>
   <tile/>
   <tile/>
   <tile/>
   <tile/>
   <tile/>
   <tile/>
   <tile/>
   <tile/>
   <tile/>
   <tile/>
   <tile/>
   <tile/>
   <tile/>
   <tile/>
   <tile/>
   <tile/>
   <tile/>
   <tile/>
   <tile/>
   <tile/>
   <tile/>
   <tile/>
   <tile/>
   <tile/>
   <tile/>
   <tile/>
   <tile/>
   <tile/>
   <tile/>
   <tile/>
   <tile/>
   <tile/>
   <tile/>
   <tile/>
   <tile/>
   <tile/>
   <tile/>
   <tile/>
   <tile/>
   <tile/>
   <tile/>
   <tile/>
   <tile/>
   <tile/>
   <tile/>
   <tile/>
   <tile/>
   <tile/>
   <tile/>
   <tile/>
   <tile/>
   <tile/>
   <tile/>
   <tile/>
   <tile/>
   <tile/>
   <tile/>
   <tile/>
   <tile/>
   <tile/>
   <tile/>
   <tile/>
   <tile/>
   <tile/>
   <tile/>
   <tile/>
   <tile/>
   <tile/>
   <tile/>
   <tile/>
   <tile/>
   <tile/>
   <tile/>
   <tile/>
   <tile/>
   <tile/>
   <tile/>
   <tile/>
   <tile/>
   <tile/>
   <tile/>
   <tile/>
   <tile/>
   <tile/>
   <tile/>
   <tile/>
   <tile/>
   <tile/>
   <tile/>
   <tile/>
   <tile/>
   <tile/>
   <tile/>
   <tile/>
   <tile/>
   <tile/>
   <tile/>
   <tile/>
   <tile/>
   <tile/>
   <tile/>
   <tile/>
   <tile/>
   <tile/>
   <tile/>
   <tile/>
   <tile/>
   <tile/>
   <tile/>
   <tile/>
   <tile/>
   <tile/>
   <tile/>
   <tile/>
   <tile/>
   <tile/>
   <tile/>
   <tile/>
   <tile/>
   <tile/>
   <tile/>
   <tile/>
   <tile/>
   <tile/>
   <tile/>
   <tile/>
   <tile/>
   <tile/>
   <tile/>
   <tile/>
   <tile/>
   <tile/>
   <tile/>
   <tile/>
   <tile/>
   <tile/>
   <tile/>
   <tile/>
   <tile/>
   <tile/>
   <tile/>
   <tile/>
   <tile/>
   <tile/>
   <tile/>
   <tile/>
   <tile/>
   <tile/>
   <tile/>
   <tile/>
   <tile/>
   <tile/>
   <tile/>
   <tile/>
   <tile/>
   <tile/>
   <tile/>
   <tile/>
   <tile/>
   <tile/>
   <tile/>
   <tile/>
   <tile/>
   <tile/>
   <tile/>
   <tile/>
   <tile/>
   <tile/>
   <tile/>
   <tile/>
   <tile/>
   <tile/>
   <tile/>
   <tile/>
   <tile/>
   <tile/>
   <tile/>
   <tile/>
   <tile/>
   <tile/>
   <tile/>
   <tile/>
   <tile/>
   <tile/>
   <tile/>
   <tile/>
   <tile/>
   <tile/>
   <tile/>
   <tile/>
   <tile/>
   <tile/>
   <tile/>
   <tile/>
   <tile/>
   <tile/>
   <tile/>
   <tile/>
   <tile/>
   <tile/>
   <tile/>
   <tile/>
   <tile/>
   <tile/>
   <tile/>
   <tile/>
   <tile/>
   <tile/>
   <tile/>
   <tile/>
   <tile/>
   <tile/>
   <tile/>
   <tile/>
   <tile/>
   <tile/>
   <tile/>
   <tile/>
   <tile/>
   <tile/>
   <tile/>
   <tile/>
   <tile/>
   <tile/>
   <tile/>
   <tile/>
   <tile/>
   <tile/>
   <tile/>
   <tile/>
   <tile/>
   <tile/>
   <tile/>
   <tile/>
   <tile/>
   <tile/>
   <tile/>
   <tile/>
   <tile/>
   <tile/>
   <tile/>
   <tile/>
   <tile/>
   <tile/>
   <tile/>
   <tile/>
   <tile/>
   <tile/>
   <tile/>
   <tile/>
   <tile/>
   <tile/>
   <tile/>
   <tile/>
   <tile/>
   <tile/>
   <tile/>
   <tile/>
   <tile/>
   <tile/>
   <tile/>
   <tile/>
   <tile/>
   <tile/>
   <tile/>
   <tile/>
   <tile/>
   <tile/>
   <tile/>
   <tile/>
   <tile/>
   <tile/>
   <tile/>
   <tile/>
   <tile/>
   <tile/>
   <tile/>
   <tile/>
   <tile/>
   <tile/>
   <tile/>
   <tile/>
   <tile/>
   <tile/>
   <tile/>
   <tile/>
   <tile/>
   <tile/>
   <tile/>
   <tile/>
   <tile/>
   <tile/>
   <tile/>
   <tile/>
   <tile/>
   <tile/>
   <tile/>
   <tile/>
   <tile/>
   <tile/>
   <tile/>
   <tile/>
   <tile/>
   <tile/>
   <tile/>
   <tile/>
   <tile/>
   <tile/>
   <tile/>
   <tile/>
   <tile/>
   <tile/>
   <tile/>
   <tile/>
   <tile/>
   <tile/>
   <tile/>
   <tile/>
   <tile/>
   <tile/>
   <tile/>
   <tile/>
   <tile/>
   <tile/>
   <tile/>
   <tile/>
   <tile/>
   <tile/>
   <tile/>
   <tile/>
   <tile/>
   <tile/>
   <tile/>
   <tile/>
   <tile/>
   <tile/>
   <tile/>
   <tile/>
   <tile/>
   <tile/>
   <tile/>
   <tile/>
   <tile/>
   <tile/>
   <tile/>
   <tile/>
   <tile/>
   <tile/>
   <tile/>
   <tile/>
   <tile/>
   <tile/>
   <tile/>
   <tile/>
   <tile/>
   <tile/>
   <tile/>
   <tile/>
   <tile/>
   <tile/>
   <tile/>
   <tile/>
   <tile/>
   <tile/>
   <tile/>
   <tile/>
   <tile/>
   <tile/>
   <tile/>
   <tile/>
   <tile/>
   <tile/>
   <tile/>
   <tile/>
   <tile/>
   <tile/>
   <tile/>
   <tile/>
   <tile/>
   <tile/>
   <tile/>
   <tile/>
   <tile/>
   <tile/>
   <tile/>
   <tile/>
   <tile/>
   <tile/>
   <tile/>
   <tile/>
   <tile/>
   <tile/>
   <tile/>
   <tile/>
   <tile/>
   <tile/>
   <tile/>
   <tile/>
   <tile/>
   <tile/>
   <tile/>
   <tile/>
   <tile/>
   <tile/>
   <tile/>
   <tile/>
   <tile/>
   <tile/>
   <tile/>
   <tile/>
   <tile/>
   <tile/>
   <tile/>
   <tile/>
   <tile/>
   <tile/>
   <tile/>
   <tile/>
   <tile/>
   <tile/>
   <tile/>
   <tile/>
   <tile/>
   <tile/>
   <tile/>
   <tile/>
   <tile/>
   <tile/>
   <tile/>
   <tile/>
   <tile/>
   <tile/>
   <tile/>
   <tile/>
   <tile/>
   <tile/>
   <tile/>
   <tile/>
   <tile/>
   <tile/>
   <tile/>
   <tile/>
   <tile/>
   <tile/>
   <tile/>
   <tile/>
   <tile/>
   <tile/>
   <tile/>
   <tile/>
   <tile/>
   <tile/>
   <tile/>
   <tile/>
   <tile/>
   <tile/>
   <tile/>
   <tile/>
   <tile/>
   <tile/>
   <tile/>
   <tile/>
   <tile/>
   <tile/>
   <tile/>
   <tile/>
   <tile/>
   <tile/>
   <tile/>
   <tile/>
   <tile/>
   <tile/>
   <tile/>
   <tile/>
   <tile/>
   <tile/>
   <tile/>
   <tile/>
   <tile/>
   <tile/>
   <tile/>
   <tile/>
   <tile/>
   <tile/>
   <tile/>
   <tile/>
   <tile/>
   <tile/>
   <tile/>
   <tile/>
   <tile/>
   <tile/>
   <tile/>
   <tile/>
   <tile/>
   <tile/>
   <tile/>
   <tile/>
   <tile/>
   <tile/>
   <tile/>
   <tile/>
   <tile/>
   <tile/>
   <tile/>
   <tile/>
   <tile/>
   <tile/>
   <tile/>
   <tile/>
   <tile/>
   <tile/>
   <tile/>
   <tile/>
   <tile/>
   <tile/>
   <tile/>
   <tile/>
   <tile/>
   <tile/>
   <tile/>
   <tile/>
   <tile/>
   <tile/>
   <tile/>
   <tile/>
   <tile/>
   <tile/>
   <tile/>
   <tile/>
   <tile/>
   <tile/>
   <tile/>
   <tile/>
   <tile/>
   <tile/>
   <tile/>
   <tile/>
   <tile/>
   <tile/>
   <tile/>
   <tile/>
   <tile/>
   <tile/>
   <tile/>
   <tile/>
   <tile/>
   <tile/>
   <tile/>
   <tile/>
   <tile/>
   <tile/>
   <tile/>
   <tile/>
   <tile/>
   <tile/>
   <tile/>
   <tile/>
   <tile/>
   <tile/>
   <tile/>
   <tile/>
   <tile/>
   <tile/>
   <tile/>
   <tile/>
   <tile/>
   <tile/>
   <tile/>
   <tile/>
   <tile/>
   <tile/>
   <tile/>
   <tile/>
   <tile/>
   <tile/>
   <tile/>
   <tile/>
   <tile/>
   <tile/>
   <tile/>
   <tile/>
   <tile/>
   <tile/>
   <tile/>
   <tile/>
   <tile/>
   <tile/>
   <tile/>
   <tile/>
   <tile/>
   <tile/>
   <tile/>
   <tile/>
   <tile/>
   <tile/>
   <tile/>
   <tile/>
   <tile/>
   <tile/>
   <tile/>
   <tile/>
   <tile/>
   <tile/>
   <tile/>
   <tile/>
   <tile/>
   <tile/>
   <tile/>
   <tile/>
   <tile/>
   <tile/>
   <tile/>
   <tile/>
   <tile/>
   <tile/>
   <tile/>
   <tile/>
   <tile/>
   <tile/>
   <tile/>
   <tile/>
   <tile/>
   <tile/>
   <tile/>
   <tile/>
   <tile/>
   <tile/>
   <tile/>
   <tile/>
   <tile/>
   <tile/>
   <tile/>
   <tile/>
   <tile/>
   <tile/>
   <tile/>
   <tile/>
   <tile/>
   <tile/>
   <tile/>
   <tile/>
   <tile/>
   <tile/>
   <tile/>
   <tile/>
   <tile/>
   <tile/>
   <tile/>
   <tile/>
   <tile/>
   <tile/>
   <tile/>
   <tile/>
   <tile/>
   <tile/>
   <tile/>
   <tile/>
   <tile/>
   <tile/>
   <tile/>
   <tile/>
   <tile/>
   <tile/>
   <tile/>
   <tile/>
   <tile/>
   <tile/>
   <tile/>
   <tile/>
   <tile/>
   <tile/>
   <tile/>
   <tile/>
   <tile/>
   <tile/>
   <tile/>
   <tile/>
   <tile/>
   <tile/>
   <tile/>
   <tile/>
   <tile/>
   <tile/>
   <tile/>
   <tile/>
   <tile/>
   <tile/>
   <tile/>
   <tile/>
   <tile/>
   <tile/>
   <tile/>
   <tile/>
   <tile/>
   <tile/>
   <tile/>
   <tile/>
   <tile/>
   <tile/>
   <tile/>
   <tile/>
   <tile/>
   <tile/>
   <tile/>
   <tile/>
   <tile/>
   <tile/>
   <tile/>
   <tile/>
   <tile/>
   <tile/>
   <tile/>
   <tile/>
   <tile/>
   <tile/>
   <tile/>
   <tile/>
   <tile/>
   <tile/>
   <tile/>
   <tile/>
   <tile/>
   <tile/>
   <tile/>
   <tile/>
   <tile/>
   <tile/>
   <tile/>
   <tile/>
   <tile/>
   <tile/>
   <tile/>
   <tile/>
   <tile/>
   <tile/>
   <tile/>
   <tile/>
   <tile/>
   <tile/>
   <tile/>
   <tile/>
   <tile/>
   <tile/>
   <tile/>
   <tile/>
   <tile/>
   <tile/>
   <tile/>
   <tile/>
   <tile/>
   <tile/>
   <tile/>
   <tile/>
   <tile/>
   <tile/>
   <tile/>
   <tile/>
   <tile/>
   <tile/>
   <tile/>
   <tile/>
   <tile/>
   <tile/>
   <tile/>
   <tile/>
   <tile/>
   <tile/>
   <tile/>
   <tile/>
   <tile/>
   <tile/>
   <tile/>
   <tile/>
   <tile/>
   <tile/>
   <tile/>
   <tile/>
   <tile/>
   <tile/>
   <tile/>
   <tile/>
   <tile/>
   <tile/>
   <tile/>
   <tile/>
   <tile/>
   <tile/>
   <tile/>
   <tile/>
   <tile/>
   <tile/>
   <tile/>
   <tile/>
   <tile/>
   <tile/>
   <tile/>
   <tile/>
   <tile/>
   <tile/>
   <tile/>
   <tile/>
   <tile/>
   <tile/>
   <tile/>
   <tile/>
   <tile/>
   <tile/>
   <tile/>
   <tile/>
   <tile/>
   <tile/>
   <tile/>
   <tile/>
   <tile/>
   <tile/>
   <tile/>
   <tile/>
   <tile/>
   <tile/>
   <tile/>
   <tile/>
   <tile/>
   <tile/>
   <tile/>
   <tile/>
   <tile/>
   <tile/>
   <tile/>
   <tile/>
   <tile/>
   <tile/>
   <tile/>
   <tile/>
   <tile/>
   <tile/>
   <tile/>
   <tile/>
   <tile/>
   <tile/>
   <tile/>
   <tile/>
   <tile/>
   <tile/>
   <tile/>
   <tile/>
   <tile/>
   <tile/>
   <tile/>
   <tile/>
   <tile/>
   <tile/>
   <tile/>
   <tile/>
   <tile/>
   <tile/>
   <tile/>
   <tile/>
   <tile/>
   <tile/>
   <tile/>
   <tile/>
   <tile/>
   <tile/>
   <tile/>
   <tile/>
   <tile/>
   <tile/>
   <tile/>
   <tile/>
   <tile/>
   <tile/>
   <tile/>
   <tile/>
   <tile/>
   <tile/>
   <tile/>
   <tile/>
   <tile/>
   <tile/>
   <tile/>
   <tile/>
   <tile/>
   <tile/>
   <tile/>
   <tile/>
   <tile/>
   <tile/>
   <tile/>
   <tile/>
   <tile/>
   <tile/>
   <tile/>
   <tile/>
   <tile/>
   <tile/>
   <tile/>
   <tile/>
   <tile/>
   <tile/>
   <tile/>
   <tile/>
   <tile/>
   <tile/>
   <tile/>
   <tile/>
   <tile/>
   <tile/>
   <tile/>
   <tile/>
   <tile/>
   <tile/>
   <tile/>
   <tile/>
   <tile/>
   <tile/>
   <tile/>
   <tile/>
   <tile/>
   <tile/>
   <tile/>
   <tile/>
   <tile/>
   <tile/>
   <tile/>
   <tile/>
   <tile/>
   <tile/>
   <tile/>
   <tile/>
   <tile/>
   <tile/>
   <tile/>
   <tile/>
   <tile/>
   <tile/>
   <tile/>
   <tile/>
   <tile/>
   <tile/>
   <tile/>
   <tile/>
   <tile/>
   <tile/>
   <tile/>
   <tile/>
   <tile/>
   <tile/>
   <tile/>
   <tile/>
   <tile/>
   <tile/>
   <tile/>
   <tile/>
   <tile/>
   <tile/>
   <tile/>
   <tile/>
   <tile/>
   <tile/>
   <tile/>
   <tile/>
   <tile/>
   <tile/>
   <tile/>
   <tile/>
   <tile/>
   <tile/>
   <tile/>
   <tile/>
   <tile/>
   <tile/>
   <tile/>
   <tile/>
   <tile/>
   <tile/>
   <tile/>
   <tile/>
   <tile/>
   <tile/>
   <tile/>
   <tile/>
   <tile/>
   <tile/>
   <tile/>
   <tile/>
   <tile/>
   <tile/>
   <tile/>
   <tile/>
   <tile/>
   <tile/>
   <tile/>
   <tile/>
   <tile/>
   <tile/>
   <tile/>
   <tile/>
   <tile/>
   <tile/>
   <tile/>
   <tile/>
   <tile/>
   <tile/>
   <tile/>
   <tile/>
   <tile/>
   <tile/>
   <tile/>
   <tile/>
   <tile/>
   <tile/>
   <tile/>
   <tile/>
   <tile/>
   <tile/>
   <tile/>
   <tile/>
   <tile/>
   <tile/>
   <tile/>
   <tile/>
   <tile/>
   <tile/>
   <tile/>
   <tile/>
   <tile/>
   <tile/>
   <tile/>
   <tile/>
   <tile/>
   <tile/>
   <tile/>
   <tile/>
   <tile/>
   <tile/>
   <tile/>
   <tile/>
   <tile/>
   <tile/>
   <tile/>
   <tile/>
   <tile/>
   <tile/>
   <tile/>
   <tile/>
   <tile/>
   <tile/>
   <tile/>
   <tile/>
   <tile/>
   <tile/>
   <tile/>
   <tile/>
   <tile/>
   <tile/>
   <tile/>
   <tile/>
   <tile/>
   <tile/>
   <tile/>
   <tile/>
   <tile/>
   <tile/>
   <tile/>
   <tile/>
   <tile/>
   <tile/>
   <tile/>
   <tile/>
   <tile/>
   <tile/>
   <tile/>
   <tile/>
   <tile/>
   <tile/>
   <tile/>
   <tile/>
   <tile/>
   <tile/>
   <tile/>
   <tile/>
   <tile/>
   <tile/>
   <tile/>
   <tile/>
   <tile/>
   <tile/>
   <tile/>
   <tile/>
   <tile/>
   <tile/>
   <tile/>
   <tile/>
   <tile/>
   <tile/>
   <tile/>
   <tile/>
   <tile/>
   <tile/>
   <tile/>
   <tile/>
   <tile/>
   <tile/>
   <tile/>
   <tile/>
   <tile/>
   <tile/>
   <tile/>
   <tile/>
   <tile/>
   <tile/>
   <tile/>
   <tile/>
   <tile/>
   <tile/>
   <tile/>
   <tile/>
   <tile/>
   <tile/>
   <tile/>
   <tile/>
   <tile/>
   <tile/>
   <tile/>
   <tile/>
   <tile/>
   <tile/>
   <tile/>
   <tile/>
   <tile/>
   <tile/>
   <tile/>
   <tile/>
   <tile/>
   <tile/>
   <tile/>
   <tile/>
   <tile/>
   <tile/>
   <tile/>
   <tile/>
   <tile/>
   <tile/>
   <tile/>
   <tile/>
   <tile/>
   <tile/>
   <tile/>
   <tile/>
   <tile/>
   <tile/>
   <tile/>
   <tile/>
   <tile/>
   <tile/>
   <tile/>
   <tile/>
   <tile/>
   <tile/>
   <tile/>
   <tile/>
   <tile/>
   <tile/>
   <tile/>
   <tile/>
   <tile/>
   <tile/>
   <tile/>
   <tile/>
   <tile/>
   <tile/>
   <tile/>
   <tile/>
   <tile/>
   <tile/>
   <tile/>
   <tile/>
   <tile/>
   <tile/>
   <tile/>
   <tile/>
   <tile/>
   <tile/>
   <tile/>
   <tile/>
   <tile/>
   <tile/>
   <tile/>
   <tile/>
   <tile/>
   <tile/>
   <tile/>
   <tile/>
   <tile/>
   <tile/>
   <tile/>
   <tile/>
   <tile/>
   <tile/>
   <tile/>
   <tile/>
   <tile/>
   <tile/>
   <tile/>
   <tile/>
   <tile/>
   <tile/>
   <tile/>
   <tile/>
   <tile/>
   <tile/>
   <tile/>
   <tile/>
   <tile/>
   <tile/>
   <tile/>
   <tile/>
   <tile/>
   <tile/>
   <tile/>
   <tile/>
   <tile/>
   <tile/>
   <tile/>
   <tile/>
   <tile/>
   <tile/>
   <tile/>
   <tile/>
   <tile/>
   <tile/>
   <tile/>
   <tile/>
   <tile/>
   <tile/>
   <tile/>
   <tile/>
   <tile/>
   <tile/>
   <tile/>
   <tile/>
   <tile/>
   <tile/>
   <tile/>
   <tile/>
   <tile/>
   <tile/>
   <tile/>
   <tile/>
   <tile/>
   <tile/>
   <tile/>
   <tile/>
   <tile/>
   <tile/>
   <tile/>
   <tile/>
   <tile/>
   <tile/>
   <tile/>
   <tile/>
   <tile/>
   <tile/>
   <tile/>
   <tile/>
   <tile/>
   <tile/>
   <tile/>
   <tile/>
   <tile/>
   <tile/>
   <tile/>
   <tile/>
   <tile/>
   <tile/>
   <tile/>
   <tile/>
   <tile/>
   <tile/>
   <tile/>
   <tile/>
   <tile/>
   <tile/>
   <tile/>
   <tile/>
   <tile/>
   <tile/>
   <tile/>
   <tile/>
   <tile/>
   <tile/>
   <tile/>
   <tile/>
   <tile/>
   <tile/>
   <tile/>
   <tile/>
   <tile/>
   <tile/>
   <tile/>
   <tile/>
   <tile/>
   <tile/>
   <tile/>
   <tile/>
   <tile/>
   <tile/>
   <tile/>
   <tile/>
   <tile/>
   <tile/>
   <tile/>
   <tile/>
   <tile/>
   <tile/>
   <tile/>
   <tile/>
   <tile/>
   <tile/>
   <tile/>
   <tile/>
   <tile/>
   <tile/>
   <tile/>
   <tile/>
   <tile/>
   <tile/>
   <tile/>
   <tile/>
   <tile/>
   <tile/>
   <tile/>
   <tile/>
   <tile/>
   <tile/>
   <tile/>
   <tile/>
   <tile/>
   <tile/>
   <tile/>
   <tile/>
   <tile/>
   <tile/>
   <tile/>
   <tile/>
   <tile/>
   <tile/>
   <tile/>
   <tile/>
   <tile/>
   <tile/>
   <tile/>
   <tile/>
   <tile/>
   <tile/>
   <tile/>
   <tile/>
   <tile/>
   <tile/>
   <tile/>
   <tile/>
   <tile/>
   <tile/>
   <tile/>
   <tile/>
   <tile/>
   <tile/>
   <tile/>
   <tile/>
   <tile/>
   <tile/>
   <tile/>
   <tile/>
   <tile/>
   <tile/>
   <tile/>
   <tile/>
   <tile/>
   <tile/>
   <tile/>
   <tile/>
   <tile/>
   <tile/>
   <tile/>
   <tile/>
   <tile/>
   <tile/>
   <tile/>
   <tile/>
   <tile/>
   <tile/>
   <tile/>
   <tile/>
   <tile/>
   <tile/>
   <tile/>
   <tile/>
   <tile/>
   <tile/>
   <tile/>
   <tile/>
   <tile/>
   <tile/>
   <tile/>
   <tile/>
   <tile/>
   <tile/>
   <tile/>
   <tile/>
   <tile/>
   <tile/>
   <tile/>
   <tile/>
   <tile/>
   <tile/>
   <tile/>
   <tile/>
   <tile/>
   <tile/>
   <tile/>
   <tile/>
   <tile/>
   <tile/>
   <tile/>
   <tile/>
   <tile/>
   <tile/>
   <tile/>
   <tile/>
   <tile/>
   <tile/>
   <tile/>
   <tile/>
   <tile/>
   <tile/>
   <tile/>
   <tile/>
   <tile/>
   <tile/>
   <tile/>
   <tile/>
   <tile/>
   <tile/>
   <tile/>
   <tile/>
   <tile/>
   <tile/>
   <tile/>
   <tile/>
   <tile/>
   <tile/>
   <tile/>
   <tile/>
   <tile/>
   <tile/>
   <tile/>
   <tile/>
   <tile/>
   <tile/>
   <tile/>
   <tile/>
   <tile/>
   <tile/>
   <tile/>
   <tile/>
   <tile/>
   <tile/>
   <tile/>
   <tile/>
   <tile/>
   <tile/>
   <tile/>
   <tile/>
   <tile/>
   <tile/>
   <tile/>
   <tile/>
   <tile/>
   <tile/>
   <tile/>
   <tile/>
   <tile/>
   <tile/>
   <tile/>
   <tile/>
   <tile/>
   <tile/>
   <tile/>
   <tile/>
   <tile/>
   <tile/>
   <tile/>
   <tile/>
   <tile/>
   <tile/>
   <tile/>
   <tile/>
   <tile/>
   <tile/>
   <tile/>
   <tile/>
   <tile/>
   <tile/>
   <tile/>
   <tile/>
   <tile/>
   <tile/>
   <tile/>
   <tile/>
   <tile/>
   <tile/>
   <tile/>
   <tile/>
   <tile/>
   <tile/>
   <tile/>
   <tile/>
   <tile/>
   <tile/>
   <tile/>
   <tile/>
   <tile/>
   <tile/>
   <tile/>
   <tile/>
   <tile/>
   <tile/>
   <tile/>
   <tile/>
   <tile/>
   <tile/>
   <tile/>
   <tile/>
   <tile/>
   <tile/>
   <tile/>
   <tile/>
   <tile/>
   <tile/>
   <tile/>
   <tile/>
   <tile/>
   <tile/>
   <tile/>
   <tile/>
   <tile/>
   <tile/>
   <tile/>
   <tile/>
   <tile/>
   <tile/>
   <tile/>
   <tile/>
   <tile/>
   <tile/>
   <tile/>
   <tile/>
   <tile/>
   <tile/>
   <tile/>
   <tile/>
   <tile/>
   <tile/>
   <tile/>
   <tile/>
   <tile/>
   <tile/>
   <tile/>
   <tile/>
   <tile/>
   <tile/>
   <tile/>
   <tile/>
   <tile/>
   <tile/>
   <tile/>
   <tile/>
   <tile/>
   <tile/>
   <tile/>
   <tile/>
   <tile/>
   <tile/>
   <tile/>
   <tile/>
   <tile/>
   <tile/>
   <tile/>
   <tile/>
   <tile/>
   <tile/>
   <tile/>
   <tile/>
   <tile/>
   <tile/>
   <tile/>
   <tile/>
   <tile/>
   <tile/>
   <tile/>
   <tile/>
   <tile/>
   <tile/>
   <tile/>
   <tile/>
   <tile/>
   <tile/>
   <tile/>
   <tile/>
   <tile/>
   <tile/>
   <tile/>
   <tile/>
   <tile/>
   <tile/>
   <tile/>
   <tile/>
   <tile/>
   <tile/>
   <tile/>
   <tile/>
   <tile/>
   <tile/>
   <tile/>
   <tile/>
   <tile/>
   <tile/>
   <tile/>
   <tile/>
   <tile/>
   <tile/>
   <tile/>
   <tile/>
   <tile/>
   <tile/>
   <tile/>
   <tile/>
   <tile/>
   <tile/>
   <tile/>
   <tile/>
   <tile/>
   <tile/>
   <tile/>
   <tile/>
   <tile/>
   <tile/>
   <tile/>
   <tile/>
   <tile/>
   <tile/>
   <tile/>
   <tile/>
   <tile/>
   <tile/>
   <tile/>
   <tile/>
   <tile/>
   <tile/>
   <tile/>
   <tile/>
   <tile/>
   <tile/>
   <tile/>
   <tile/>
   <tile/>
   <tile/>
   <tile/>
   <tile/>
   <tile/>
   <tile/>
   <tile/>
   <tile/>
   <tile/>
   <tile/>
   <tile/>
   <tile/>
   <tile/>
   <tile/>
   <tile/>
   <tile/>
   <tile/>
   <tile/>
   <tile/>
   <tile/>
   <tile/>
   <tile/>
   <tile/>
   <tile/>
   <tile/>
   <tile/>
   <tile/>
   <tile/>
   <tile/>
   <tile/>
   <tile/>
   <tile/>
   <tile/>
   <tile/>
   <tile/>
   <tile/>
   <tile/>
   <tile/>
   <tile/>
   <tile/>
   <tile/>
   <tile/>
   <tile/>
   <tile/>
   <tile/>
   <tile/>
   <tile/>
   <tile/>
   <tile/>
   <tile/>
   <tile/>
   <tile/>
   <tile/>
   <tile/>
   <tile/>
   <tile/>
   <tile/>
   <tile/>
   <tile/>
   <tile/>
   <tile/>
   <tile/>
   <tile/>
   <tile/>
   <tile/>
   <tile/>
   <tile/>
   <tile/>
   <tile/>
   <tile/>
   <tile/>
   <tile/>
   <tile/>
   <tile/>
   <tile/>
   <tile/>
   <tile/>
   <tile/>
   <tile/>
   <tile/>
   <tile/>
   <tile/>
   <tile/>
   <tile/>
   <tile/>
   <tile/>
   <tile/>
   <tile/>
   <tile/>
   <tile/>
   <tile/>
   <tile/>
   <tile/>
   <tile/>
   <tile/>
   <tile/>
   <tile/>
   <tile/>
   <tile/>
   <tile/>
   <tile/>
   <tile/>
   <tile/>
   <tile/>
   <tile/>
   <tile/>
   <tile/>
   <tile/>
   <tile/>
   <tile/>
   <tile/>
   <tile/>
   <tile/>
   <tile/>
   <tile/>
   <tile/>
   <tile/>
   <tile/>
   <tile/>
   <tile/>
   <tile/>
   <tile/>
   <tile/>
   <tile/>
   <tile/>
   <tile/>
   <tile/>
   <tile/>
   <tile/>
   <tile/>
   <tile/>
   <tile/>
   <tile/>
   <tile/>
   <tile/>
   <tile/>
   <tile/>
   <tile/>
   <tile/>
   <tile/>
   <tile/>
   <tile/>
   <tile/>
   <tile/>
   <tile/>
   <tile/>
   <tile/>
   <tile/>
   <tile/>
   <tile/>
   <tile/>
   <tile/>
   <tile/>
   <tile/>
   <tile/>
   <tile/>
   <tile/>
   <tile/>
   <tile/>
   <tile/>
   <tile/>
   <tile/>
   <tile/>
   <tile/>
   <tile/>
   <tile/>
   <tile/>
   <tile/>
   <tile/>
   <tile/>
   <tile/>
   <tile/>
   <tile/>
   <tile/>
   <tile/>
   <tile/>
   <tile/>
   <tile/>
   <tile/>
   <tile/>
   <tile/>
   <tile/>
   <tile/>
   <tile/>
   <tile/>
   <tile/>
   <tile/>
   <tile/>
   <tile/>
   <tile/>
   <tile/>
   <tile/>
   <tile/>
   <tile/>
   <tile/>
   <tile/>
   <tile/>
   <tile/>
   <tile/>
   <tile/>
   <tile/>
   <tile/>
   <tile/>
   <tile/>
   <tile/>
   <tile/>
   <tile/>
   <tile/>
   <tile/>
   <tile/>
   <tile/>
   <tile/>
   <tile/>
   <tile/>
   <tile/>
   <tile/>
   <tile/>
   <tile/>
   <tile/>
   <tile/>
   <tile/>
   <tile/>
   <tile/>
   <tile/>
   <tile/>
   <tile/>
   <tile/>
   <tile/>
   <tile/>
   <tile/>
   <tile/>
   <tile/>
   <tile/>
   <tile/>
   <tile/>
   <tile/>
   <tile/>
   <tile/>
   <tile/>
   <tile/>
   <tile/>
   <tile/>
   <tile/>
   <tile/>
   <tile/>
   <tile/>
   <tile/>
   <tile/>
   <tile/>
   <tile/>
   <tile/>
   <tile/>
   <tile/>
   <tile/>
   <tile/>
   <tile/>
   <tile/>
   <tile/>
   <tile/>
   <tile/>
   <tile/>
   <tile/>
   <tile/>
   <tile/>
   <tile/>
   <tile/>
   <tile/>
   <tile/>
   <tile/>
   <tile/>
   <tile/>
   <tile/>
   <tile/>
   <tile/>
   <tile/>
   <tile/>
   <tile/>
   <tile/>
   <tile/>
   <tile/>
   <tile/>
   <tile/>
   <tile/>
   <tile/>
   <tile/>
   <tile/>
   <tile/>
   <tile/>
   <tile/>
   <tile/>
   <tile/>
   <tile/>
   <tile/>
   <tile/>
   <tile/>
   <tile/>
   <tile/>
   <tile/>
   <tile/>
   <tile/>
   <tile/>
   <tile/>
   <tile/>
   <tile/>
   <tile/>
   <tile/>
   <tile/>
   <tile/>
   <tile/>
   <tile/>
   <tile/>
   <tile/>
   <tile/>
   <tile/>
   <tile/>
   <tile/>
   <tile/>
   <tile/>
   <tile/>
   <tile/>
   <tile/>
   <tile/>
   <tile/>
   <tile/>
   <tile/>
   <tile gid="3346"/>
   <tile gid="3347"/>
   <tile gid="3348"/>
   <tile gid="3349"/>
   <tile gid="3350"/>
   <tile gid="3351"/>
   <tile gid="3352"/>
   <tile gid="3353"/>
   <tile gid="3354"/>
   <tile gid="3355"/>
   <tile gid="3356"/>
   <tile gid="3357"/>
   <tile gid="3358"/>
   <tile gid="3359"/>
   <tile gid="3349"/>
   <tile gid="3350"/>
   <tile gid="3351"/>
   <tile gid="3352"/>
   <tile gid="3353"/>
   <tile gid="3354"/>
   <tile gid="3352"/>
   <tile gid="3353"/>
   <tile gid="3354"/>
   <tile gid="3355"/>
   <tile gid="3356"/>
   <tile gid="3352"/>
   <tile gid="3353"/>
   <tile gid="3354"/>
   <tile gid="3355"/>
   <tile gid="3352"/>
   <tile gid="3353"/>
   <tile gid="3354"/>
   <tile gid="3355"/>
   <tile gid="3356"/>
   <tile gid="3357"/>
   <tile gid="3358"/>
   <tile gid="3359"/>
   <tile gid="3352"/>
   <tile gid="3353"/>
   <tile gid="3354"/>
   <tile gid="3355"/>
   <tile gid="3356"/>
   <tile gid="3357"/>
   <tile gid="3358"/>
   <tile gid="3359"/>
   <tile gid="3352"/>
   <tile gid="3353"/>
   <tile gid="3354"/>
   <tile gid="3355"/>
   <tile gid="3356"/>
   <tile gid="3357"/>
   <tile gid="3358"/>
   <tile gid="3359"/>
   <tile gid="3352"/>
   <tile gid="3353"/>
   <tile gid="3354"/>
   <tile gid="3355"/>
   <tile gid="3356"/>
   <tile gid="3357"/>
   <tile gid="3358"/>
   <tile gid="3359"/>
   <tile gid="3352"/>
   <tile gid="3353"/>
   <tile gid="3354"/>
   <tile gid="3355"/>
   <tile gid="3356"/>
   <tile gid="3357"/>
   <tile gid="3358"/>
   <tile gid="3378"/>
   <tile gid="3379"/>
   <tile gid="3380"/>
   <tile gid="3381"/>
   <tile gid="3382"/>
   <tile gid="3383"/>
   <tile gid="3384"/>
   <tile gid="3385"/>
   <tile gid="3386"/>
   <tile gid="3387"/>
   <tile gid="3388"/>
   <tile gid="3389"/>
   <tile gid="3390"/>
   <tile/>
   <tile/>
   <tile/>
   <tile/>
   <tile/>
   <tile/>
   <tile/>
   <tile/>
   <tile/>
   <tile/>
   <tile/>
   <tile/>
   <tile/>
   <tile/>
   <tile/>
   <tile/>
   <tile/>
   <tile/>
   <tile/>
   <tile/>
   <tile/>
   <tile/>
   <tile/>
   <tile/>
   <tile/>
   <tile/>
   <tile/>
   <tile/>
   <tile/>
   <tile/>
   <tile/>
   <tile/>
   <tile/>
   <tile/>
   <tile/>
   <tile/>
   <tile/>
   <tile/>
   <tile/>
   <tile gid="3410"/>
   <tile gid="3411"/>
   <tile gid="3412"/>
   <tile gid="3413"/>
   <tile gid="3414"/>
   <tile gid="3415"/>
   <tile gid="3416"/>
   <tile gid="3417"/>
   <tile gid="3418"/>
   <tile gid="3419"/>
   <tile gid="3420"/>
   <tile gid="3421"/>
   <tile gid="3422"/>
   <tile gid="3423"/>
   <tile gid="3413"/>
   <tile gid="3414"/>
   <tile gid="3415"/>
   <tile gid="3416"/>
   <tile gid="3417"/>
   <tile gid="3418"/>
   <tile gid="3416"/>
   <tile gid="3417"/>
   <tile gid="3418"/>
   <tile gid="3419"/>
   <tile gid="3420"/>
   <tile gid="3416"/>
   <tile gid="3417"/>
   <tile gid="3418"/>
   <tile gid="3419"/>
   <tile gid="3416"/>
   <tile gid="3417"/>
   <tile gid="3418"/>
   <tile gid="3419"/>
   <tile gid="3420"/>
   <tile gid="3421"/>
   <tile gid="3422"/>
   <tile gid="3423"/>
   <tile gid="3416"/>
   <tile gid="3417"/>
   <tile gid="3418"/>
   <tile gid="3419"/>
   <tile gid="3420"/>
   <tile gid="3421"/>
   <tile gid="3422"/>
   <tile gid="3423"/>
   <tile gid="3416"/>
   <tile gid="3417"/>
   <tile gid="3418"/>
   <tile gid="3419"/>
   <tile gid="3420"/>
   <tile gid="3421"/>
   <tile gid="3422"/>
   <tile gid="3423"/>
   <tile gid="3416"/>
   <tile gid="3417"/>
   <tile gid="3418"/>
   <tile gid="3419"/>
   <tile gid="3420"/>
   <tile gid="3421"/>
   <tile gid="3422"/>
   <tile gid="3423"/>
   <tile gid="3416"/>
   <tile gid="3417"/>
   <tile gid="3418"/>
   <tile gid="3419"/>
   <tile gid="3420"/>
   <tile gid="3421"/>
   <tile gid="3422"/>
   <tile gid="3442"/>
   <tile gid="3443"/>
   <tile gid="3444"/>
   <tile gid="3445"/>
   <tile gid="3446"/>
   <tile gid="3447"/>
   <tile gid="3448"/>
   <tile gid="3449"/>
   <tile gid="3450"/>
   <tile gid="3451"/>
   <tile gid="3452"/>
   <tile gid="3453"/>
   <tile gid="3454"/>
   <tile/>
   <tile/>
   <tile/>
   <tile/>
   <tile/>
   <tile/>
   <tile/>
   <tile/>
   <tile/>
   <tile/>
   <tile/>
   <tile/>
   <tile/>
   <tile/>
   <tile/>
   <tile/>
   <tile/>
   <tile/>
   <tile/>
   <tile/>
   <tile/>
   <tile/>
   <tile/>
   <tile/>
   <tile/>
   <tile/>
   <tile/>
   <tile/>
   <tile/>
   <tile/>
   <tile/>
   <tile/>
   <tile/>
   <tile/>
   <tile/>
   <tile/>
   <tile/>
   <tile/>
   <tile/>
   <tile gid="3474"/>
   <tile gid="3475"/>
   <tile gid="3476"/>
   <tile gid="3477"/>
   <tile gid="3478"/>
   <tile gid="3479"/>
   <tile gid="3480"/>
   <tile gid="3481"/>
   <tile gid="3482"/>
   <tile gid="3483"/>
   <tile gid="3484"/>
   <tile gid="3485"/>
   <tile gid="3486"/>
   <tile gid="3487"/>
   <tile gid="3477"/>
   <tile gid="3478"/>
   <tile gid="3479"/>
   <tile gid="3480"/>
   <tile gid="3481"/>
   <tile gid="3482"/>
   <tile gid="3480"/>
   <tile gid="3481"/>
   <tile gid="3482"/>
   <tile gid="3483"/>
   <tile gid="3484"/>
   <tile gid="3480"/>
   <tile gid="3481"/>
   <tile gid="3482"/>
   <tile gid="3483"/>
   <tile gid="3480"/>
   <tile gid="3481"/>
   <tile gid="3482"/>
   <tile gid="3483"/>
   <tile gid="3484"/>
   <tile gid="3485"/>
   <tile gid="3486"/>
   <tile gid="3487"/>
   <tile gid="3480"/>
   <tile gid="3481"/>
   <tile gid="3482"/>
   <tile gid="3483"/>
   <tile gid="3484"/>
   <tile gid="3485"/>
   <tile gid="3486"/>
   <tile gid="3487"/>
   <tile gid="3480"/>
   <tile gid="3481"/>
   <tile gid="3482"/>
   <tile gid="3483"/>
   <tile gid="3484"/>
   <tile gid="3485"/>
   <tile gid="3486"/>
   <tile gid="3487"/>
   <tile gid="3480"/>
   <tile gid="3481"/>
   <tile gid="3482"/>
   <tile gid="3483"/>
   <tile gid="3484"/>
   <tile gid="3485"/>
   <tile gid="3486"/>
   <tile gid="3487"/>
   <tile gid="3480"/>
   <tile gid="3481"/>
   <tile gid="3482"/>
   <tile gid="3483"/>
   <tile gid="3484"/>
   <tile gid="3485"/>
   <tile gid="3486"/>
   <tile gid="3506"/>
   <tile gid="3507"/>
   <tile gid="3508"/>
   <tile gid="3509"/>
   <tile gid="3510"/>
   <tile gid="3511"/>
   <tile gid="3512"/>
   <tile gid="3513"/>
   <tile gid="3514"/>
   <tile gid="3515"/>
   <tile gid="3516"/>
   <tile gid="3517"/>
   <tile gid="3518"/>
   <tile/>
   <tile/>
   <tile/>
   <tile/>
   <tile/>
   <tile/>
   <tile/>
   <tile/>
   <tile/>
   <tile/>
   <tile/>
   <tile/>
   <tile/>
   <tile/>
   <tile/>
   <tile/>
   <tile/>
   <tile/>
   <tile/>
   <tile/>
   <tile/>
   <tile/>
   <tile/>
   <tile/>
   <tile/>
   <tile/>
   <tile/>
   <tile/>
   <tile/>
   <tile/>
   <tile/>
   <tile/>
   <tile/>
   <tile/>
   <tile/>
   <tile/>
   <tile/>
   <tile/>
   <tile/>
   <tile gid="3538"/>
   <tile gid="3539"/>
   <tile gid="3540"/>
   <tile gid="3541"/>
   <tile gid="3542"/>
   <tile gid="3543"/>
   <tile gid="3544"/>
   <tile gid="3545"/>
   <tile gid="3546"/>
   <tile gid="3547"/>
   <tile gid="3548"/>
   <tile gid="3549"/>
   <tile gid="3550"/>
   <tile gid="3551"/>
   <tile gid="3541"/>
   <tile gid="3542"/>
   <tile gid="3543"/>
   <tile gid="3544"/>
   <tile gid="3545"/>
   <tile gid="3546"/>
   <tile gid="3544"/>
   <tile gid="3545"/>
   <tile gid="3546"/>
   <tile gid="3547"/>
   <tile gid="3548"/>
   <tile gid="3544"/>
   <tile gid="3545"/>
   <tile gid="3546"/>
   <tile gid="3547"/>
   <tile gid="3544"/>
   <tile gid="3545"/>
   <tile gid="3546"/>
   <tile gid="3547"/>
   <tile gid="3548"/>
   <tile gid="3549"/>
   <tile gid="3550"/>
   <tile gid="3551"/>
   <tile gid="3544"/>
   <tile gid="3545"/>
   <tile gid="3546"/>
   <tile gid="3547"/>
   <tile gid="3548"/>
   <tile gid="3549"/>
   <tile gid="3550"/>
   <tile gid="3551"/>
   <tile gid="3544"/>
   <tile gid="3545"/>
   <tile gid="3546"/>
   <tile gid="3547"/>
   <tile gid="3548"/>
   <tile gid="3549"/>
   <tile gid="3550"/>
   <tile gid="3551"/>
   <tile gid="3544"/>
   <tile gid="3545"/>
   <tile gid="3546"/>
   <tile gid="3547"/>
   <tile gid="3548"/>
   <tile gid="3549"/>
   <tile gid="3550"/>
   <tile gid="3551"/>
   <tile gid="3544"/>
   <tile gid="3545"/>
   <tile gid="3546"/>
   <tile gid="3547"/>
   <tile gid="3548"/>
   <tile gid="3549"/>
   <tile gid="3550"/>
   <tile gid="3570"/>
   <tile gid="3571"/>
   <tile gid="3572"/>
   <tile gid="3573"/>
   <tile gid="3574"/>
   <tile gid="3575"/>
   <tile gid="3576"/>
   <tile gid="3577"/>
   <tile gid="3578"/>
   <tile gid="3579"/>
   <tile gid="3580"/>
   <tile gid="3581"/>
   <tile gid="3582"/>
   <tile/>
   <tile/>
   <tile/>
   <tile/>
   <tile/>
   <tile/>
   <tile/>
   <tile/>
   <tile/>
   <tile/>
   <tile/>
   <tile/>
   <tile/>
   <tile/>
   <tile/>
   <tile/>
   <tile/>
   <tile/>
   <tile/>
   <tile/>
   <tile/>
   <tile/>
   <tile/>
   <tile/>
   <tile/>
   <tile/>
   <tile/>
   <tile/>
   <tile/>
   <tile/>
   <tile/>
   <tile/>
   <tile/>
   <tile/>
   <tile/>
   <tile/>
   <tile/>
   <tile/>
   <tile/>
   <tile gid="3602"/>
   <tile gid="3603"/>
   <tile gid="3604"/>
   <tile gid="3605"/>
   <tile gid="3606"/>
   <tile gid="3607"/>
   <tile gid="3608"/>
   <tile gid="3609"/>
   <tile gid="3610"/>
   <tile gid="3611"/>
   <tile gid="3612"/>
   <tile gid="3613"/>
   <tile gid="3614"/>
   <tile gid="3615"/>
   <tile gid="3605"/>
   <tile gid="3606"/>
   <tile gid="3607"/>
   <tile gid="3608"/>
   <tile gid="3609"/>
   <tile gid="3610"/>
   <tile gid="3608"/>
   <tile gid="3609"/>
   <tile gid="3610"/>
   <tile gid="3611"/>
   <tile gid="3612"/>
   <tile gid="3608"/>
   <tile gid="3609"/>
   <tile gid="3610"/>
   <tile gid="3611"/>
   <tile gid="3608"/>
   <tile gid="3609"/>
   <tile gid="3610"/>
   <tile gid="3611"/>
   <tile gid="3612"/>
   <tile gid="3613"/>
   <tile gid="3614"/>
   <tile gid="3615"/>
   <tile gid="3608"/>
   <tile gid="3609"/>
   <tile gid="3610"/>
   <tile gid="3611"/>
   <tile gid="3612"/>
   <tile gid="3613"/>
   <tile gid="3614"/>
   <tile gid="3615"/>
   <tile gid="3608"/>
   <tile gid="3609"/>
   <tile gid="3610"/>
   <tile gid="3611"/>
   <tile gid="3612"/>
   <tile gid="3613"/>
   <tile gid="3614"/>
   <tile gid="3615"/>
   <tile gid="3608"/>
   <tile gid="3609"/>
   <tile gid="3610"/>
   <tile gid="3611"/>
   <tile gid="3612"/>
   <tile gid="3613"/>
   <tile gid="3614"/>
   <tile gid="3615"/>
   <tile gid="3608"/>
   <tile gid="3609"/>
   <tile gid="3610"/>
   <tile gid="3611"/>
   <tile gid="3612"/>
   <tile gid="3613"/>
   <tile gid="3614"/>
   <tile gid="3762"/>
   <tile gid="3763"/>
   <tile gid="3764"/>
   <tile gid="3765"/>
   <tile gid="3766"/>
   <tile gid="3767"/>
   <tile gid="3768"/>
   <tile gid="3769"/>
   <tile gid="3770"/>
   <tile gid="3771"/>
   <tile gid="3772"/>
   <tile gid="3773"/>
   <tile gid="3774"/>
   <tile/>
   <tile/>
   <tile/>
   <tile/>
   <tile/>
   <tile/>
   <tile/>
   <tile/>
   <tile/>
   <tile/>
   <tile/>
   <tile/>
   <tile/>
   <tile/>
   <tile/>
   <tile/>
   <tile/>
   <tile/>
   <tile/>
   <tile/>
   <tile/>
   <tile/>
   <tile/>
   <tile/>
   <tile/>
   <tile/>
   <tile/>
   <tile/>
   <tile/>
   <tile/>
   <tile/>
   <tile/>
   <tile/>
   <tile/>
   <tile/>
   <tile/>
   <tile/>
   <tile/>
   <tile/>
   <tile gid="3666"/>
   <tile gid="3667"/>
   <tile gid="3668"/>
   <tile gid="3669"/>
   <tile gid="3670"/>
   <tile gid="3671"/>
   <tile gid="3672"/>
   <tile gid="3673"/>
   <tile gid="3674"/>
   <tile gid="3675"/>
   <tile gid="3676"/>
   <tile gid="3677"/>
   <tile gid="3678"/>
   <tile gid="3679"/>
   <tile gid="3669"/>
   <tile gid="3670"/>
   <tile gid="3671"/>
   <tile gid="3672"/>
   <tile gid="3673"/>
   <tile gid="3674"/>
   <tile gid="3672"/>
   <tile gid="3673"/>
   <tile gid="3674"/>
   <tile gid="3675"/>
   <tile gid="3676"/>
   <tile gid="3672"/>
   <tile gid="3673"/>
   <tile gid="3674"/>
   <tile gid="3675"/>
   <tile gid="3672"/>
   <tile gid="3673"/>
   <tile gid="3674"/>
   <tile gid="3675"/>
   <tile gid="3676"/>
   <tile gid="3677"/>
   <tile gid="3678"/>
   <tile gid="3679"/>
   <tile gid="3672"/>
   <tile gid="3673"/>
   <tile gid="3674"/>
   <tile gid="3675"/>
   <tile gid="3676"/>
   <tile gid="3677"/>
   <tile gid="3678"/>
   <tile gid="3679"/>
   <tile gid="3672"/>
   <tile gid="3673"/>
   <tile gid="3674"/>
   <tile gid="3675"/>
   <tile gid="3676"/>
   <tile gid="3677"/>
   <tile gid="3678"/>
   <tile gid="3679"/>
   <tile gid="3672"/>
   <tile gid="3673"/>
   <tile gid="3674"/>
   <tile gid="3675"/>
   <tile gid="3676"/>
   <tile gid="3677"/>
   <tile gid="3678"/>
   <tile gid="3679"/>
   <tile gid="3672"/>
   <tile gid="3673"/>
   <tile gid="3674"/>
   <tile gid="3675"/>
   <tile gid="3676"/>
   <tile gid="3677"/>
   <tile gid="3678"/>
   <tile gid="3826"/>
   <tile gid="3827"/>
   <tile gid="3828"/>
   <tile gid="3829"/>
   <tile gid="3830"/>
   <tile gid="3831"/>
   <tile gid="3832"/>
   <tile gid="3833"/>
   <tile gid="3834"/>
   <tile gid="3835"/>
   <tile gid="3836"/>
   <tile gid="3837"/>
   <tile gid="3838"/>
   <tile/>
   <tile/>
   <tile/>
   <tile/>
   <tile/>
   <tile/>
   <tile/>
   <tile/>
   <tile/>
   <tile/>
   <tile/>
   <tile/>
   <tile/>
   <tile/>
   <tile/>
   <tile/>
   <tile/>
   <tile/>
   <tile/>
   <tile/>
   <tile/>
   <tile/>
   <tile/>
   <tile/>
   <tile/>
   <tile/>
   <tile/>
   <tile/>
   <tile/>
   <tile/>
   <tile/>
   <tile/>
   <tile/>
   <tile/>
   <tile/>
   <tile/>
   <tile/>
   <tile/>
   <tile/>
   <tile gid="3730"/>
   <tile gid="3731"/>
   <tile gid="3732"/>
   <tile gid="3733"/>
   <tile gid="3734"/>
   <tile gid="3735"/>
   <tile gid="3736"/>
   <tile gid="3737"/>
   <tile gid="3738"/>
   <tile gid="3739"/>
   <tile gid="3740"/>
   <tile gid="3741"/>
   <tile gid="3742"/>
   <tile gid="3743"/>
   <tile gid="3733"/>
   <tile gid="3734"/>
   <tile gid="3735"/>
   <tile gid="3736"/>
   <tile gid="3737"/>
   <tile gid="3738"/>
   <tile gid="3736"/>
   <tile gid="3737"/>
   <tile gid="3738"/>
   <tile gid="3739"/>
   <tile gid="3740"/>
   <tile gid="3736"/>
   <tile gid="3737"/>
   <tile gid="3738"/>
   <tile gid="3739"/>
   <tile gid="3736"/>
   <tile gid="3737"/>
   <tile gid="3738"/>
   <tile gid="3739"/>
   <tile gid="3740"/>
   <tile gid="3741"/>
   <tile gid="3742"/>
   <tile gid="3743"/>
   <tile gid="3736"/>
   <tile gid="3737"/>
   <tile gid="3738"/>
   <tile gid="3739"/>
   <tile gid="3740"/>
   <tile gid="3741"/>
   <tile gid="3742"/>
   <tile gid="3743"/>
   <tile gid="3736"/>
   <tile gid="3737"/>
   <tile gid="3738"/>
   <tile gid="3739"/>
   <tile gid="3740"/>
   <tile gid="3741"/>
   <tile gid="3742"/>
   <tile gid="3743"/>
   <tile gid="3736"/>
   <tile gid="3737"/>
   <tile gid="3738"/>
   <tile gid="3739"/>
   <tile gid="3740"/>
   <tile gid="3741"/>
   <tile gid="3742"/>
   <tile gid="3743"/>
   <tile gid="3736"/>
   <tile gid="3737"/>
   <tile gid="3738"/>
   <tile gid="3739"/>
   <tile gid="3740"/>
   <tile gid="3741"/>
   <tile gid="3742"/>
   <tile gid="3890"/>
   <tile gid="3891"/>
   <tile gid="3892"/>
   <tile gid="3893"/>
   <tile gid="3894"/>
   <tile gid="3895"/>
   <tile gid="3896"/>
   <tile gid="3897"/>
   <tile gid="3898"/>
   <tile gid="3899"/>
   <tile gid="3900"/>
   <tile gid="3901"/>
   <tile gid="3902"/>
   <tile/>
   <tile/>
   <tile/>
   <tile/>
   <tile/>
   <tile/>
   <tile/>
   <tile/>
   <tile/>
   <tile/>
   <tile/>
   <tile/>
   <tile/>
   <tile/>
   <tile/>
   <tile/>
   <tile/>
   <tile/>
   <tile/>
   <tile/>
   <tile/>
   <tile/>
   <tile/>
   <tile/>
   <tile/>
   <tile/>
   <tile/>
   <tile/>
   <tile/>
   <tile/>
   <tile/>
   <tile/>
   <tile/>
   <tile/>
   <tile/>
   <tile/>
   <tile/>
   <tile/>
   <tile/>
   <tile gid="3794"/>
   <tile gid="3795"/>
   <tile gid="3796"/>
   <tile gid="3797"/>
   <tile gid="3798"/>
   <tile gid="3799"/>
   <tile gid="3800"/>
   <tile gid="3801"/>
   <tile gid="3802"/>
   <tile gid="3803"/>
   <tile gid="3804"/>
   <tile gid="3805"/>
   <tile gid="3806"/>
   <tile gid="3807"/>
   <tile gid="3797"/>
   <tile gid="3798"/>
   <tile gid="3799"/>
   <tile gid="3800"/>
   <tile gid="3801"/>
   <tile gid="3802"/>
   <tile gid="3800"/>
   <tile gid="3801"/>
   <tile gid="3802"/>
   <tile gid="3803"/>
   <tile gid="3804"/>
   <tile gid="3800"/>
   <tile gid="3801"/>
   <tile gid="3802"/>
   <tile gid="3803"/>
   <tile gid="3800"/>
   <tile gid="3801"/>
   <tile gid="3802"/>
   <tile gid="3803"/>
   <tile gid="3804"/>
   <tile gid="3805"/>
   <tile gid="3806"/>
   <tile gid="3807"/>
   <tile gid="3800"/>
   <tile gid="3801"/>
   <tile gid="3802"/>
   <tile gid="3803"/>
   <tile gid="3804"/>
   <tile gid="3805"/>
   <tile gid="3806"/>
   <tile gid="3807"/>
   <tile gid="3800"/>
   <tile gid="3801"/>
   <tile gid="3802"/>
   <tile gid="3803"/>
   <tile gid="3804"/>
   <tile gid="3805"/>
   <tile gid="3806"/>
   <tile gid="3807"/>
   <tile gid="3800"/>
   <tile gid="3801"/>
   <tile gid="3802"/>
   <tile gid="3803"/>
   <tile gid="3804"/>
   <tile gid="3805"/>
   <tile gid="3806"/>
   <tile gid="3807"/>
   <tile gid="3800"/>
   <tile gid="3801"/>
   <tile gid="3802"/>
   <tile gid="3803"/>
   <tile gid="3804"/>
   <tile gid="3805"/>
   <tile gid="3806"/>
   <tile gid="3954"/>
   <tile gid="3955"/>
   <tile gid="3956"/>
   <tile gid="3957"/>
   <tile gid="3958"/>
   <tile gid="3959"/>
   <tile gid="3960"/>
   <tile gid="3961"/>
   <tile gid="3962"/>
   <tile gid="3963"/>
   <tile gid="3964"/>
   <tile gid="3965"/>
   <tile gid="3966"/>
   <tile/>
   <tile/>
   <tile/>
   <tile/>
   <tile/>
   <tile/>
   <tile/>
   <tile/>
   <tile/>
   <tile/>
   <tile/>
   <tile/>
   <tile/>
   <tile/>
   <tile/>
   <tile/>
   <tile/>
   <tile/>
   <tile/>
   <tile/>
   <tile/>
   <tile/>
   <tile/>
   <tile/>
   <tile/>
   <tile/>
   <tile/>
   <tile/>
   <tile/>
   <tile/>
   <tile/>
   <tile/>
   <tile/>
   <tile/>
   <tile/>
   <tile/>
   <tile/>
   <tile/>
   <tile/>
   <tile gid="3858"/>
   <tile gid="3859"/>
   <tile gid="3860"/>
   <tile gid="3861"/>
   <tile gid="3862"/>
   <tile gid="3863"/>
   <tile gid="3864"/>
   <tile gid="3865"/>
   <tile gid="3866"/>
   <tile gid="3867"/>
   <tile gid="3868"/>
   <tile gid="3869"/>
   <tile gid="3870"/>
   <tile gid="3871"/>
   <tile gid="3861"/>
   <tile gid="3862"/>
   <tile gid="3863"/>
   <tile gid="3864"/>
   <tile gid="3865"/>
   <tile gid="3866"/>
   <tile gid="3864"/>
   <tile gid="3865"/>
   <tile gid="3866"/>
   <tile gid="3867"/>
   <tile gid="3868"/>
   <tile gid="3864"/>
   <tile gid="3865"/>
   <tile gid="3866"/>
   <tile gid="3867"/>
   <tile gid="3864"/>
   <tile gid="3865"/>
   <tile gid="3866"/>
   <tile gid="3867"/>
   <tile gid="3868"/>
   <tile gid="3869"/>
   <tile gid="3870"/>
   <tile gid="3871"/>
   <tile gid="3864"/>
   <tile gid="3865"/>
   <tile gid="3866"/>
   <tile gid="3867"/>
   <tile gid="3868"/>
   <tile gid="3869"/>
   <tile gid="3870"/>
   <tile gid="3871"/>
   <tile gid="3864"/>
   <tile gid="3865"/>
   <tile gid="3866"/>
   <tile gid="3867"/>
   <tile gid="3868"/>
   <tile gid="3869"/>
   <tile gid="3870"/>
   <tile gid="3871"/>
   <tile gid="3864"/>
   <tile gid="3865"/>
   <tile gid="3866"/>
   <tile gid="3867"/>
   <tile gid="3868"/>
   <tile gid="3869"/>
   <tile gid="3870"/>
   <tile gid="3871"/>
   <tile gid="3864"/>
   <tile gid="3865"/>
   <tile gid="3866"/>
   <tile gid="3867"/>
   <tile gid="3868"/>
   <tile gid="3869"/>
   <tile gid="3870"/>
   <tile gid="4018"/>
   <tile gid="4019"/>
   <tile gid="4020"/>
   <tile gid="4021"/>
   <tile gid="4022"/>
   <tile gid="4023"/>
   <tile gid="4024"/>
   <tile gid="4025"/>
   <tile gid="4026"/>
   <tile gid="4027"/>
   <tile gid="4028"/>
   <tile gid="4029"/>
   <tile gid="4030"/>
   <tile/>
   <tile/>
   <tile/>
   <tile/>
   <tile/>
   <tile/>
   <tile/>
   <tile/>
   <tile/>
   <tile/>
   <tile/>
   <tile/>
   <tile/>
   <tile/>
   <tile/>
   <tile/>
   <tile/>
   <tile/>
   <tile/>
   <tile/>
   <tile/>
   <tile/>
   <tile/>
   <tile/>
   <tile/>
   <tile/>
   <tile/>
   <tile/>
   <tile/>
   <tile/>
   <tile/>
   <tile/>
   <tile/>
   <tile/>
   <tile/>
   <tile/>
   <tile/>
   <tile/>
   <tile/>
   <tile gid="4993"/>
   <tile gid="4994"/>
   <tile gid="4995"/>
   <tile gid="4996"/>
   <tile gid="4997"/>
   <tile gid="4998"/>
   <tile gid="4999"/>
   <tile gid="5000"/>
   <tile gid="5001"/>
   <tile gid="5002"/>
   <tile gid="5003"/>
   <tile gid="5004"/>
   <tile gid="5005"/>
   <tile gid="5006"/>
   <tile gid="4994"/>
   <tile gid="4995"/>
   <tile gid="4996"/>
   <tile gid="4997"/>
   <tile gid="4998"/>
   <tile gid="4999"/>
   <tile gid="5000"/>
   <tile gid="5001"/>
   <tile gid="5002"/>
   <tile gid="5003"/>
   <tile gid="5004"/>
   <tile gid="5005"/>
   <tile gid="5006"/>
   <tile gid="4994"/>
   <tile gid="4995"/>
   <tile gid="4996"/>
   <tile gid="4997"/>
   <tile gid="4998"/>
   <tile gid="4999"/>
   <tile gid="5000"/>
   <tile gid="5001"/>
   <tile gid="5002"/>
   <tile gid="5003"/>
   <tile gid="5004"/>
   <tile gid="5005"/>
   <tile gid="5006"/>
   <tile gid="4994"/>
   <tile gid="4995"/>
   <tile gid="4996"/>
   <tile gid="4997"/>
   <tile gid="4998"/>
   <tile gid="4999"/>
   <tile gid="5000"/>
   <tile gid="5001"/>
   <tile gid="5002"/>
   <tile gid="5003"/>
   <tile gid="5004"/>
   <tile gid="5005"/>
   <tile gid="5006"/>
   <tile gid="4994"/>
   <tile gid="4995"/>
   <tile gid="4996"/>
   <tile gid="4997"/>
   <tile gid="4998"/>
   <tile gid="4999"/>
   <tile gid="5000"/>
   <tile gid="5001"/>
   <tile gid="5002"/>
   <tile gid="5003"/>
   <tile gid="5004"/>
   <tile gid="5005"/>
   <tile gid="5006"/>
   <tile gid="5007"/>
   <tile gid="5008"/>
   <tile gid="4082"/>
   <tile gid="4083"/>
   <tile gid="4084"/>
   <tile gid="4085"/>
   <tile gid="4086"/>
   <tile gid="4087"/>
   <tile gid="4088"/>
   <tile gid="4089"/>
   <tile gid="4090"/>
   <tile gid="4091"/>
   <tile gid="4092"/>
   <tile gid="4093"/>
   <tile gid="4094"/>
   <tile/>
   <tile/>
   <tile/>
   <tile/>
   <tile/>
   <tile/>
   <tile/>
   <tile/>
   <tile/>
   <tile/>
   <tile/>
   <tile/>
   <tile/>
   <tile/>
   <tile/>
   <tile/>
   <tile/>
   <tile/>
   <tile/>
   <tile/>
   <tile/>
   <tile/>
   <tile/>
   <tile/>
   <tile/>
   <tile/>
   <tile/>
   <tile/>
   <tile/>
   <tile/>
   <tile/>
   <tile/>
   <tile/>
   <tile/>
   <tile/>
   <tile/>
   <tile/>
   <tile/>
   <tile/>
   <tile gid="5057"/>
   <tile gid="5058"/>
   <tile gid="5059"/>
   <tile gid="5060"/>
   <tile gid="5061"/>
   <tile gid="5062"/>
   <tile gid="5063"/>
   <tile gid="5064"/>
   <tile gid="5065"/>
   <tile gid="5066"/>
   <tile gid="5067"/>
   <tile gid="5068"/>
   <tile gid="5069"/>
   <tile gid="5070"/>
   <tile gid="5058"/>
   <tile gid="5059"/>
   <tile gid="5060"/>
   <tile gid="5061"/>
   <tile gid="5062"/>
   <tile gid="5063"/>
   <tile gid="5064"/>
   <tile gid="5065"/>
   <tile gid="5066"/>
   <tile gid="5067"/>
   <tile gid="5068"/>
   <tile gid="5069"/>
   <tile gid="5070"/>
   <tile gid="5058"/>
   <tile gid="5059"/>
   <tile gid="5060"/>
   <tile gid="5061"/>
   <tile gid="5062"/>
   <tile gid="5063"/>
   <tile gid="5064"/>
   <tile gid="5065"/>
   <tile gid="5066"/>
   <tile gid="5067"/>
   <tile gid="5068"/>
   <tile gid="5069"/>
   <tile gid="5070"/>
   <tile gid="5058"/>
   <tile gid="5059"/>
   <tile gid="5060"/>
   <tile gid="5061"/>
   <tile gid="5062"/>
   <tile gid="5063"/>
   <tile gid="5064"/>
   <tile gid="5065"/>
   <tile gid="5066"/>
   <tile gid="5067"/>
   <tile gid="5068"/>
   <tile gid="5069"/>
   <tile gid="5070"/>
   <tile gid="5058"/>
   <tile gid="5059"/>
   <tile gid="5060"/>
   <tile gid="5061"/>
   <tile gid="5062"/>
   <tile gid="5063"/>
   <tile gid="5064"/>
   <tile gid="5065"/>
   <tile gid="5066"/>
   <tile gid="5067"/>
   <tile gid="5068"/>
   <tile gid="5069"/>
   <tile gid="5070"/>
   <tile gid="5071"/>
   <tile gid="5072"/>
   <tile gid="4146"/>
   <tile gid="4147"/>
   <tile gid="4148"/>
   <tile gid="4149"/>
   <tile gid="4150"/>
   <tile gid="4151"/>
   <tile gid="4152"/>
   <tile gid="4153"/>
   <tile gid="4154"/>
   <tile gid="4155"/>
   <tile gid="4156"/>
   <tile gid="4157"/>
   <tile gid="4158"/>
   <tile/>
   <tile/>
   <tile/>
   <tile/>
   <tile/>
   <tile/>
   <tile/>
   <tile/>
   <tile/>
   <tile/>
   <tile/>
   <tile/>
   <tile/>
   <tile/>
   <tile/>
   <tile/>
   <tile/>
   <tile/>
   <tile/>
   <tile/>
   <tile/>
   <tile/>
   <tile/>
   <tile/>
   <tile/>
   <tile/>
   <tile/>
   <tile/>
   <tile/>
   <tile/>
   <tile/>
   <tile/>
   <tile/>
   <tile/>
   <tile/>
   <tile/>
   <tile/>
   <tile/>
   <tile/>
   <tile gid="5121"/>
   <tile gid="5122"/>
   <tile gid="5123"/>
   <tile gid="5124"/>
   <tile gid="5125"/>
   <tile gid="5126"/>
   <tile gid="5127"/>
   <tile gid="5128"/>
   <tile gid="5129"/>
   <tile gid="5130"/>
   <tile gid="5131"/>
   <tile gid="5132"/>
   <tile gid="5133"/>
   <tile gid="5134"/>
   <tile gid="5122"/>
   <tile gid="5123"/>
   <tile gid="5124"/>
   <tile gid="5125"/>
   <tile gid="5126"/>
   <tile gid="5127"/>
   <tile gid="5128"/>
   <tile gid="5129"/>
   <tile gid="5130"/>
   <tile gid="5131"/>
   <tile gid="5132"/>
   <tile gid="5133"/>
   <tile gid="5134"/>
   <tile gid="5122"/>
   <tile gid="5123"/>
   <tile gid="5124"/>
   <tile gid="5125"/>
   <tile gid="5126"/>
   <tile gid="5127"/>
   <tile gid="5128"/>
   <tile gid="5129"/>
   <tile gid="5130"/>
   <tile gid="5131"/>
   <tile gid="5132"/>
   <tile gid="5133"/>
   <tile gid="5134"/>
   <tile gid="5122"/>
   <tile gid="5123"/>
   <tile gid="5124"/>
   <tile gid="5125"/>
   <tile gid="5126"/>
   <tile gid="5127"/>
   <tile gid="5128"/>
   <tile gid="5129"/>
   <tile gid="5130"/>
   <tile gid="5131"/>
   <tile gid="5132"/>
   <tile gid="5133"/>
   <tile gid="5134"/>
   <tile gid="5122"/>
   <tile gid="5123"/>
   <tile gid="5124"/>
   <tile gid="5125"/>
   <tile gid="5126"/>
   <tile gid="5127"/>
   <tile gid="5128"/>
   <tile gid="5129"/>
   <tile gid="5130"/>
   <tile gid="5131"/>
   <tile gid="5132"/>
   <tile gid="5133"/>
   <tile gid="5134"/>
   <tile gid="5135"/>
   <tile gid="5136"/>
   <tile gid="3826"/>
   <tile gid="3827"/>
   <tile gid="3828"/>
   <tile gid="3829"/>
   <tile gid="3830"/>
   <tile gid="3831"/>
   <tile gid="3832"/>
   <tile gid="3833"/>
   <tile gid="3834"/>
   <tile gid="3835"/>
   <tile gid="3836"/>
   <tile gid="3837"/>
   <tile gid="3838"/>
   <tile/>
   <tile/>
   <tile/>
   <tile/>
   <tile/>
   <tile/>
   <tile/>
   <tile/>
   <tile/>
   <tile/>
   <tile/>
   <tile/>
   <tile/>
   <tile/>
   <tile/>
   <tile/>
   <tile/>
   <tile/>
   <tile/>
   <tile/>
   <tile/>
   <tile/>
   <tile/>
   <tile/>
   <tile/>
   <tile/>
   <tile/>
   <tile/>
   <tile/>
   <tile/>
   <tile/>
   <tile/>
   <tile/>
   <tile/>
   <tile/>
   <tile/>
   <tile/>
   <tile/>
   <tile/>
   <tile gid="5185"/>
   <tile gid="5186"/>
   <tile gid="5187"/>
   <tile gid="5188"/>
   <tile gid="5189"/>
   <tile gid="5190"/>
   <tile gid="5191"/>
   <tile gid="5192"/>
   <tile gid="5193"/>
   <tile gid="5194"/>
   <tile gid="5195"/>
   <tile gid="5196"/>
   <tile gid="5197"/>
   <tile gid="5198"/>
   <tile gid="5186"/>
   <tile gid="5187"/>
   <tile gid="5188"/>
   <tile gid="5189"/>
   <tile gid="5190"/>
   <tile gid="5191"/>
   <tile gid="5192"/>
   <tile gid="5193"/>
   <tile gid="5194"/>
   <tile gid="5195"/>
   <tile gid="5196"/>
   <tile gid="5197"/>
   <tile gid="5198"/>
   <tile gid="5186"/>
   <tile gid="5187"/>
   <tile gid="5188"/>
   <tile gid="5189"/>
   <tile gid="5190"/>
   <tile gid="5191"/>
   <tile gid="5192"/>
   <tile gid="5193"/>
   <tile gid="5194"/>
   <tile gid="5195"/>
   <tile gid="5196"/>
   <tile gid="5197"/>
   <tile gid="5198"/>
   <tile gid="5186"/>
   <tile gid="5187"/>
   <tile gid="5188"/>
   <tile gid="5189"/>
   <tile gid="5190"/>
   <tile gid="5191"/>
   <tile gid="5192"/>
   <tile gid="5193"/>
   <tile gid="5194"/>
   <tile gid="5195"/>
   <tile gid="5196"/>
   <tile gid="5197"/>
   <tile gid="5198"/>
   <tile gid="5186"/>
   <tile gid="5187"/>
   <tile gid="5188"/>
   <tile gid="5189"/>
   <tile gid="5190"/>
   <tile gid="5191"/>
   <tile gid="5192"/>
   <tile gid="5193"/>
   <tile gid="5194"/>
   <tile gid="5195"/>
   <tile gid="5196"/>
   <tile gid="5197"/>
   <tile gid="5198"/>
   <tile gid="5199"/>
   <tile gid="5200"/>
   <tile gid="3890"/>
   <tile gid="3891"/>
   <tile gid="3892"/>
   <tile gid="3893"/>
   <tile gid="3894"/>
   <tile gid="3895"/>
   <tile gid="3896"/>
   <tile gid="3897"/>
   <tile gid="3898"/>
   <tile gid="3899"/>
   <tile gid="3900"/>
   <tile gid="3901"/>
   <tile gid="3902"/>
   <tile/>
   <tile/>
   <tile/>
   <tile/>
   <tile/>
   <tile/>
   <tile/>
   <tile/>
   <tile/>
   <tile/>
   <tile/>
   <tile/>
   <tile/>
   <tile/>
   <tile/>
   <tile/>
   <tile/>
   <tile/>
   <tile/>
   <tile/>
   <tile/>
   <tile/>
   <tile/>
   <tile/>
   <tile/>
   <tile/>
   <tile/>
   <tile/>
   <tile/>
   <tile/>
   <tile/>
   <tile/>
   <tile/>
   <tile/>
   <tile/>
   <tile/>
   <tile/>
   <tile/>
   <tile/>
   <tile gid="5249"/>
   <tile gid="5250"/>
   <tile gid="5251"/>
   <tile gid="5252"/>
   <tile gid="5253"/>
   <tile gid="5254"/>
   <tile gid="5255"/>
   <tile gid="5256"/>
   <tile gid="5257"/>
   <tile gid="5258"/>
   <tile gid="5259"/>
   <tile gid="5260"/>
   <tile gid="5261"/>
   <tile gid="5262"/>
   <tile gid="5250"/>
   <tile gid="5251"/>
   <tile gid="5252"/>
   <tile gid="5253"/>
   <tile gid="5254"/>
   <tile gid="5255"/>
   <tile gid="5256"/>
   <tile gid="5257"/>
   <tile gid="5258"/>
   <tile gid="5259"/>
   <tile gid="5260"/>
   <tile gid="5261"/>
   <tile gid="5262"/>
   <tile gid="5250"/>
   <tile gid="5251"/>
   <tile gid="5252"/>
   <tile gid="5253"/>
   <tile gid="5254"/>
   <tile gid="5255"/>
   <tile gid="5256"/>
   <tile gid="5257"/>
   <tile gid="5258"/>
   <tile gid="5259"/>
   <tile gid="5260"/>
   <tile gid="5261"/>
   <tile gid="5262"/>
   <tile gid="5250"/>
   <tile gid="5251"/>
   <tile gid="5252"/>
   <tile gid="5253"/>
   <tile gid="5254"/>
   <tile gid="5255"/>
   <tile gid="5256"/>
   <tile gid="5257"/>
   <tile gid="5258"/>
   <tile gid="5259"/>
   <tile gid="5260"/>
   <tile gid="5261"/>
   <tile gid="5262"/>
   <tile gid="5250"/>
   <tile gid="5251"/>
   <tile gid="5252"/>
   <tile gid="5253"/>
   <tile gid="5254"/>
   <tile gid="5255"/>
   <tile gid="5256"/>
   <tile gid="5257"/>
   <tile gid="5258"/>
   <tile gid="5259"/>
   <tile gid="5260"/>
   <tile gid="5261"/>
   <tile gid="5262"/>
   <tile gid="5263"/>
   <tile gid="5264"/>
   <tile gid="3954"/>
   <tile gid="3955"/>
   <tile gid="3956"/>
   <tile gid="3957"/>
   <tile gid="3958"/>
   <tile gid="3959"/>
   <tile gid="3960"/>
   <tile gid="3961"/>
   <tile gid="3962"/>
   <tile gid="3963"/>
   <tile gid="3964"/>
   <tile gid="3965"/>
   <tile gid="3966"/>
   <tile/>
   <tile/>
   <tile/>
   <tile/>
   <tile/>
   <tile/>
   <tile/>
   <tile/>
   <tile/>
   <tile/>
   <tile/>
   <tile/>
   <tile/>
   <tile/>
   <tile/>
   <tile/>
   <tile/>
   <tile/>
   <tile/>
   <tile/>
   <tile/>
   <tile/>
   <tile/>
   <tile/>
   <tile/>
   <tile/>
   <tile/>
   <tile/>
   <tile/>
   <tile/>
   <tile/>
   <tile/>
   <tile/>
   <tile/>
   <tile/>
   <tile/>
   <tile/>
   <tile/>
   <tile/>
   <tile gid="5313"/>
   <tile gid="5314"/>
   <tile gid="5315"/>
   <tile gid="5316"/>
   <tile gid="5317"/>
   <tile gid="5318"/>
   <tile gid="5319"/>
   <tile gid="5320"/>
   <tile gid="5321"/>
   <tile gid="5322"/>
   <tile gid="5323"/>
   <tile gid="5324"/>
   <tile gid="5325"/>
   <tile gid="5326"/>
   <tile gid="5314"/>
   <tile gid="5315"/>
   <tile gid="5316"/>
   <tile gid="5317"/>
   <tile gid="5318"/>
   <tile gid="5319"/>
   <tile gid="5320"/>
   <tile gid="5321"/>
   <tile gid="5322"/>
   <tile gid="5323"/>
   <tile gid="5324"/>
   <tile gid="5325"/>
   <tile gid="5326"/>
   <tile gid="5314"/>
   <tile gid="5315"/>
   <tile gid="5316"/>
   <tile gid="5317"/>
   <tile gid="5318"/>
   <tile gid="5319"/>
   <tile gid="5320"/>
   <tile gid="5321"/>
   <tile gid="5322"/>
   <tile gid="5323"/>
   <tile gid="5324"/>
   <tile gid="5325"/>
   <tile gid="5326"/>
   <tile gid="5314"/>
   <tile gid="5315"/>
   <tile gid="5316"/>
   <tile gid="5317"/>
   <tile gid="5318"/>
   <tile gid="5319"/>
   <tile gid="5320"/>
   <tile gid="5321"/>
   <tile gid="5322"/>
   <tile gid="5323"/>
   <tile gid="5324"/>
   <tile gid="5325"/>
   <tile gid="5326"/>
   <tile gid="5314"/>
   <tile gid="5315"/>
   <tile gid="5316"/>
   <tile gid="5317"/>
   <tile gid="5318"/>
   <tile gid="5319"/>
   <tile gid="5320"/>
   <tile gid="5321"/>
   <tile gid="5322"/>
   <tile gid="5323"/>
   <tile gid="5324"/>
   <tile gid="5325"/>
   <tile gid="5326"/>
   <tile gid="5327"/>
   <tile gid="5328"/>
   <tile gid="4018"/>
   <tile gid="4019"/>
   <tile gid="4020"/>
   <tile gid="4021"/>
   <tile gid="4022"/>
   <tile gid="4023"/>
   <tile gid="4024"/>
   <tile gid="4025"/>
   <tile gid="4026"/>
   <tile gid="4027"/>
   <tile gid="4028"/>
   <tile gid="4029"/>
   <tile gid="4030"/>
   <tile/>
   <tile/>
   <tile/>
   <tile/>
   <tile/>
   <tile/>
   <tile/>
   <tile/>
   <tile/>
   <tile/>
   <tile/>
   <tile/>
   <tile/>
   <tile/>
   <tile/>
   <tile/>
   <tile/>
   <tile/>
   <tile/>
   <tile/>
   <tile/>
   <tile/>
   <tile/>
   <tile/>
   <tile/>
   <tile/>
   <tile/>
   <tile/>
   <tile/>
   <tile/>
   <tile/>
   <tile/>
   <tile/>
   <tile/>
   <tile/>
   <tile/>
   <tile/>
   <tile/>
   <tile/>
   <tile gid="5377"/>
   <tile gid="5378"/>
   <tile gid="5379"/>
   <tile gid="5380"/>
   <tile gid="5381"/>
   <tile gid="5382"/>
   <tile gid="5383"/>
   <tile gid="5384"/>
   <tile gid="5385"/>
   <tile gid="5386"/>
   <tile gid="5387"/>
   <tile gid="5388"/>
   <tile gid="5389"/>
   <tile gid="5390"/>
   <tile gid="5378"/>
   <tile gid="5379"/>
   <tile gid="5380"/>
   <tile gid="5381"/>
   <tile gid="5382"/>
   <tile gid="5383"/>
   <tile gid="5384"/>
   <tile gid="5385"/>
   <tile gid="5386"/>
   <tile gid="5387"/>
   <tile gid="5388"/>
   <tile gid="5389"/>
   <tile gid="5390"/>
   <tile gid="5378"/>
   <tile gid="5379"/>
   <tile gid="5380"/>
   <tile gid="5381"/>
   <tile gid="5382"/>
   <tile gid="5383"/>
   <tile gid="5384"/>
   <tile gid="5385"/>
   <tile gid="5386"/>
   <tile gid="5387"/>
   <tile gid="5388"/>
   <tile gid="5389"/>
   <tile gid="5390"/>
   <tile gid="5378"/>
   <tile gid="5379"/>
   <tile gid="5380"/>
   <tile gid="5381"/>
   <tile gid="5382"/>
   <tile gid="5383"/>
   <tile gid="5384"/>
   <tile gid="5385"/>
   <tile gid="5386"/>
   <tile gid="5387"/>
   <tile gid="5388"/>
   <tile gid="5389"/>
   <tile gid="5390"/>
   <tile gid="5378"/>
   <tile gid="5379"/>
   <tile gid="5380"/>
   <tile gid="5381"/>
   <tile gid="5382"/>
   <tile gid="5383"/>
   <tile gid="5384"/>
   <tile gid="5385"/>
   <tile gid="5386"/>
   <tile gid="5387"/>
   <tile gid="5388"/>
   <tile gid="5389"/>
   <tile gid="5390"/>
   <tile gid="5391"/>
   <tile gid="5392"/>
   <tile gid="4082"/>
   <tile gid="4083"/>
   <tile gid="4084"/>
   <tile gid="4085"/>
   <tile gid="4086"/>
   <tile gid="4087"/>
   <tile gid="4088"/>
   <tile gid="4089"/>
   <tile gid="4090"/>
   <tile gid="4091"/>
   <tile gid="4092"/>
   <tile gid="4093"/>
   <tile gid="4094"/>
   <tile/>
   <tile/>
   <tile/>
   <tile/>
   <tile/>
   <tile/>
   <tile/>
   <tile/>
   <tile/>
   <tile/>
   <tile/>
   <tile/>
   <tile/>
   <tile/>
   <tile/>
   <tile/>
   <tile/>
   <tile/>
   <tile/>
   <tile/>
   <tile/>
   <tile/>
   <tile/>
   <tile/>
   <tile/>
   <tile/>
   <tile/>
   <tile/>
   <tile/>
   <tile/>
   <tile/>
   <tile/>
   <tile/>
   <tile/>
   <tile/>
   <tile/>
   <tile/>
   <tile/>
   <tile/>
   <tile gid="5441"/>
   <tile gid="5442"/>
   <tile gid="5443"/>
   <tile gid="5444"/>
   <tile gid="5445"/>
   <tile gid="5446"/>
   <tile gid="5447"/>
   <tile gid="5448"/>
   <tile gid="5449"/>
   <tile gid="5450"/>
   <tile gid="5451"/>
   <tile gid="5452"/>
   <tile gid="5453"/>
   <tile gid="5454"/>
   <tile gid="5442"/>
   <tile gid="5443"/>
   <tile gid="5444"/>
   <tile gid="5445"/>
   <tile gid="5446"/>
   <tile gid="5447"/>
   <tile gid="5448"/>
   <tile gid="5449"/>
   <tile gid="5450"/>
   <tile gid="5451"/>
   <tile gid="5452"/>
   <tile gid="5453"/>
   <tile gid="5454"/>
   <tile gid="5442"/>
   <tile gid="5443"/>
   <tile gid="5444"/>
   <tile gid="5445"/>
   <tile gid="5446"/>
   <tile gid="5447"/>
   <tile gid="5448"/>
   <tile gid="5449"/>
   <tile gid="5450"/>
   <tile gid="5451"/>
   <tile gid="5452"/>
   <tile gid="5453"/>
   <tile gid="5454"/>
   <tile gid="5442"/>
   <tile gid="5443"/>
   <tile gid="5444"/>
   <tile gid="5445"/>
   <tile gid="5446"/>
   <tile gid="5447"/>
   <tile gid="5448"/>
   <tile gid="5449"/>
   <tile gid="5450"/>
   <tile gid="5451"/>
   <tile gid="5452"/>
   <tile gid="5453"/>
   <tile gid="5454"/>
   <tile gid="5442"/>
   <tile gid="5443"/>
   <tile gid="5444"/>
   <tile gid="5445"/>
   <tile gid="5446"/>
   <tile gid="5447"/>
   <tile gid="5448"/>
   <tile gid="5449"/>
   <tile gid="5450"/>
   <tile gid="5451"/>
   <tile gid="5452"/>
   <tile gid="5453"/>
   <tile gid="5454"/>
   <tile gid="5455"/>
   <tile gid="5456"/>
   <tile gid="4146"/>
   <tile gid="4147"/>
   <tile gid="4148"/>
   <tile gid="4149"/>
   <tile gid="4150"/>
   <tile gid="4151"/>
   <tile gid="4152"/>
   <tile gid="4153"/>
   <tile gid="4154"/>
   <tile gid="4155"/>
   <tile gid="4156"/>
   <tile gid="4157"/>
   <tile gid="4158"/>
   <tile/>
   <tile/>
   <tile/>
   <tile/>
   <tile/>
   <tile/>
   <tile/>
   <tile/>
   <tile/>
   <tile/>
   <tile/>
   <tile/>
   <tile/>
   <tile/>
   <tile/>
   <tile/>
   <tile/>
   <tile/>
   <tile/>
   <tile/>
   <tile/>
   <tile/>
   <tile/>
   <tile/>
   <tile/>
   <tile/>
   <tile/>
   <tile/>
   <tile/>
   <tile/>
   <tile/>
   <tile/>
   <tile/>
   <tile/>
   <tile/>
   <tile/>
   <tile/>
   <tile/>
   <tile/>
   <tile gid="5505"/>
   <tile gid="5506"/>
   <tile gid="5507"/>
   <tile gid="5508"/>
   <tile gid="5509"/>
   <tile gid="5510"/>
   <tile gid="5511"/>
   <tile gid="5512"/>
   <tile gid="5513"/>
   <tile gid="5514"/>
   <tile gid="5515"/>
   <tile gid="5516"/>
   <tile gid="5517"/>
   <tile gid="5518"/>
   <tile gid="5506"/>
   <tile gid="5507"/>
   <tile gid="5508"/>
   <tile gid="5509"/>
   <tile gid="5510"/>
   <tile gid="5511"/>
   <tile gid="5512"/>
   <tile gid="5513"/>
   <tile gid="5514"/>
   <tile gid="5515"/>
   <tile gid="5516"/>
   <tile gid="5517"/>
   <tile gid="5518"/>
   <tile gid="5506"/>
   <tile gid="5507"/>
   <tile gid="5508"/>
   <tile gid="5509"/>
   <tile gid="5510"/>
   <tile gid="5511"/>
   <tile gid="5512"/>
   <tile gid="5513"/>
   <tile gid="5514"/>
   <tile gid="5515"/>
   <tile gid="5516"/>
   <tile gid="5517"/>
   <tile gid="5518"/>
   <tile gid="5506"/>
   <tile gid="5507"/>
   <tile gid="5508"/>
   <tile gid="5509"/>
   <tile gid="5510"/>
   <tile gid="5511"/>
   <tile gid="5512"/>
   <tile gid="5513"/>
   <tile gid="5514"/>
   <tile gid="5515"/>
   <tile gid="5516"/>
   <tile gid="5517"/>
   <tile gid="5518"/>
   <tile gid="5506"/>
   <tile gid="5507"/>
   <tile gid="5508"/>
   <tile gid="5509"/>
   <tile gid="5510"/>
   <tile gid="5511"/>
   <tile gid="5512"/>
   <tile gid="5513"/>
   <tile gid="5514"/>
   <tile gid="5515"/>
   <tile gid="5516"/>
   <tile gid="5517"/>
   <tile gid="5518"/>
   <tile gid="5519"/>
   <tile gid="5520"/>
   <tile gid="4018"/>
   <tile gid="4019"/>
   <tile gid="4020"/>
   <tile gid="4021"/>
   <tile gid="4022"/>
   <tile gid="4023"/>
   <tile gid="4024"/>
   <tile gid="4025"/>
   <tile gid="4026"/>
   <tile gid="4027"/>
   <tile gid="4028"/>
   <tile gid="4029"/>
   <tile gid="4030"/>
   <tile/>
   <tile/>
   <tile/>
   <tile/>
   <tile/>
   <tile/>
   <tile/>
   <tile/>
   <tile/>
   <tile/>
   <tile/>
   <tile/>
   <tile/>
   <tile/>
   <tile/>
   <tile/>
   <tile/>
   <tile/>
   <tile/>
   <tile/>
   <tile/>
   <tile/>
   <tile/>
   <tile/>
   <tile/>
   <tile/>
   <tile/>
   <tile/>
   <tile/>
   <tile/>
   <tile/>
   <tile/>
   <tile/>
   <tile/>
   <tile/>
   <tile/>
   <tile/>
   <tile/>
   <tile/>
   <tile gid="5569"/>
   <tile gid="5570"/>
   <tile gid="5571"/>
   <tile gid="5572"/>
   <tile gid="5573"/>
   <tile gid="5574"/>
   <tile gid="5575"/>
   <tile gid="5576"/>
   <tile gid="5577"/>
   <tile gid="5578"/>
   <tile gid="5579"/>
   <tile gid="5580"/>
   <tile gid="5581"/>
   <tile gid="5582"/>
   <tile gid="5570"/>
   <tile gid="5571"/>
   <tile gid="5572"/>
   <tile gid="5573"/>
   <tile gid="5574"/>
   <tile gid="5575"/>
   <tile gid="5576"/>
   <tile gid="5577"/>
   <tile gid="5578"/>
   <tile gid="5579"/>
   <tile gid="5580"/>
   <tile gid="5581"/>
   <tile gid="5582"/>
   <tile gid="5570"/>
   <tile gid="5571"/>
   <tile gid="5572"/>
   <tile gid="5573"/>
   <tile gid="5574"/>
   <tile gid="5575"/>
   <tile gid="5576"/>
   <tile gid="5577"/>
   <tile gid="5578"/>
   <tile gid="5579"/>
   <tile gid="5580"/>
   <tile gid="5581"/>
   <tile gid="5582"/>
   <tile gid="5570"/>
   <tile gid="5571"/>
   <tile gid="5572"/>
   <tile gid="5573"/>
   <tile gid="5574"/>
   <tile gid="5575"/>
   <tile gid="5576"/>
   <tile gid="5577"/>
   <tile gid="5578"/>
   <tile gid="5579"/>
   <tile gid="5580"/>
   <tile gid="5581"/>
   <tile gid="5582"/>
   <tile gid="5570"/>
   <tile gid="5571"/>
   <tile gid="5572"/>
   <tile gid="5573"/>
   <tile gid="5574"/>
   <tile gid="5575"/>
   <tile gid="5576"/>
   <tile gid="5577"/>
   <tile gid="5578"/>
   <tile gid="5579"/>
   <tile gid="5580"/>
   <tile gid="5581"/>
   <tile gid="5582"/>
   <tile gid="5583"/>
   <tile gid="5584"/>
   <tile gid="4082"/>
   <tile gid="4083"/>
   <tile gid="4084"/>
   <tile gid="4085"/>
   <tile gid="4086"/>
   <tile gid="4087"/>
   <tile gid="4088"/>
   <tile gid="4089"/>
   <tile gid="4090"/>
   <tile gid="4091"/>
   <tile gid="4092"/>
   <tile gid="4093"/>
   <tile gid="4094"/>
   <tile/>
   <tile/>
   <tile/>
   <tile/>
   <tile/>
   <tile/>
   <tile/>
   <tile/>
   <tile/>
   <tile/>
   <tile/>
   <tile/>
   <tile/>
   <tile/>
   <tile/>
   <tile/>
   <tile/>
   <tile/>
   <tile/>
   <tile/>
   <tile/>
   <tile/>
   <tile/>
   <tile/>
   <tile/>
   <tile/>
   <tile/>
   <tile/>
   <tile/>
   <tile/>
   <tile/>
   <tile/>
   <tile/>
   <tile/>
   <tile/>
   <tile/>
   <tile/>
   <tile/>
   <tile/>
   <tile gid="5633"/>
   <tile gid="5634"/>
   <tile gid="5635"/>
   <tile gid="5636"/>
   <tile gid="5637"/>
   <tile gid="5638"/>
   <tile gid="5639"/>
   <tile gid="5640"/>
   <tile gid="5641"/>
   <tile gid="5642"/>
   <tile gid="5643"/>
   <tile gid="5644"/>
   <tile gid="5645"/>
   <tile gid="5646"/>
   <tile gid="5634"/>
   <tile gid="5635"/>
   <tile gid="5636"/>
   <tile gid="5637"/>
   <tile gid="5638"/>
   <tile gid="5639"/>
   <tile gid="5640"/>
   <tile gid="5641"/>
   <tile gid="5642"/>
   <tile gid="5643"/>
   <tile gid="5644"/>
   <tile gid="5645"/>
   <tile gid="5646"/>
   <tile gid="5634"/>
   <tile gid="5635"/>
   <tile gid="5636"/>
   <tile gid="5637"/>
   <tile gid="5638"/>
   <tile gid="5639"/>
   <tile gid="5640"/>
   <tile gid="5641"/>
   <tile gid="5642"/>
   <tile gid="5643"/>
   <tile gid="5644"/>
   <tile gid="5645"/>
   <tile gid="5646"/>
   <tile gid="5634"/>
   <tile gid="5635"/>
   <tile gid="5636"/>
   <tile gid="5637"/>
   <tile gid="5638"/>
   <tile gid="5639"/>
   <tile gid="5640"/>
   <tile gid="5641"/>
   <tile gid="5642"/>
   <tile gid="5643"/>
   <tile gid="5644"/>
   <tile gid="5645"/>
   <tile gid="5646"/>
   <tile gid="5634"/>
   <tile gid="5635"/>
   <tile gid="5636"/>
   <tile gid="5637"/>
   <tile gid="5638"/>
   <tile gid="5639"/>
   <tile gid="5640"/>
   <tile gid="5641"/>
   <tile gid="5642"/>
   <tile gid="5643"/>
   <tile gid="5644"/>
   <tile gid="5645"/>
   <tile gid="5646"/>
   <tile gid="5647"/>
   <tile gid="5648"/>
   <tile gid="4146"/>
   <tile gid="4147"/>
   <tile gid="4148"/>
   <tile gid="4149"/>
   <tile gid="4150"/>
   <tile gid="4151"/>
   <tile gid="4152"/>
   <tile gid="4153"/>
   <tile gid="4154"/>
   <tile gid="4155"/>
   <tile gid="4156"/>
   <tile gid="4157"/>
   <tile gid="4158"/>
   <tile/>
   <tile/>
   <tile/>
   <tile/>
   <tile/>
   <tile/>
   <tile/>
   <tile/>
   <tile/>
   <tile/>
   <tile/>
   <tile/>
   <tile/>
   <tile/>
   <tile/>
   <tile/>
   <tile/>
   <tile/>
   <tile/>
   <tile/>
   <tile/>
   <tile/>
   <tile/>
   <tile/>
   <tile/>
   <tile/>
   <tile/>
   <tile/>
   <tile/>
   <tile/>
   <tile/>
   <tile/>
   <tile/>
   <tile/>
   <tile/>
   <tile/>
   <tile/>
   <tile/>
   <tile/>
   <tile gid="5697"/>
   <tile gid="5698"/>
   <tile gid="5699"/>
   <tile gid="5700"/>
   <tile gid="5701"/>
   <tile gid="5702"/>
   <tile gid="5703"/>
   <tile gid="5704"/>
   <tile gid="5705"/>
   <tile gid="5706"/>
   <tile gid="5707"/>
   <tile gid="5708"/>
   <tile gid="5709"/>
   <tile gid="5710"/>
   <tile gid="5698"/>
   <tile gid="5699"/>
   <tile gid="5700"/>
   <tile gid="5701"/>
   <tile gid="5702"/>
   <tile gid="5703"/>
   <tile gid="5704"/>
   <tile gid="5705"/>
   <tile gid="5706"/>
   <tile gid="5707"/>
   <tile gid="5708"/>
   <tile gid="5709"/>
   <tile gid="5710"/>
   <tile gid="5698"/>
   <tile gid="5699"/>
   <tile gid="5700"/>
   <tile gid="5701"/>
   <tile gid="5702"/>
   <tile gid="5703"/>
   <tile gid="5704"/>
   <tile gid="5705"/>
   <tile gid="5706"/>
   <tile gid="5707"/>
   <tile gid="5708"/>
   <tile gid="5709"/>
   <tile gid="5710"/>
   <tile gid="5698"/>
   <tile gid="5699"/>
   <tile gid="5700"/>
   <tile gid="5701"/>
   <tile gid="5702"/>
   <tile gid="5703"/>
   <tile gid="5704"/>
   <tile gid="5705"/>
   <tile gid="5706"/>
   <tile gid="5707"/>
   <tile gid="5708"/>
   <tile gid="5709"/>
   <tile gid="5710"/>
   <tile gid="5698"/>
   <tile gid="5699"/>
   <tile gid="5700"/>
   <tile gid="5701"/>
   <tile gid="5702"/>
   <tile gid="5703"/>
   <tile gid="5704"/>
   <tile gid="5705"/>
   <tile gid="5706"/>
   <tile gid="5707"/>
   <tile gid="5708"/>
   <tile gid="5709"/>
   <tile gid="5710"/>
   <tile gid="5711"/>
   <tile gid="5712"/>
   <tile gid="4210"/>
   <tile gid="4211"/>
   <tile gid="4212"/>
   <tile gid="4213"/>
   <tile gid="4214"/>
   <tile gid="4215"/>
   <tile gid="4216"/>
   <tile gid="4217"/>
   <tile gid="4218"/>
   <tile gid="4219"/>
   <tile gid="4220"/>
   <tile gid="4221"/>
   <tile gid="4222"/>
   <tile/>
   <tile/>
   <tile/>
   <tile/>
   <tile/>
   <tile/>
   <tile/>
   <tile/>
   <tile/>
   <tile/>
   <tile/>
   <tile/>
   <tile/>
   <tile/>
   <tile/>
   <tile/>
   <tile/>
   <tile/>
   <tile/>
   <tile/>
   <tile/>
   <tile/>
   <tile/>
   <tile/>
   <tile/>
   <tile/>
   <tile/>
   <tile/>
   <tile/>
   <tile/>
   <tile/>
   <tile/>
   <tile/>
   <tile/>
   <tile/>
   <tile/>
   <tile/>
   <tile/>
   <tile/>
   <tile gid="5761"/>
   <tile gid="5762"/>
   <tile gid="5763"/>
   <tile gid="5764"/>
   <tile gid="5765"/>
   <tile gid="5766"/>
   <tile gid="5767"/>
   <tile gid="5768"/>
   <tile gid="5769"/>
   <tile gid="5770"/>
   <tile gid="5771"/>
   <tile gid="5772"/>
   <tile gid="5773"/>
   <tile gid="5774"/>
   <tile gid="5762"/>
   <tile gid="5763"/>
   <tile gid="5764"/>
   <tile gid="5765"/>
   <tile gid="5766"/>
   <tile gid="5767"/>
   <tile gid="5768"/>
   <tile gid="5769"/>
   <tile gid="5770"/>
   <tile gid="5771"/>
   <tile gid="5772"/>
   <tile gid="5773"/>
   <tile gid="5774"/>
   <tile gid="5762"/>
   <tile gid="5763"/>
   <tile gid="5764"/>
   <tile gid="5765"/>
   <tile gid="5766"/>
   <tile gid="5767"/>
   <tile gid="5768"/>
   <tile gid="5769"/>
   <tile gid="5770"/>
   <tile gid="5771"/>
   <tile gid="5772"/>
   <tile gid="5773"/>
   <tile gid="5774"/>
   <tile gid="5762"/>
   <tile gid="5763"/>
   <tile gid="5764"/>
   <tile gid="5765"/>
   <tile gid="5766"/>
   <tile gid="5767"/>
   <tile gid="5768"/>
   <tile gid="5769"/>
   <tile gid="5770"/>
   <tile gid="5771"/>
   <tile gid="5772"/>
   <tile gid="5773"/>
   <tile gid="5774"/>
   <tile gid="5762"/>
   <tile gid="5763"/>
   <tile gid="5764"/>
   <tile gid="5765"/>
   <tile gid="5766"/>
   <tile gid="5767"/>
   <tile gid="5768"/>
   <tile gid="5769"/>
   <tile gid="5770"/>
   <tile gid="5771"/>
   <tile gid="5772"/>
   <tile gid="5773"/>
   <tile gid="5774"/>
   <tile gid="5775"/>
   <tile gid="5776"/>
   <tile gid="4274"/>
   <tile gid="4275"/>
   <tile gid="4276"/>
   <tile gid="4277"/>
   <tile gid="4278"/>
   <tile gid="4279"/>
   <tile gid="4280"/>
   <tile gid="4281"/>
   <tile gid="4282"/>
   <tile gid="4283"/>
   <tile gid="4284"/>
   <tile gid="4285"/>
   <tile gid="4286"/>
   <tile/>
   <tile/>
   <tile/>
   <tile/>
   <tile/>
   <tile/>
   <tile/>
   <tile/>
   <tile/>
   <tile/>
   <tile/>
   <tile/>
   <tile/>
   <tile/>
   <tile/>
   <tile/>
   <tile/>
   <tile/>
   <tile/>
   <tile/>
   <tile/>
   <tile/>
   <tile/>
   <tile/>
   <tile/>
   <tile/>
   <tile/>
   <tile/>
   <tile/>
   <tile/>
   <tile/>
   <tile/>
   <tile/>
   <tile/>
   <tile/>
   <tile/>
   <tile/>
   <tile/>
   <tile/>
  </data>
 </layer>
 <layer id="3" name="objetos" width="120" height="90">
  <data>
   <tile/>
   <tile/>
   <tile/>
   <tile/>
   <tile/>
   <tile/>
   <tile/>
   <tile/>
   <tile/>
   <tile/>
   <tile/>
   <tile/>
   <tile/>
   <tile/>
   <tile/>
   <tile/>
   <tile/>
   <tile/>
   <tile/>
   <tile/>
   <tile/>
   <tile/>
   <tile/>
   <tile/>
   <tile/>
   <tile/>
   <tile/>
   <tile/>
   <tile/>
   <tile/>
   <tile/>
   <tile/>
   <tile/>
   <tile/>
   <tile/>
   <tile/>
   <tile/>
   <tile/>
   <tile/>
   <tile/>
   <tile/>
   <tile/>
   <tile/>
   <tile/>
   <tile/>
   <tile/>
   <tile/>
   <tile/>
   <tile/>
   <tile/>
   <tile/>
   <tile/>
   <tile/>
   <tile/>
   <tile/>
   <tile/>
   <tile/>
   <tile/>
   <tile/>
   <tile/>
   <tile/>
   <tile/>
   <tile/>
   <tile/>
   <tile/>
   <tile/>
   <tile/>
   <tile/>
   <tile/>
   <tile/>
   <tile/>
   <tile/>
   <tile/>
   <tile/>
   <tile/>
   <tile/>
   <tile/>
   <tile/>
   <tile/>
   <tile/>
   <tile/>
   <tile/>
   <tile/>
   <tile/>
   <tile/>
   <tile/>
   <tile/>
   <tile/>
   <tile/>
   <tile/>
   <tile/>
   <tile/>
   <tile/>
   <tile/>
   <tile/>
   <tile/>
   <tile/>
   <tile/>
   <tile/>
   <tile/>
   <tile/>
   <tile/>
   <tile/>
   <tile/>
   <tile/>
   <tile/>
   <tile/>
   <tile/>
   <tile/>
   <tile/>
   <tile/>
   <tile/>
   <tile/>
   <tile/>
   <tile/>
   <tile/>
   <tile/>
   <tile/>
   <tile/>
   <tile/>
   <tile/>
   <tile/>
   <tile/>
   <tile/>
   <tile/>
   <tile/>
   <tile/>
   <tile/>
   <tile/>
   <tile/>
   <tile/>
   <tile/>
   <tile/>
   <tile/>
   <tile/>
   <tile/>
   <tile/>
   <tile/>
   <tile/>
   <tile/>
   <tile/>
   <tile/>
   <tile/>
   <tile/>
   <tile/>
   <tile/>
   <tile/>
   <tile/>
   <tile/>
   <tile/>
   <tile/>
   <tile/>
   <tile/>
   <tile/>
   <tile/>
   <tile/>
   <tile/>
   <tile/>
   <tile/>
   <tile/>
   <tile/>
   <tile/>
   <tile/>
   <tile/>
   <tile/>
   <tile/>
   <tile/>
   <tile/>
   <tile/>
   <tile/>
   <tile/>
   <tile/>
   <tile/>
   <tile/>
   <tile/>
   <tile/>
   <tile/>
   <tile/>
   <tile/>
   <tile/>
   <tile/>
   <tile/>
   <tile/>
   <tile/>
   <tile/>
   <tile/>
   <tile/>
   <tile/>
   <tile/>
   <tile/>
   <tile/>
   <tile/>
   <tile/>
   <tile/>
   <tile/>
   <tile/>
   <tile/>
   <tile/>
   <tile/>
   <tile/>
   <tile/>
   <tile/>
   <tile/>
   <tile/>
   <tile/>
   <tile/>
   <tile/>
   <tile/>
   <tile/>
   <tile/>
   <tile/>
   <tile/>
   <tile/>
   <tile/>
   <tile/>
   <tile/>
   <tile/>
   <tile/>
   <tile/>
   <tile/>
   <tile/>
   <tile/>
   <tile/>
   <tile/>
   <tile/>
   <tile/>
   <tile/>
   <tile/>
   <tile/>
   <tile/>
   <tile/>
   <tile/>
   <tile/>
   <tile/>
   <tile/>
   <tile/>
   <tile/>
   <tile/>
   <tile/>
   <tile/>
   <tile/>
   <tile/>
   <tile/>
   <tile/>
   <tile/>
   <tile/>
   <tile/>
   <tile/>
   <tile/>
   <tile/>
   <tile/>
   <tile/>
   <tile/>
   <tile/>
   <tile/>
   <tile/>
   <tile/>
   <tile/>
   <tile/>
   <tile/>
   <tile/>
   <tile/>
   <tile/>
   <tile/>
   <tile/>
   <tile/>
   <tile/>
   <tile/>
   <tile/>
   <tile/>
   <tile/>
   <tile/>
   <tile/>
   <tile/>
   <tile/>
   <tile/>
   <tile/>
   <tile/>
   <tile/>
   <tile/>
   <tile/>
   <tile/>
   <tile/>
   <tile/>
   <tile/>
   <tile/>
   <tile/>
   <tile/>
   <tile/>
   <tile/>
   <tile/>
   <tile/>
   <tile/>
   <tile/>
   <tile/>
   <tile/>
   <tile/>
   <tile/>
   <tile/>
   <tile/>
   <tile/>
   <tile/>
   <tile/>
   <tile/>
   <tile/>
   <tile/>
   <tile/>
   <tile/>
   <tile/>
   <tile/>
   <tile/>
   <tile/>
   <tile/>
   <tile/>
   <tile/>
   <tile/>
   <tile/>
   <tile/>
   <tile/>
   <tile/>
   <tile/>
   <tile/>
   <tile/>
   <tile/>
   <tile/>
   <tile/>
   <tile/>
   <tile/>
   <tile/>
   <tile/>
   <tile/>
   <tile/>
   <tile/>
   <tile/>
   <tile/>
   <tile/>
   <tile/>
   <tile/>
   <tile/>
   <tile/>
   <tile/>
   <tile/>
   <tile/>
   <tile/>
   <tile/>
   <tile/>
   <tile/>
   <tile/>
   <tile/>
   <tile/>
   <tile/>
   <tile/>
   <tile/>
   <tile/>
   <tile/>
   <tile/>
   <tile/>
   <tile/>
   <tile/>
   <tile/>
   <tile/>
   <tile/>
   <tile/>
   <tile/>
   <tile/>
   <tile/>
   <tile/>
   <tile/>
   <tile/>
   <tile/>
   <tile/>
   <tile/>
   <tile/>
   <tile/>
   <tile/>
   <tile/>
   <tile/>
   <tile/>
   <tile/>
   <tile/>
   <tile/>
   <tile/>
   <tile/>
   <tile/>
   <tile/>
   <tile/>
   <tile/>
   <tile/>
   <tile/>
   <tile/>
   <tile/>
   <tile/>
   <tile/>
   <tile/>
   <tile/>
   <tile/>
   <tile/>
   <tile/>
   <tile/>
   <tile/>
   <tile/>
   <tile/>
   <tile/>
   <tile/>
   <tile/>
   <tile/>
   <tile/>
   <tile/>
   <tile/>
   <tile/>
   <tile/>
   <tile/>
   <tile/>
   <tile/>
   <tile/>
   <tile/>
   <tile/>
   <tile/>
   <tile/>
   <tile/>
   <tile/>
   <tile/>
   <tile/>
   <tile/>
   <tile/>
   <tile/>
   <tile/>
   <tile/>
   <tile/>
   <tile/>
   <tile/>
   <tile/>
   <tile/>
   <tile/>
   <tile/>
   <tile/>
   <tile/>
   <tile/>
   <tile/>
   <tile/>
   <tile/>
   <tile/>
   <tile/>
   <tile/>
   <tile/>
   <tile/>
   <tile/>
   <tile/>
   <tile/>
   <tile/>
   <tile/>
   <tile/>
   <tile/>
   <tile/>
   <tile/>
   <tile/>
   <tile/>
   <tile/>
   <tile/>
   <tile/>
   <tile/>
   <tile/>
   <tile/>
   <tile/>
   <tile/>
   <tile/>
   <tile/>
   <tile/>
   <tile/>
   <tile/>
   <tile/>
   <tile/>
   <tile/>
   <tile/>
   <tile/>
   <tile/>
   <tile/>
   <tile/>
   <tile/>
   <tile/>
   <tile/>
   <tile/>
   <tile/>
   <tile/>
   <tile/>
   <tile/>
   <tile/>
   <tile/>
   <tile/>
   <tile/>
   <tile/>
   <tile/>
   <tile/>
   <tile/>
   <tile/>
   <tile/>
   <tile/>
   <tile/>
   <tile/>
   <tile/>
   <tile/>
   <tile/>
   <tile/>
   <tile/>
   <tile/>
   <tile/>
   <tile/>
   <tile/>
   <tile/>
   <tile/>
   <tile/>
   <tile/>
   <tile/>
   <tile/>
   <tile/>
   <tile/>
   <tile/>
   <tile/>
   <tile/>
   <tile/>
   <tile/>
   <tile/>
   <tile/>
   <tile/>
   <tile/>
   <tile/>
   <tile/>
   <tile/>
   <tile/>
   <tile/>
   <tile/>
   <tile/>
   <tile/>
   <tile/>
   <tile/>
   <tile/>
   <tile/>
   <tile/>
   <tile/>
   <tile/>
   <tile/>
   <tile/>
   <tile/>
   <tile/>
   <tile/>
   <tile/>
   <tile/>
   <tile/>
   <tile/>
   <tile/>
   <tile/>
   <tile/>
   <tile/>
   <tile/>
   <tile/>
   <tile/>
   <tile/>
   <tile/>
   <tile/>
   <tile/>
   <tile/>
   <tile/>
   <tile/>
   <tile/>
   <tile/>
   <tile/>
   <tile/>
   <tile/>
   <tile/>
   <tile/>
   <tile/>
   <tile/>
   <tile/>
   <tile/>
   <tile/>
   <tile/>
   <tile/>
   <tile/>
   <tile/>
   <tile/>
   <tile/>
   <tile/>
   <tile/>
   <tile/>
   <tile/>
   <tile/>
   <tile/>
   <tile/>
   <tile/>
   <tile/>
   <tile/>
   <tile/>
   <tile/>
   <tile/>
   <tile/>
   <tile/>
   <tile/>
   <tile/>
   <tile/>
   <tile/>
   <tile/>
   <tile/>
   <tile/>
   <tile/>
   <tile/>
   <tile/>
   <tile/>
   <tile/>
   <tile/>
   <tile/>
   <tile/>
   <tile/>
   <tile/>
   <tile/>
   <tile/>
   <tile/>
   <tile/>
   <tile/>
   <tile/>
   <tile/>
   <tile/>
   <tile/>
   <tile/>
   <tile/>
   <tile/>
   <tile/>
   <tile/>
   <tile/>
   <tile/>
   <tile/>
   <tile/>
   <tile/>
   <tile/>
   <tile/>
   <tile/>
   <tile/>
   <tile/>
   <tile/>
   <tile/>
   <tile/>
   <tile/>
   <tile/>
   <tile/>
   <tile/>
   <tile/>
   <tile/>
   <tile/>
   <tile/>
   <tile/>
   <tile/>
   <tile/>
   <tile/>
   <tile/>
   <tile/>
   <tile/>
   <tile/>
   <tile/>
   <tile/>
   <tile/>
   <tile/>
   <tile/>
   <tile/>
   <tile/>
   <tile/>
   <tile/>
   <tile/>
   <tile/>
   <tile/>
   <tile/>
   <tile/>
   <tile/>
   <tile/>
   <tile/>
   <tile/>
   <tile/>
   <tile/>
   <tile/>
   <tile/>
   <tile/>
   <tile/>
   <tile/>
   <tile/>
   <tile/>
   <tile/>
   <tile/>
   <tile/>
   <tile/>
   <tile/>
   <tile/>
   <tile/>
   <tile/>
   <tile/>
   <tile/>
   <tile/>
   <tile/>
   <tile/>
   <tile/>
   <tile/>
   <tile/>
   <tile/>
   <tile/>
   <tile/>
   <tile/>
   <tile/>
   <tile/>
   <tile/>
   <tile/>
   <tile/>
   <tile/>
   <tile/>
   <tile/>
   <tile/>
   <tile/>
   <tile/>
   <tile/>
   <tile/>
   <tile/>
   <tile/>
   <tile/>
   <tile/>
   <tile/>
   <tile/>
   <tile/>
   <tile/>
   <tile/>
   <tile/>
   <tile/>
   <tile/>
   <tile/>
   <tile/>
   <tile/>
   <tile/>
   <tile/>
   <tile/>
   <tile/>
   <tile/>
   <tile/>
   <tile/>
   <tile/>
   <tile/>
   <tile/>
   <tile/>
   <tile/>
   <tile/>
   <tile/>
   <tile/>
   <tile/>
   <tile/>
   <tile/>
   <tile/>
   <tile/>
   <tile/>
   <tile/>
   <tile/>
   <tile/>
   <tile/>
   <tile/>
   <tile/>
   <tile/>
   <tile/>
   <tile/>
   <tile/>
   <tile/>
   <tile/>
   <tile/>
   <tile/>
   <tile/>
   <tile/>
   <tile/>
   <tile/>
   <tile/>
   <tile/>
   <tile/>
   <tile/>
   <tile/>
   <tile/>
   <tile/>
   <tile/>
   <tile/>
   <tile/>
   <tile/>
   <tile/>
   <tile/>
   <tile/>
   <tile/>
   <tile/>
   <tile/>
   <tile/>
   <tile/>
   <tile/>
   <tile/>
   <tile/>
   <tile/>
   <tile/>
   <tile/>
   <tile/>
   <tile/>
   <tile/>
   <tile/>
   <tile/>
   <tile/>
   <tile/>
   <tile/>
   <tile/>
   <tile/>
   <tile/>
   <tile/>
   <tile/>
   <tile/>
   <tile/>
   <tile/>
   <tile/>
   <tile/>
   <tile/>
   <tile/>
   <tile/>
   <tile/>
   <tile/>
   <tile/>
   <tile/>
   <tile/>
   <tile/>
   <tile/>
   <tile/>
   <tile/>
   <tile/>
   <tile/>
   <tile/>
   <tile/>
   <tile/>
   <tile/>
   <tile/>
   <tile/>
   <tile/>
   <tile/>
   <tile/>
   <tile/>
   <tile/>
   <tile/>
   <tile/>
   <tile/>
   <tile/>
   <tile/>
   <tile/>
   <tile/>
   <tile/>
   <tile/>
   <tile/>
   <tile/>
   <tile/>
   <tile/>
   <tile/>
   <tile/>
   <tile/>
   <tile/>
   <tile/>
   <tile/>
   <tile/>
   <tile/>
   <tile/>
   <tile/>
   <tile/>
   <tile/>
   <tile/>
   <tile/>
   <tile/>
   <tile/>
   <tile/>
   <tile/>
   <tile/>
   <tile/>
   <tile/>
   <tile/>
   <tile/>
   <tile/>
   <tile/>
   <tile/>
   <tile/>
   <tile/>
   <tile/>
   <tile/>
   <tile/>
   <tile/>
   <tile/>
   <tile/>
   <tile/>
   <tile/>
   <tile/>
   <tile/>
   <tile/>
   <tile/>
   <tile/>
   <tile/>
   <tile/>
   <tile/>
   <tile/>
   <tile/>
   <tile/>
   <tile/>
   <tile/>
   <tile/>
   <tile/>
   <tile/>
   <tile/>
   <tile/>
   <tile/>
   <tile/>
   <tile/>
   <tile/>
   <tile/>
   <tile/>
   <tile/>
   <tile/>
   <tile/>
   <tile/>
   <tile/>
   <tile/>
   <tile/>
   <tile/>
   <tile/>
   <tile/>
   <tile/>
   <tile/>
   <tile/>
   <tile/>
   <tile/>
   <tile/>
   <tile/>
   <tile/>
   <tile/>
   <tile/>
   <tile/>
   <tile/>
   <tile/>
   <tile/>
   <tile/>
   <tile/>
   <tile/>
   <tile/>
   <tile/>
   <tile/>
   <tile/>
   <tile/>
   <tile/>
   <tile/>
   <tile/>
   <tile/>
   <tile/>
   <tile/>
   <tile/>
   <tile/>
   <tile/>
   <tile/>
   <tile/>
   <tile/>
   <tile/>
   <tile/>
   <tile/>
   <tile/>
   <tile/>
   <tile/>
   <tile/>
   <tile/>
   <tile/>
   <tile/>
   <tile/>
   <tile/>
   <tile/>
   <tile/>
   <tile/>
   <tile/>
   <tile/>
   <tile/>
   <tile/>
   <tile/>
   <tile/>
   <tile/>
   <tile/>
   <tile/>
   <tile/>
   <tile/>
   <tile/>
   <tile/>
   <tile/>
   <tile/>
   <tile/>
   <tile/>
   <tile/>
   <tile/>
   <tile/>
   <tile/>
   <tile/>
   <tile/>
   <tile/>
   <tile/>
   <tile/>
   <tile/>
   <tile/>
   <tile/>
   <tile/>
   <tile/>
   <tile/>
   <tile/>
   <tile/>
   <tile/>
   <tile/>
   <tile/>
   <tile/>
   <tile/>
   <tile/>
   <tile/>
   <tile/>
   <tile/>
   <tile/>
   <tile/>
   <tile/>
   <tile/>
   <tile/>
   <tile/>
   <tile/>
   <tile/>
   <tile/>
   <tile/>
   <tile/>
   <tile/>
   <tile/>
   <tile/>
   <tile/>
   <tile/>
   <tile/>
   <tile/>
   <tile/>
   <tile/>
   <tile/>
   <tile/>
   <tile/>
   <tile/>
   <tile/>
   <tile/>
   <tile/>
   <tile/>
   <tile/>
   <tile/>
   <tile/>
   <tile/>
   <tile/>
   <tile/>
   <tile/>
   <tile/>
   <tile/>
   <tile/>
   <tile/>
   <tile/>
   <tile/>
   <tile/>
   <tile/>
   <tile/>
   <tile/>
   <tile/>
   <tile/>
   <tile/>
   <tile/>
   <tile/>
   <tile/>
   <tile/>
   <tile/>
   <tile/>
   <tile/>
   <tile/>
   <tile/>
   <tile/>
   <tile/>
   <tile/>
   <tile/>
   <tile/>
   <tile/>
   <tile/>
   <tile/>
   <tile/>
   <tile/>
   <tile/>
   <tile/>
   <tile/>
   <tile/>
   <tile/>
   <tile/>
   <tile/>
   <tile/>
   <tile/>
   <tile/>
   <tile/>
   <tile/>
   <tile/>
   <tile/>
   <tile/>
   <tile/>
   <tile/>
   <tile/>
   <tile/>
   <tile/>
   <tile/>
   <tile/>
   <tile/>
   <tile/>
   <tile/>
   <tile/>
   <tile/>
   <tile/>
   <tile/>
   <tile/>
   <tile/>
   <tile/>
   <tile/>
   <tile/>
   <tile/>
   <tile/>
   <tile/>
   <tile/>
   <tile/>
   <tile/>
   <tile/>
   <tile/>
   <tile/>
   <tile/>
   <tile/>
   <tile/>
   <tile/>
   <tile/>
   <tile/>
   <tile/>
   <tile/>
   <tile/>
   <tile/>
   <tile/>
   <tile/>
   <tile/>
   <tile/>
   <tile/>
   <tile/>
   <tile/>
   <tile/>
   <tile/>
   <tile/>
   <tile/>
   <tile/>
   <tile/>
   <tile/>
   <tile/>
   <tile/>
   <tile/>
   <tile/>
   <tile/>
   <tile/>
   <tile/>
   <tile/>
   <tile/>
   <tile/>
   <tile/>
   <tile/>
   <tile/>
   <tile/>
   <tile/>
   <tile/>
   <tile/>
   <tile/>
   <tile/>
   <tile/>
   <tile/>
   <tile/>
   <tile/>
   <tile/>
   <tile/>
   <tile/>
   <tile/>
   <tile/>
   <tile/>
   <tile/>
   <tile/>
   <tile/>
   <tile/>
   <tile/>
   <tile/>
   <tile/>
   <tile/>
   <tile/>
   <tile/>
   <tile/>
   <tile/>
   <tile/>
   <tile/>
   <tile/>
   <tile/>
   <tile/>
   <tile/>
   <tile/>
   <tile/>
   <tile/>
   <tile/>
   <tile/>
   <tile/>
   <tile/>
   <tile/>
   <tile/>
   <tile/>
   <tile/>
   <tile/>
   <tile/>
   <tile/>
   <tile/>
   <tile/>
   <tile/>
   <tile/>
   <tile/>
   <tile/>
   <tile/>
   <tile/>
   <tile/>
   <tile/>
   <tile/>
   <tile/>
   <tile/>
   <tile/>
   <tile/>
   <tile/>
   <tile/>
   <tile/>
   <tile/>
   <tile/>
   <tile/>
   <tile/>
   <tile/>
   <tile/>
   <tile/>
   <tile/>
   <tile/>
   <tile/>
   <tile/>
   <tile/>
   <tile/>
   <tile/>
   <tile/>
   <tile/>
   <tile/>
   <tile/>
   <tile/>
   <tile/>
   <tile/>
   <tile/>
   <tile/>
   <tile/>
   <tile/>
   <tile/>
   <tile/>
   <tile/>
   <tile/>
   <tile/>
   <tile/>
   <tile/>
   <tile/>
   <tile/>
   <tile/>
   <tile/>
   <tile/>
   <tile/>
   <tile/>
   <tile/>
   <tile/>
   <tile/>
   <tile/>
   <tile/>
   <tile/>
   <tile/>
   <tile/>
   <tile/>
   <tile/>
   <tile/>
   <tile/>
   <tile/>
   <tile/>
   <tile/>
   <tile/>
   <tile/>
   <tile/>
   <tile/>
   <tile/>
   <tile/>
   <tile/>
   <tile/>
   <tile/>
   <tile/>
   <tile/>
   <tile/>
   <tile/>
   <tile/>
   <tile/>
   <tile/>
   <tile/>
   <tile/>
   <tile/>
   <tile/>
   <tile/>
   <tile/>
   <tile/>
   <tile/>
   <tile/>
   <tile/>
   <tile/>
   <tile/>
   <tile/>
   <tile/>
   <tile/>
   <tile/>
   <tile/>
   <tile/>
   <tile/>
   <tile/>
   <tile/>
   <tile/>
   <tile/>
   <tile/>
   <tile/>
   <tile/>
   <tile/>
   <tile/>
   <tile/>
   <tile/>
   <tile/>
   <tile/>
   <tile/>
   <tile/>
   <tile/>
   <tile/>
   <tile/>
   <tile/>
   <tile/>
   <tile/>
   <tile/>
   <tile/>
   <tile/>
   <tile/>
   <tile/>
   <tile/>
   <tile/>
   <tile/>
   <tile/>
   <tile/>
   <tile/>
   <tile/>
   <tile/>
   <tile/>
   <tile/>
   <tile/>
   <tile/>
   <tile/>
   <tile/>
   <tile/>
   <tile/>
   <tile/>
   <tile/>
   <tile/>
   <tile/>
   <tile/>
   <tile/>
   <tile/>
   <tile/>
   <tile/>
   <tile/>
   <tile/>
   <tile/>
   <tile/>
   <tile/>
   <tile/>
   <tile/>
   <tile/>
   <tile/>
   <tile/>
   <tile/>
   <tile/>
   <tile/>
   <tile/>
   <tile/>
   <tile/>
   <tile/>
   <tile/>
   <tile/>
   <tile/>
   <tile/>
   <tile/>
   <tile/>
   <tile/>
   <tile/>
   <tile/>
   <tile/>
   <tile/>
   <tile/>
   <tile/>
   <tile/>
   <tile/>
   <tile/>
   <tile/>
   <tile/>
   <tile/>
   <tile/>
   <tile/>
   <tile/>
   <tile/>
   <tile/>
   <tile/>
   <tile/>
   <tile/>
   <tile/>
   <tile/>
   <tile/>
   <tile/>
   <tile/>
   <tile/>
   <tile/>
   <tile/>
   <tile/>
   <tile/>
   <tile/>
   <tile/>
   <tile/>
   <tile/>
   <tile/>
   <tile/>
   <tile/>
   <tile/>
   <tile/>
   <tile/>
   <tile/>
   <tile/>
   <tile/>
   <tile/>
   <tile/>
   <tile/>
   <tile/>
   <tile/>
   <tile/>
   <tile/>
   <tile/>
   <tile/>
   <tile/>
   <tile/>
   <tile/>
   <tile/>
   <tile/>
   <tile/>
   <tile/>
   <tile/>
   <tile/>
   <tile/>
   <tile/>
   <tile/>
   <tile/>
   <tile/>
   <tile/>
   <tile/>
   <tile/>
   <tile/>
   <tile/>
   <tile/>
   <tile/>
   <tile/>
   <tile/>
   <tile/>
   <tile/>
   <tile/>
   <tile/>
   <tile/>
   <tile/>
   <tile/>
   <tile/>
   <tile/>
   <tile/>
   <tile/>
   <tile/>
   <tile/>
   <tile/>
   <tile/>
   <tile/>
   <tile/>
   <tile/>
   <tile/>
   <tile/>
   <tile/>
   <tile/>
   <tile/>
   <tile/>
   <tile/>
   <tile/>
   <tile/>
   <tile/>
   <tile/>
   <tile/>
   <tile/>
   <tile/>
   <tile/>
   <tile/>
   <tile/>
   <tile/>
   <tile/>
   <tile/>
   <tile/>
   <tile/>
   <tile/>
   <tile/>
   <tile/>
   <tile/>
   <tile/>
   <tile/>
   <tile/>
   <tile/>
   <tile/>
   <tile/>
   <tile/>
   <tile/>
   <tile/>
   <tile/>
   <tile/>
   <tile/>
   <tile/>
   <tile/>
   <tile/>
   <tile/>
   <tile/>
   <tile/>
   <tile/>
   <tile/>
   <tile/>
   <tile/>
   <tile/>
   <tile/>
   <tile/>
   <tile/>
   <tile/>
   <tile/>
   <tile/>
   <tile/>
   <tile/>
   <tile gid="2587"/>
   <tile gid="2588"/>
   <tile/>
   <tile/>
   <tile/>
   <tile/>
   <tile/>
   <tile/>
   <tile/>
   <tile/>
   <tile/>
   <tile/>
   <tile/>
   <tile gid="108"/>
   <tile gid="2588"/>
   <tile/>
   <tile/>
   <tile/>
   <tile/>
   <tile/>
   <tile/>
   <tile/>
   <tile/>
   <tile/>
   <tile/>
   <tile/>
   <tile/>
   <tile/>
   <tile/>
   <tile/>
   <tile/>
   <tile/>
   <tile/>
   <tile/>
   <tile/>
   <tile/>
   <tile/>
   <tile/>
   <tile/>
   <tile/>
   <tile/>
   <tile/>
   <tile/>
   <tile/>
   <tile/>
   <tile/>
   <tile/>
   <tile/>
   <tile/>
   <tile/>
   <tile/>
   <tile/>
   <tile/>
   <tile/>
   <tile/>
   <tile/>
   <tile/>
   <tile/>
   <tile/>
   <tile/>
   <tile/>
   <tile/>
   <tile/>
   <tile/>
   <tile/>
   <tile/>
   <tile/>
   <tile/>
   <tile/>
   <tile/>
   <tile/>
   <tile gid="2268"/>
   <tile gid="2269"/>
   <tile gid="2270"/>
   <tile/>
   <tile/>
   <tile/>
   <tile/>
   <tile/>
   <tile/>
   <tile/>
   <tile/>
   <tile/>
   <tile/>
   <tile/>
   <tile/>
   <tile/>
   <tile/>
   <tile/>
   <tile/>
   <tile/>
   <tile/>
   <tile/>
   <tile/>
   <tile/>
   <tile/>
   <tile/>
   <tile/>
   <tile/>
   <tile/>
   <tile/>
   <tile/>
   <tile/>
   <tile/>
   <tile/>
   <tile/>
   <tile/>
   <tile/>
   <tile/>
   <tile/>
   <tile/>
   <tile/>
   <tile/>
   <tile/>
   <tile/>
   <tile/>
   <tile/>
   <tile/>
   <tile/>
   <tile/>
   <tile gid="2651"/>
   <tile gid="2652"/>
   <tile gid="2653"/>
   <tile/>
   <tile/>
   <tile/>
   <tile/>
   <tile/>
   <tile/>
   <tile/>
   <tile/>
   <tile/>
   <tile/>
   <tile gid="2651"/>
   <tile gid="2652"/>
   <tile gid="2653"/>
   <tile/>
   <tile/>
   <tile/>
   <tile/>
   <tile/>
   <tile/>
   <tile/>
   <tile/>
   <tile/>
   <tile/>
   <tile/>
   <tile/>
   <tile/>
   <tile/>
   <tile/>
   <tile/>
   <tile/>
   <tile/>
   <tile/>
   <tile/>
   <tile/>
   <tile/>
   <tile/>
   <tile/>
   <tile/>
   <tile/>
   <tile/>
   <tile/>
   <tile/>
   <tile/>
   <tile/>
   <tile/>
   <tile/>
   <tile/>
   <tile/>
   <tile/>
   <tile/>
   <tile/>
   <tile/>
   <tile/>
   <tile/>
   <tile/>
   <tile/>
   <tile/>
   <tile/>
   <tile/>
   <tile/>
   <tile/>
   <tile/>
   <tile/>
   <tile/>
   <tile/>
   <tile/>
   <tile/>
   <tile gid="2331"/>
   <tile gid="2332"/>
   <tile gid="2333"/>
   <tile gid="2334"/>
   <tile gid="2335"/>
   <tile/>
   <tile/>
   <tile/>
   <tile/>
   <tile/>
   <tile/>
   <tile/>
   <tile/>
   <tile/>
   <tile/>
   <tile/>
   <tile/>
   <tile/>
   <tile/>
   <tile/>
   <tile/>
   <tile/>
   <tile/>
   <tile/>
   <tile/>
   <tile/>
   <tile/>
   <tile/>
   <tile/>
   <tile/>
   <tile/>
   <tile/>
   <tile/>
   <tile/>
   <tile/>
   <tile/>
   <tile/>
   <tile/>
   <tile/>
   <tile/>
   <tile/>
   <tile/>
   <tile/>
   <tile/>
   <tile/>
   <tile/>
   <tile/>
   <tile/>
   <tile/>
   <tile gid="2714"/>
   <tile gid="2715"/>
   <tile gid="2716"/>
   <tile gid="2717"/>
   <tile gid="2718"/>
   <tile/>
   <tile/>
   <tile/>
   <tile/>
   <tile/>
   <tile/>
   <tile/>
   <tile/>
   <tile gid="2714"/>
   <tile gid="2715"/>
   <tile gid="2716"/>
   <tile gid="2717"/>
   <tile gid="2718"/>
   <tile/>
   <tile/>
   <tile/>
   <tile/>
   <tile/>
   <tile/>
   <tile/>
   <tile/>
   <tile/>
   <tile/>
   <tile/>
   <tile/>
   <tile/>
   <tile/>
   <tile/>
   <tile/>
   <tile/>
   <tile/>
   <tile/>
   <tile/>
   <tile/>
   <tile/>
   <tile/>
   <tile/>
   <tile/>
   <tile/>
   <tile/>
   <tile/>
   <tile/>
   <tile/>
   <tile/>
   <tile/>
   <tile/>
   <tile/>
   <tile/>
   <tile/>
   <tile/>
   <tile/>
   <tile/>
   <tile/>
   <tile/>
   <tile/>
   <tile/>
   <tile/>
   <tile/>
   <tile/>
   <tile/>
   <tile/>
   <tile/>
   <tile/>
   <tile/>
   <tile/>
   <tile/>
   <tile gid="2395"/>
   <tile gid="2396"/>
   <tile gid="2397"/>
   <tile gid="2398"/>
   <tile gid="2399"/>
   <tile/>
   <tile/>
   <tile/>
   <tile/>
   <tile/>
   <tile/>
   <tile/>
   <tile/>
   <tile/>
   <tile/>
   <tile/>
   <tile/>
   <tile/>
   <tile/>
   <tile gid="2274"/>
   <tile gid="2275"/>
   <tile gid="2276"/>
   <tile gid="2277"/>
   <tile gid="2278"/>
   <tile/>
   <tile/>
   <tile/>
   <tile/>
   <tile/>
   <tile/>
   <tile/>
   <tile/>
   <tile/>
   <tile/>
   <tile/>
   <tile/>
   <tile/>
   <tile/>
   <tile/>
   <tile/>
   <tile/>
   <tile/>
   <tile/>
   <tile/>
   <tile/>
   <tile/>
   <tile/>
   <tile/>
   <tile/>
   <tile gid="2778"/>
   <tile gid="2779"/>
   <tile gid="2780"/>
   <tile gid="2781"/>
   <tile gid="2782"/>
   <tile/>
   <tile/>
   <tile/>
   <tile/>
   <tile/>
   <tile/>
   <tile/>
   <tile/>
   <tile gid="2778"/>
   <tile gid="2779"/>
   <tile gid="2780"/>
   <tile gid="2781"/>
   <tile gid="2782"/>
   <tile/>
   <tile/>
   <tile/>
   <tile/>
   <tile/>
   <tile/>
   <tile/>
   <tile/>
   <tile/>
   <tile/>
   <tile/>
   <tile/>
   <tile/>
   <tile/>
   <tile/>
   <tile/>
   <tile/>
   <tile/>
   <tile/>
   <tile/>
   <tile/>
   <tile/>
   <tile/>
   <tile/>
   <tile/>
   <tile/>
   <tile/>
   <tile/>
   <tile/>
   <tile/>
   <tile/>
   <tile/>
   <tile/>
   <tile/>
   <tile/>
   <tile/>
   <tile/>
   <tile/>
   <tile/>
   <tile/>
   <tile/>
   <tile/>
   <tile/>
   <tile/>
   <tile/>
   <tile/>
   <tile/>
   <tile/>
   <tile/>
   <tile/>
   <tile/>
   <tile/>
   <tile/>
   <tile gid="2459"/>
   <tile gid="2460"/>
   <tile gid="2461"/>
   <tile gid="2462"/>
   <tile gid="2463"/>
   <tile/>
   <tile/>
   <tile/>
   <tile/>
   <tile/>
   <tile/>
   <tile/>
   <tile/>
   <tile/>
   <tile/>
   <tile/>
   <tile/>
   <tile/>
   <tile/>
   <tile gid="2338"/>
   <tile gid="2339"/>
   <tile gid="2340"/>
   <tile gid="2341"/>
   <tile gid="2342"/>
   <tile/>
   <tile/>
   <tile/>
   <tile/>
   <tile/>
   <tile/>
   <tile/>
   <tile/>
   <tile/>
   <tile/>
   <tile/>
   <tile/>
   <tile/>
   <tile/>
   <tile/>
   <tile/>
   <tile/>
   <tile/>
   <tile/>
   <tile/>
   <tile/>
   <tile/>
   <tile/>
   <tile/>
   <tile/>
   <tile gid="2842"/>
   <tile gid="2843"/>
   <tile gid="2844"/>
   <tile gid="2845"/>
   <tile gid="2846"/>
   <tile/>
   <tile/>
   <tile/>
   <tile/>
   <tile/>
   <tile/>
   <tile/>
   <tile/>
   <tile gid="2842"/>
   <tile gid="2843"/>
   <tile gid="2844"/>
   <tile gid="2845"/>
   <tile gid="2846"/>
   <tile/>
   <tile/>
   <tile/>
   <tile/>
   <tile/>
   <tile/>
   <tile/>
   <tile/>
   <tile/>
   <tile/>
   <tile/>
   <tile/>
   <tile/>
   <tile/>
   <tile/>
   <tile/>
   <tile/>
   <tile/>
   <tile/>
   <tile/>
   <tile/>
   <tile/>
   <tile/>
   <tile/>
   <tile/>
   <tile/>
   <tile/>
   <tile/>
   <tile/>
   <tile/>
   <tile/>
   <tile/>
   <tile/>
   <tile/>
   <tile/>
   <tile/>
   <tile/>
   <tile/>
   <tile/>
   <tile/>
   <tile/>
   <tile/>
   <tile/>
   <tile/>
   <tile/>
   <tile/>
   <tile/>
   <tile/>
   <tile/>
   <tile/>
   <tile/>
   <tile/>
   <tile/>
   <tile/>
   <tile gid="2524"/>
   <tile gid="2525"/>
   <tile gid="2526"/>
   <tile/>
   <tile/>
   <tile/>
   <tile/>
   <tile/>
   <tile/>
   <tile/>
   <tile/>
   <tile/>
   <tile/>
   <tile/>
   <tile/>
   <tile/>
   <tile/>
   <tile/>
   <tile gid="2402"/>
   <tile gid="2403"/>
   <tile gid="2404"/>
   <tile gid="2405"/>
   <tile gid="2406"/>
   <tile/>
   <tile/>
   <tile/>
   <tile/>
   <tile/>
   <tile/>
   <tile/>
   <tile/>
   <tile/>
   <tile/>
   <tile/>
   <tile/>
   <tile/>
   <tile/>
   <tile/>
   <tile/>
   <tile/>
   <tile/>
   <tile/>
   <tile/>
   <tile/>
   <tile/>
   <tile/>
   <tile/>
   <tile/>
   <tile gid="2906"/>
   <tile gid="2907"/>
   <tile gid="2908"/>
   <tile gid="2909"/>
   <tile gid="2910"/>
   <tile/>
   <tile/>
   <tile/>
   <tile/>
   <tile/>
   <tile/>
   <tile/>
   <tile/>
   <tile gid="2906"/>
   <tile gid="2907"/>
   <tile gid="2908"/>
   <tile gid="2909"/>
   <tile gid="2910"/>
   <tile/>
   <tile/>
   <tile/>
   <tile/>
   <tile/>
   <tile/>
   <tile/>
   <tile/>
   <tile/>
   <tile/>
   <tile/>
   <tile/>
   <tile/>
   <tile/>
   <tile/>
   <tile/>
   <tile/>
   <tile/>
   <tile/>
   <tile/>
   <tile/>
   <tile/>
   <tile/>
   <tile/>
   <tile/>
   <tile/>
   <tile/>
   <tile/>
   <tile/>
   <tile/>
   <tile/>
   <tile/>
   <tile/>
   <tile/>
   <tile/>
   <tile/>
   <tile/>
   <tile/>
   <tile/>
   <tile/>
   <tile/>
   <tile/>
   <tile/>
   <tile/>
   <tile/>
   <tile/>
   <tile/>
   <tile/>
   <tile/>
   <tile/>
   <tile/>
   <tile/>
   <tile/>
   <tile/>
   <tile/>
   <tile/>
   <tile/>
   <tile/>
   <tile/>
   <tile/>
   <tile/>
   <tile/>
   <tile/>
   <tile/>
   <tile/>
   <tile/>
   <tile/>
   <tile/>
   <tile/>
   <tile/>
   <tile/>
   <tile/>
   <tile gid="2466"/>
   <tile gid="2467"/>
   <tile gid="2468"/>
   <tile gid="2469"/>
   <tile gid="2470"/>
   <tile/>
   <tile/>
   <tile/>
   <tile/>
   <tile/>
   <tile/>
   <tile/>
   <tile/>
   <tile/>
   <tile/>
   <tile/>
   <tile/>
   <tile/>
   <tile/>
   <tile/>
   <tile/>
   <tile/>
   <tile/>
   <tile/>
   <tile/>
   <tile/>
   <tile/>
   <tile/>
   <tile/>
   <tile/>
   <tile gid="2970"/>
   <tile gid="2971"/>
   <tile gid="2972"/>
   <tile gid="2973"/>
   <tile gid="2974"/>
   <tile/>
   <tile/>
   <tile/>
   <tile/>
   <tile/>
   <tile/>
   <tile/>
   <tile/>
   <tile gid="2970"/>
   <tile gid="2971"/>
   <tile gid="2972"/>
   <tile gid="2973"/>
   <tile gid="2974"/>
   <tile/>
   <tile/>
   <tile/>
   <tile/>
   <tile/>
   <tile/>
   <tile/>
   <tile/>
   <tile/>
   <tile/>
   <tile/>
   <tile/>
   <tile/>
   <tile gid="5604"/>
   <tile gid="5605"/>
   <tile gid="5606"/>
   <tile/>
   <tile/>
   <tile/>
   <tile/>
   <tile/>
   <tile/>
   <tile/>
   <tile/>
   <tile/>
   <tile/>
   <tile/>
   <tile/>
   <tile/>
   <tile/>
   <tile/>
   <tile/>
   <tile/>
   <tile/>
   <tile/>
   <tile/>
   <tile/>
   <tile/>
   <tile/>
   <tile/>
   <tile/>
   <tile/>
   <tile/>
   <tile/>
   <tile/>
   <tile/>
   <tile/>
   <tile/>
   <tile/>
   <tile/>
   <tile/>
   <tile/>
   <tile/>
   <tile/>
   <tile/>
   <tile/>
   <tile/>
   <tile/>
   <tile/>
   <tile/>
   <tile/>
   <tile/>
   <tile/>
   <tile/>
   <tile/>
   <tile/>
   <tile/>
   <tile/>
   <tile/>
   <tile/>
   <tile/>
   <tile/>
   <tile gid="2530"/>
   <tile gid="2531"/>
   <tile gid="2532"/>
   <tile gid="2533"/>
   <tile gid="2534"/>
   <tile/>
   <tile/>
   <tile/>
   <tile/>
   <tile/>
   <tile/>
   <tile/>
   <tile/>
   <tile/>
   <tile/>
   <tile/>
   <tile/>
   <tile/>
   <tile/>
   <tile/>
   <tile/>
   <tile/>
   <tile/>
   <tile/>
   <tile/>
   <tile/>
   <tile/>
   <tile/>
   <tile/>
   <tile/>
   <tile gid="3034"/>
   <tile gid="3035"/>
   <tile gid="3036"/>
   <tile gid="3037"/>
   <tile gid="3038"/>
   <tile/>
   <tile/>
   <tile/>
   <tile/>
   <tile/>
   <tile/>
   <tile/>
   <tile/>
   <tile gid="3034"/>
   <tile gid="3035"/>
   <tile gid="3036"/>
   <tile gid="3037"/>
   <tile gid="3038"/>
   <tile/>
   <tile/>
   <tile/>
   <tile/>
   <tile/>
   <tile/>
   <tile/>
   <tile/>
   <tile/>
   <tile/>
   <tile/>
   <tile/>
   <tile gid="5667"/>
   <tile gid="5668"/>
   <tile gid="5669"/>
   <tile gid="5670"/>
   <tile/>
   <tile/>
   <tile/>
   <tile/>
   <tile/>
   <tile/>
   <tile/>
   <tile/>
   <tile/>
   <tile/>
   <tile/>
   <tile/>
   <tile/>
   <tile/>
   <tile/>
   <tile/>
   <tile/>
   <tile/>
   <tile/>
   <tile/>
   <tile/>
   <tile/>
   <tile/>
   <tile/>
   <tile/>
   <tile/>
   <tile/>
   <tile/>
   <tile/>
   <tile/>
   <tile/>
   <tile/>
   <tile/>
   <tile/>
   <tile/>
   <tile/>
   <tile/>
   <tile/>
   <tile/>
   <tile/>
   <tile/>
   <tile/>
   <tile/>
   <tile/>
   <tile/>
   <tile/>
   <tile/>
   <tile/>
   <tile/>
   <tile/>
   <tile/>
   <tile/>
   <tile/>
   <tile/>
   <tile/>
   <tile/>
   <tile gid="2594"/>
   <tile gid="2595"/>
   <tile gid="2596"/>
   <tile gid="2597"/>
   <tile gid="2598"/>
   <tile/>
   <tile/>
   <tile/>
   <tile/>
   <tile/>
   <tile/>
   <tile/>
   <tile/>
   <tile/>
   <tile/>
   <tile/>
   <tile/>
   <tile/>
   <tile/>
   <tile/>
   <tile/>
   <tile/>
   <tile/>
   <tile/>
   <tile/>
   <tile/>
   <tile/>
   <tile/>
   <tile/>
   <tile/>
   <tile gid="3098"/>
   <tile gid="3099"/>
   <tile gid="3100"/>
   <tile gid="3101"/>
   <tile gid="3102"/>
   <tile/>
   <tile/>
   <tile/>
   <tile/>
   <tile/>
   <tile/>
   <tile/>
   <tile/>
   <tile gid="3098"/>
   <tile gid="3099"/>
   <tile gid="3100"/>
   <tile gid="3101"/>
   <tile gid="3102"/>
   <tile/>
   <tile/>
   <tile/>
   <tile/>
   <tile/>
   <tile/>
   <tile/>
   <tile/>
   <tile/>
   <tile/>
   <tile/>
   <tile/>
   <tile gid="5731"/>
   <tile gid="5732"/>
   <tile gid="5733"/>
   <tile gid="5734"/>
   <tile/>
   <tile/>
   <tile/>
   <tile/>
   <tile/>
   <tile/>
   <tile/>
   <tile/>
   <tile/>
   <tile/>
   <tile/>
   <tile/>
   <tile/>
   <tile/>
   <tile/>
   <tile/>
   <tile/>
   <tile/>
   <tile/>
   <tile/>
   <tile/>
   <tile/>
   <tile/>
   <tile/>
   <tile/>
   <tile/>
   <tile/>
   <tile/>
   <tile/>
   <tile/>
   <tile/>
   <tile/>
   <tile/>
   <tile/>
   <tile/>
   <tile/>
   <tile/>
   <tile/>
   <tile/>
   <tile/>
   <tile/>
   <tile/>
   <tile/>
   <tile/>
   <tile/>
   <tile/>
   <tile/>
   <tile/>
   <tile/>
   <tile/>
   <tile/>
   <tile/>
   <tile/>
   <tile/>
   <tile/>
   <tile/>
   <tile gid="2658"/>
   <tile gid="2659"/>
   <tile gid="2660"/>
   <tile gid="2661"/>
   <tile gid="2662"/>
   <tile/>
   <tile/>
   <tile/>
   <tile/>
   <tile/>
   <tile/>
   <tile/>
   <tile/>
   <tile/>
   <tile/>
   <tile/>
   <tile/>
   <tile/>
   <tile/>
   <tile/>
   <tile/>
   <tile/>
   <tile/>
   <tile/>
   <tile/>
   <tile/>
   <tile/>
   <tile/>
   <tile/>
   <tile/>
   <tile gid="3162"/>
   <tile gid="3163"/>
   <tile gid="3164"/>
   <tile gid="3165"/>
   <tile gid="3166"/>
   <tile/>
   <tile/>
   <tile/>
   <tile/>
   <tile/>
   <tile/>
   <tile/>
   <tile/>
   <tile gid="3162"/>
   <tile gid="3163"/>
   <tile gid="3164"/>
   <tile gid="3165"/>
   <tile gid="3166"/>
   <tile/>
   <tile/>
   <tile/>
   <tile/>
   <tile/>
   <tile/>
   <tile/>
   <tile/>
   <tile/>
   <tile/>
   <tile/>
   <tile/>
   <tile gid="5795"/>
   <tile gid="5796"/>
   <tile gid="5797"/>
   <tile gid="5798"/>
   <tile/>
   <tile/>
   <tile/>
   <tile/>
   <tile/>
   <tile/>
   <tile/>
   <tile/>
   <tile/>
   <tile/>
   <tile/>
   <tile/>
   <tile/>
   <tile/>
   <tile/>
   <tile/>
   <tile/>
   <tile/>
   <tile/>
   <tile gid="5433"/>
   <tile gid="5434"/>
   <tile gid="5435"/>
   <tile gid="5436"/>
   <tile gid="5437"/>
   <tile gid="5438"/>
   <tile/>
   <tile/>
   <tile/>
   <tile/>
   <tile/>
   <tile/>
   <tile/>
   <tile/>
   <tile/>
   <tile/>
   <tile/>
   <tile/>
   <tile/>
   <tile/>
   <tile/>
   <tile/>
   <tile/>
   <tile/>
   <tile/>
   <tile/>
   <tile/>
   <tile/>
   <tile/>
   <tile/>
   <tile/>
   <tile/>
   <tile/>
   <tile/>
   <tile/>
   <tile/>
   <tile gid="2721"/>
   <tile gid="2722"/>
   <tile gid="2723"/>
   <tile gid="2724"/>
   <tile gid="2725"/>
   <tile gid="2726"/>
   <tile gid="2727"/>
   <tile/>
   <tile/>
   <tile/>
   <tile/>
   <tile/>
   <tile/>
   <tile/>
   <tile/>
   <tile/>
   <tile/>
   <tile/>
   <tile/>
   <tile/>
   <tile/>
   <tile/>
   <tile/>
   <tile/>
   <tile/>
   <tile/>
   <tile/>
   <tile/>
   <tile/>
   <tile/>
   <tile/>
   <tile/>
   <tile/>
   <tile/>
   <tile/>
   <tile/>
   <tile/>
   <tile/>
   <tile/>
   <tile/>
   <tile/>
   <tile/>
   <tile/>
   <tile/>
   <tile/>
   <tile/>
   <tile/>
   <tile/>
   <tile/>
   <tile/>
   <tile/>
   <tile/>
   <tile/>
   <tile/>
   <tile/>
   <tile/>
   <tile/>
   <tile/>
   <tile/>
   <tile/>
   <tile/>
   <tile/>
   <tile gid="5860"/>
   <tile gid="5861"/>
   <tile gid="5862"/>
   <tile/>
   <tile/>
   <tile/>
   <tile/>
   <tile/>
   <tile/>
   <tile/>
   <tile/>
   <tile/>
   <tile/>
   <tile/>
   <tile/>
   <tile/>
   <tile/>
   <tile/>
   <tile/>
   <tile/>
   <tile/>
   <tile gid="5496"/>
   <tile gid="5497"/>
   <tile gid="5498"/>
   <tile gid="5499"/>
   <tile gid="5500"/>
   <tile gid="5501"/>
   <tile gid="5502"/>
   <tile gid="5503"/>
   <tile/>
   <tile/>
   <tile/>
   <tile/>
   <tile/>
   <tile/>
   <tile/>
   <tile/>
   <tile/>
   <tile/>
   <tile/>
   <tile/>
   <tile/>
   <tile/>
   <tile/>
   <tile/>
   <tile/>
   <tile/>
   <tile/>
   <tile/>
   <tile/>
   <tile/>
   <tile/>
   <tile/>
   <tile/>
   <tile/>
   <tile/>
   <tile/>
   <tile/>
   <tile/>
   <tile gid="2786"/>
   <tile gid="2787"/>
   <tile gid="2788"/>
   <tile gid="2789"/>
   <tile gid="2790"/>
   <tile gid="2791"/>
   <tile/>
   <tile/>
   <tile/>
   <tile/>
   <tile/>
   <tile/>
   <tile/>
   <tile/>
   <tile/>
   <tile/>
   <tile/>
   <tile/>
   <tile/>
   <tile/>
   <tile/>
   <tile/>
   <tile/>
   <tile/>
   <tile/>
   <tile/>
   <tile/>
   <tile/>
   <tile/>
   <tile/>
   <tile/>
   <tile/>
   <tile/>
   <tile/>
   <tile/>
   <tile/>
   <tile/>
   <tile/>
   <tile/>
   <tile/>
   <tile/>
   <tile/>
   <tile/>
   <tile/>
   <tile/>
   <tile/>
   <tile/>
   <tile/>
   <tile/>
   <tile/>
   <tile/>
   <tile/>
   <tile/>
   <tile/>
   <tile/>
   <tile/>
   <tile/>
   <tile/>
   <tile/>
   <tile/>
   <tile/>
   <tile/>
   <tile/>
   <tile/>
   <tile/>
   <tile/>
   <tile/>
   <tile/>
   <tile/>
   <tile/>
   <tile/>
   <tile/>
   <tile/>
   <tile/>
   <tile/>
   <tile/>
   <tile/>
   <tile/>
   <tile/>
   <tile/>
   <tile/>
   <tile/>
   <tile gid="5560"/>
   <tile gid="5561"/>
   <tile gid="5562"/>
   <tile gid="5563"/>
   <tile gid="5564"/>
   <tile gid="5565"/>
   <tile gid="5566"/>
   <tile gid="5567"/>
   <tile/>
   <tile/>
   <tile/>
   <tile/>
   <tile/>
   <tile/>
   <tile/>
   <tile/>
   <tile/>
   <tile/>
   <tile/>
   <tile/>
   <tile/>
   <tile/>
   <tile/>
   <tile/>
   <tile/>
   <tile/>
   <tile/>
   <tile/>
   <tile/>
   <tile/>
   <tile/>
   <tile/>
   <tile/>
   <tile/>
   <tile/>
   <tile/>
   <tile/>
   <tile/>
   <tile/>
   <tile/>
   <tile/>
   <tile/>
   <tile/>
   <tile/>
   <tile/>
   <tile/>
   <tile/>
   <tile/>
   <tile/>
   <tile/>
   <tile/>
   <tile/>
   <tile/>
   <tile/>
   <tile/>
   <tile/>
   <tile/>
   <tile/>
   <tile/>
   <tile/>
   <tile/>
   <tile/>
   <tile/>
   <tile/>
   <tile/>
   <tile/>
   <tile/>
   <tile/>
   <tile/>
   <tile/>
   <tile/>
   <tile/>
   <tile/>
   <tile/>
   <tile/>
   <tile/>
   <tile/>
   <tile/>
   <tile/>
   <tile/>
   <tile/>
   <tile/>
   <tile/>
   <tile/>
   <tile/>
   <tile/>
   <tile/>
   <tile/>
   <tile/>
   <tile/>
   <tile/>
   <tile/>
   <tile/>
   <tile/>
   <tile/>
   <tile/>
   <tile/>
   <tile/>
   <tile/>
   <tile/>
   <tile/>
   <tile/>
   <tile/>
   <tile/>
   <tile/>
   <tile/>
   <tile/>
   <tile/>
   <tile/>
   <tile/>
   <tile/>
   <tile/>
   <tile/>
   <tile/>
   <tile/>
   <tile/>
   <tile/>
   <tile/>
   <tile/>
   <tile/>
   <tile gid="5624"/>
   <tile gid="5625"/>
   <tile gid="5626"/>
   <tile gid="5627"/>
   <tile gid="5628"/>
   <tile gid="5629"/>
   <tile gid="5630"/>
   <tile gid="5631"/>
   <tile/>
   <tile/>
   <tile/>
   <tile/>
   <tile/>
   <tile/>
   <tile/>
   <tile/>
   <tile/>
   <tile/>
   <tile/>
   <tile/>
   <tile/>
   <tile/>
   <tile/>
   <tile/>
   <tile/>
   <tile/>
   <tile/>
   <tile/>
   <tile/>
   <tile/>
   <tile/>
   <tile/>
   <tile/>
   <tile/>
   <tile/>
   <tile/>
   <tile/>
   <tile/>
   <tile/>
   <tile/>
   <tile/>
   <tile/>
   <tile/>
   <tile/>
   <tile/>
   <tile/>
   <tile/>
   <tile/>
   <tile/>
   <tile/>
   <tile/>
   <tile/>
   <tile/>
   <tile/>
   <tile/>
   <tile/>
   <tile/>
   <tile/>
   <tile/>
   <tile/>
   <tile/>
   <tile/>
   <tile/>
   <tile/>
   <tile/>
   <tile/>
   <tile/>
   <tile/>
   <tile/>
   <tile/>
   <tile/>
   <tile/>
   <tile/>
   <tile/>
   <tile/>
   <tile/>
   <tile/>
   <tile/>
   <tile/>
   <tile/>
   <tile/>
   <tile/>
   <tile/>
   <tile/>
   <tile/>
   <tile/>
   <tile/>
   <tile/>
   <tile/>
   <tile/>
   <tile/>
   <tile/>
   <tile/>
   <tile/>
   <tile/>
   <tile/>
   <tile/>
   <tile/>
   <tile/>
   <tile/>
   <tile/>
   <tile/>
   <tile/>
   <tile/>
   <tile/>
   <tile/>
   <tile/>
   <tile/>
   <tile/>
   <tile/>
   <tile/>
   <tile/>
   <tile/>
   <tile/>
   <tile/>
   <tile/>
   <tile/>
   <tile/>
   <tile/>
   <tile/>
   <tile gid="5688"/>
   <tile gid="5689"/>
   <tile gid="5690"/>
   <tile gid="5691"/>
   <tile gid="5692"/>
   <tile gid="5693"/>
   <tile gid="5694"/>
   <tile gid="5695"/>
   <tile/>
   <tile/>
   <tile/>
   <tile/>
   <tile/>
   <tile/>
   <tile/>
   <tile/>
   <tile/>
   <tile/>
   <tile/>
   <tile/>
   <tile/>
   <tile/>
   <tile/>
   <tile/>
   <tile/>
   <tile/>
   <tile/>
   <tile/>
   <tile/>
   <tile/>
   <tile/>
   <tile/>
   <tile/>
   <tile/>
   <tile/>
   <tile/>
   <tile/>
   <tile/>
   <tile/>
   <tile/>
   <tile/>
   <tile/>
   <tile/>
   <tile/>
   <tile/>
   <tile/>
   <tile/>
   <tile/>
   <tile/>
   <tile/>
   <tile/>
   <tile/>
   <tile/>
   <tile/>
   <tile/>
   <tile/>
   <tile/>
   <tile/>
   <tile/>
   <tile/>
   <tile/>
   <tile/>
   <tile/>
   <tile/>
   <tile/>
   <tile/>
   <tile/>
   <tile/>
   <tile/>
   <tile/>
   <tile/>
   <tile/>
   <tile/>
   <tile/>
   <tile/>
   <tile/>
   <tile/>
   <tile/>
   <tile/>
   <tile/>
   <tile/>
   <tile/>
   <tile/>
   <tile/>
   <tile/>
   <tile/>
   <tile/>
   <tile/>
   <tile/>
   <tile/>
   <tile/>
   <tile/>
   <tile/>
   <tile/>
   <tile/>
   <tile/>
   <tile/>
   <tile/>
   <tile/>
   <tile/>
   <tile/>
   <tile/>
   <tile/>
   <tile/>
   <tile/>
   <tile/>
   <tile/>
   <tile/>
   <tile/>
   <tile/>
   <tile/>
   <tile/>
   <tile/>
   <tile/>
   <tile/>
   <tile/>
   <tile/>
   <tile/>
   <tile/>
   <tile/>
   <tile gid="5752"/>
   <tile gid="5753"/>
   <tile gid="5754"/>
   <tile gid="5755"/>
   <tile gid="5756"/>
   <tile gid="5757"/>
   <tile gid="5758"/>
   <tile gid="5759"/>
   <tile/>
   <tile/>
   <tile/>
   <tile/>
   <tile/>
   <tile/>
   <tile/>
   <tile/>
   <tile/>
   <tile/>
   <tile/>
   <tile/>
   <tile/>
   <tile/>
   <tile/>
   <tile/>
   <tile/>
   <tile/>
   <tile/>
   <tile/>
   <tile/>
   <tile/>
   <tile/>
   <tile/>
   <tile/>
   <tile/>
   <tile/>
   <tile/>
   <tile/>
   <tile/>
   <tile/>
   <tile/>
   <tile/>
   <tile/>
   <tile/>
   <tile/>
   <tile/>
   <tile/>
   <tile/>
   <tile/>
   <tile/>
   <tile/>
   <tile/>
   <tile/>
   <tile/>
   <tile/>
   <tile/>
   <tile/>
   <tile/>
   <tile/>
   <tile/>
   <tile/>
   <tile/>
   <tile/>
   <tile/>
   <tile/>
   <tile/>
   <tile/>
   <tile/>
   <tile/>
   <tile/>
   <tile/>
   <tile/>
   <tile/>
   <tile/>
   <tile/>
   <tile/>
   <tile/>
   <tile/>
   <tile/>
   <tile/>
   <tile/>
   <tile/>
   <tile/>
   <tile/>
   <tile/>
   <tile/>
   <tile/>
   <tile/>
   <tile/>
   <tile/>
   <tile/>
   <tile/>
   <tile/>
   <tile/>
   <tile/>
   <tile/>
   <tile/>
   <tile/>
   <tile/>
   <tile/>
   <tile/>
   <tile/>
   <tile/>
   <tile/>
   <tile/>
   <tile/>
   <tile/>
   <tile/>
   <tile/>
   <tile/>
   <tile/>
   <tile/>
   <tile/>
   <tile/>
   <tile/>
   <tile/>
   <tile/>
   <tile/>
   <tile/>
   <tile/>
   <tile/>
   <tile gid="5816"/>
   <tile gid="5817"/>
   <tile gid="5818"/>
   <tile gid="5819"/>
   <tile gid="5820"/>
   <tile gid="5821"/>
   <tile gid="5822"/>
   <tile gid="5823"/>
   <tile/>
   <tile/>
   <tile/>
   <tile/>
   <tile/>
   <tile/>
   <tile/>
   <tile/>
   <tile/>
   <tile/>
   <tile/>
   <tile/>
   <tile/>
   <tile/>
   <tile/>
   <tile/>
   <tile/>
   <tile/>
   <tile/>
   <tile/>
   <tile/>
   <tile/>
   <tile/>
   <tile/>
   <tile/>
   <tile/>
   <tile/>
   <tile/>
   <tile/>
   <tile/>
   <tile/>
   <tile/>
   <tile/>
   <tile/>
   <tile/>
   <tile/>
   <tile/>
   <tile/>
   <tile/>
   <tile/>
   <tile/>
   <tile/>
   <tile/>
   <tile/>
   <tile/>
   <tile/>
   <tile/>
   <tile/>
   <tile/>
   <tile/>
   <tile/>
   <tile/>
   <tile/>
   <tile/>
   <tile/>
   <tile/>
   <tile/>
   <tile/>
   <tile/>
   <tile/>
   <tile/>
   <tile/>
   <tile/>
   <tile/>
   <tile/>
   <tile/>
   <tile/>
   <tile/>
   <tile/>
   <tile/>
   <tile/>
   <tile/>
   <tile/>
   <tile/>
   <tile/>
   <tile/>
   <tile/>
   <tile/>
   <tile/>
   <tile/>
   <tile/>
   <tile/>
   <tile/>
   <tile/>
   <tile/>
   <tile/>
   <tile/>
   <tile/>
   <tile/>
   <tile/>
   <tile/>
   <tile/>
   <tile/>
   <tile/>
   <tile/>
   <tile/>
   <tile/>
   <tile/>
   <tile/>
   <tile/>
   <tile/>
   <tile/>
   <tile/>
   <tile/>
   <tile/>
   <tile/>
   <tile/>
   <tile/>
   <tile/>
   <tile/>
   <tile/>
   <tile/>
   <tile/>
   <tile gid="5881"/>
   <tile gid="5882"/>
   <tile gid="5883"/>
   <tile gid="5884"/>
   <tile gid="5885"/>
   <tile/>
   <tile/>
   <tile/>
   <tile/>
   <tile/>
   <tile/>
   <tile/>
   <tile/>
   <tile/>
   <tile/>
   <tile/>
   <tile/>
   <tile/>
   <tile/>
   <tile/>
   <tile/>
   <tile/>
   <tile/>
   <tile/>
   <tile/>
   <tile/>
   <tile/>
   <tile/>
   <tile/>
   <tile/>
   <tile/>
   <tile/>
   <tile/>
   <tile/>
   <tile/>
   <tile/>
   <tile/>
   <tile/>
   <tile/>
   <tile/>
   <tile/>
   <tile/>
   <tile/>
   <tile/>
   <tile/>
   <tile/>
   <tile/>
   <tile/>
   <tile/>
   <tile/>
   <tile/>
   <tile/>
   <tile/>
   <tile/>
   <tile/>
   <tile/>
   <tile/>
   <tile/>
   <tile/>
   <tile/>
   <tile/>
   <tile/>
   <tile/>
   <tile/>
   <tile/>
   <tile/>
   <tile/>
   <tile/>
   <tile/>
   <tile/>
   <tile/>
   <tile/>
   <tile/>
   <tile/>
   <tile/>
   <tile/>
   <tile/>
   <tile/>
   <tile/>
   <tile/>
   <tile/>
   <tile/>
   <tile/>
   <tile/>
   <tile/>
   <tile/>
   <tile/>
   <tile/>
   <tile/>
   <tile/>
   <tile/>
   <tile/>
   <tile/>
   <tile/>
   <tile/>
   <tile/>
   <tile/>
   <tile/>
   <tile/>
   <tile/>
   <tile/>
   <tile/>
   <tile/>
   <tile/>
   <tile/>
   <tile/>
   <tile/>
   <tile/>
   <tile/>
   <tile/>
   <tile/>
   <tile/>
   <tile/>
   <tile/>
   <tile/>
   <tile/>
   <tile/>
   <tile/>
   <tile/>
   <tile/>
   <tile/>
   <tile/>
   <tile/>
   <tile/>
   <tile/>
   <tile/>
   <tile/>
   <tile/>
   <tile/>
   <tile/>
   <tile/>
   <tile/>
   <tile/>
   <tile/>
   <tile/>
   <tile/>
   <tile/>
   <tile/>
   <tile/>
   <tile/>
   <tile/>
   <tile/>
   <tile/>
   <tile/>
   <tile/>
   <tile/>
   <tile/>
   <tile/>
   <tile/>
   <tile/>
   <tile/>
   <tile/>
   <tile/>
   <tile/>
   <tile/>
   <tile/>
   <tile/>
   <tile/>
   <tile/>
   <tile/>
   <tile/>
   <tile/>
   <tile/>
   <tile/>
   <tile/>
   <tile/>
   <tile/>
   <tile/>
   <tile/>
   <tile/>
   <tile/>
   <tile/>
   <tile/>
   <tile/>
   <tile/>
   <tile/>
   <tile/>
   <tile/>
   <tile/>
   <tile/>
   <tile/>
   <tile/>
   <tile/>
   <tile/>
   <tile/>
   <tile/>
   <tile/>
   <tile/>
   <tile/>
   <tile/>
   <tile/>
   <tile/>
   <tile/>
   <tile/>
   <tile/>
   <tile/>
   <tile/>
   <tile/>
   <tile/>
   <tile/>
   <tile/>
   <tile/>
   <tile gid="5043"/>
   <tile gid="5044"/>
   <tile gid="5045"/>
   <tile/>
   <tile/>
   <tile/>
   <tile/>
   <tile/>
   <tile/>
   <tile/>
   <tile/>
   <tile/>
   <tile/>
   <tile/>
   <tile/>
   <tile/>
   <tile/>
   <tile/>
   <tile/>
   <tile/>
   <tile/>
   <tile/>
   <tile/>
   <tile/>
   <tile/>
   <tile/>
   <tile/>
   <tile/>
   <tile/>
   <tile/>
   <tile/>
   <tile/>
   <tile/>
   <tile/>
   <tile/>
   <tile/>
   <tile/>
   <tile/>
   <tile/>
   <tile/>
   <tile/>
   <tile/>
   <tile/>
   <tile/>
   <tile/>
   <tile/>
   <tile/>
   <tile/>
   <tile/>
   <tile/>
   <tile/>
   <tile/>
   <tile/>
   <tile/>
   <tile/>
   <tile/>
   <tile/>
   <tile/>
   <tile/>
   <tile/>
   <tile/>
   <tile/>
   <tile/>
   <tile/>
   <tile/>
   <tile/>
   <tile/>
   <tile/>
   <tile/>
   <tile/>
   <tile/>
   <tile/>
   <tile/>
   <tile/>
   <tile/>
   <tile/>
   <tile/>
   <tile/>
   <tile/>
   <tile/>
   <tile/>
   <tile/>
   <tile/>
   <tile/>
   <tile/>
   <tile/>
   <tile/>
   <tile/>
   <tile/>
   <tile/>
   <tile/>
   <tile/>
   <tile/>
   <tile/>
   <tile/>
   <tile/>
   <tile/>
   <tile/>
   <tile/>
   <tile/>
   <tile/>
   <tile/>
   <tile/>
   <tile/>
   <tile/>
   <tile/>
   <tile/>
   <tile/>
   <tile/>
   <tile/>
   <tile/>
   <tile/>
   <tile/>
   <tile/>
   <tile/>
   <tile/>
   <tile/>
   <tile/>
   <tile/>
   <tile gid="5106"/>
   <tile gid="5107"/>
   <tile gid="5108"/>
   <tile gid="5109"/>
   <tile gid="5110"/>
   <tile/>
   <tile/>
   <tile/>
   <tile/>
   <tile/>
   <tile/>
   <tile/>
   <tile/>
   <tile/>
   <tile/>
   <tile/>
   <tile/>
   <tile/>
   <tile/>
   <tile/>
   <tile/>
   <tile/>
   <tile/>
   <tile/>
   <tile/>
   <tile/>
   <tile/>
   <tile/>
   <tile/>
   <tile/>
   <tile/>
   <tile/>
   <tile/>
   <tile/>
   <tile/>
   <tile/>
   <tile/>
   <tile/>
   <tile/>
   <tile/>
   <tile/>
   <tile/>
   <tile/>
   <tile/>
   <tile/>
   <tile/>
   <tile/>
   <tile/>
   <tile/>
   <tile/>
   <tile/>
   <tile/>
   <tile/>
   <tile/>
   <tile/>
   <tile/>
   <tile/>
   <tile/>
   <tile/>
   <tile/>
   <tile/>
   <tile/>
   <tile/>
   <tile/>
   <tile/>
   <tile/>
   <tile/>
   <tile/>
   <tile/>
   <tile/>
   <tile/>
   <tile/>
   <tile/>
   <tile/>
   <tile/>
   <tile/>
   <tile/>
   <tile/>
   <tile/>
   <tile/>
   <tile/>
   <tile/>
   <tile/>
   <tile/>
   <tile/>
   <tile/>
   <tile/>
   <tile/>
   <tile/>
   <tile/>
   <tile/>
   <tile/>
   <tile/>
   <tile/>
   <tile/>
   <tile/>
   <tile/>
   <tile/>
   <tile/>
   <tile/>
   <tile/>
   <tile/>
   <tile/>
   <tile/>
   <tile/>
   <tile/>
   <tile/>
   <tile/>
   <tile/>
   <tile/>
   <tile/>
   <tile/>
   <tile/>
   <tile/>
   <tile/>
   <tile/>
   <tile/>
   <tile/>
   <tile/>
   <tile gid="5169"/>
   <tile gid="5170"/>
   <tile gid="5171"/>
   <tile gid="5172"/>
   <tile gid="5173"/>
   <tile gid="5174"/>
   <tile gid="5175"/>
   <tile/>
   <tile/>
   <tile/>
   <tile/>
   <tile/>
   <tile/>
   <tile/>
   <tile/>
   <tile/>
   <tile/>
   <tile/>
   <tile/>
   <tile/>
   <tile/>
   <tile/>
   <tile/>
   <tile/>
   <tile/>
   <tile/>
   <tile/>
   <tile/>
   <tile/>
   <tile/>
   <tile/>
   <tile/>
   <tile/>
   <tile/>
   <tile/>
   <tile/>
   <tile/>
   <tile/>
   <tile/>
   <tile/>
   <tile/>
   <tile/>
   <tile/>
   <tile/>
   <tile/>
   <tile/>
   <tile/>
   <tile/>
   <tile/>
   <tile/>
   <tile/>
   <tile/>
   <tile/>
   <tile/>
   <tile/>
   <tile/>
   <tile/>
   <tile/>
   <tile/>
   <tile/>
   <tile/>
   <tile/>
   <tile/>
   <tile/>
   <tile/>
   <tile/>
   <tile/>
   <tile/>
   <tile/>
   <tile/>
   <tile/>
   <tile/>
   <tile/>
   <tile/>
   <tile/>
   <tile/>
   <tile/>
   <tile/>
   <tile/>
   <tile/>
   <tile/>
   <tile/>
   <tile/>
   <tile/>
   <tile/>
   <tile/>
   <tile/>
   <tile/>
   <tile/>
   <tile/>
   <tile/>
   <tile/>
   <tile/>
   <tile/>
   <tile/>
   <tile/>
   <tile/>
   <tile/>
   <tile/>
   <tile/>
   <tile/>
   <tile/>
   <tile/>
   <tile/>
   <tile/>
   <tile/>
   <tile/>
   <tile/>
   <tile/>
   <tile/>
   <tile/>
   <tile/>
   <tile/>
   <tile/>
   <tile/>
   <tile/>
   <tile/>
   <tile/>
   <tile/>
   <tile/>
   <tile gid="5233"/>
   <tile gid="5234"/>
   <tile gid="5235"/>
   <tile gid="5236"/>
   <tile gid="5237"/>
   <tile gid="5238"/>
   <tile gid="5239"/>
   <tile/>
   <tile/>
   <tile/>
   <tile/>
   <tile/>
   <tile/>
   <tile/>
   <tile/>
   <tile/>
   <tile/>
   <tile/>
   <tile/>
   <tile/>
   <tile/>
   <tile/>
   <tile/>
   <tile/>
   <tile/>
   <tile/>
   <tile/>
   <tile/>
   <tile/>
   <tile/>
   <tile/>
   <tile/>
   <tile/>
   <tile/>
   <tile/>
   <tile/>
   <tile/>
   <tile/>
   <tile/>
   <tile/>
   <tile/>
   <tile/>
   <tile/>
   <tile/>
   <tile/>
   <tile/>
   <tile/>
   <tile/>
   <tile/>
   <tile/>
   <tile/>
   <tile/>
   <tile/>
   <tile/>
   <tile/>
   <tile/>
   <tile/>
   <tile/>
   <tile/>
   <tile/>
   <tile/>
   <tile/>
   <tile/>
   <tile/>
   <tile/>
   <tile/>
   <tile/>
   <tile/>
   <tile/>
   <tile/>
   <tile/>
   <tile/>
   <tile/>
   <tile/>
   <tile/>
   <tile/>
   <tile/>
   <tile/>
   <tile/>
   <tile/>
   <tile/>
   <tile/>
   <tile/>
   <tile/>
   <tile/>
   <tile/>
   <tile/>
   <tile/>
   <tile/>
   <tile/>
   <tile/>
   <tile/>
   <tile/>
   <tile/>
   <tile/>
   <tile/>
   <tile/>
   <tile/>
   <tile/>
   <tile/>
   <tile/>
   <tile/>
   <tile/>
   <tile/>
   <tile/>
   <tile/>
   <tile/>
   <tile/>
   <tile/>
   <tile/>
   <tile/>
   <tile/>
   <tile/>
   <tile/>
   <tile/>
   <tile/>
   <tile/>
   <tile/>
   <tile/>
   <tile/>
   <tile gid="5297"/>
   <tile gid="5298"/>
   <tile gid="5299"/>
   <tile gid="5300"/>
   <tile gid="5301"/>
   <tile gid="5302"/>
   <tile/>
   <tile/>
   <tile/>
   <tile/>
   <tile/>
   <tile/>
   <tile/>
   <tile/>
   <tile/>
   <tile/>
   <tile/>
   <tile/>
   <tile/>
   <tile/>
   <tile/>
   <tile/>
   <tile/>
   <tile/>
   <tile/>
   <tile/>
   <tile/>
   <tile/>
   <tile/>
   <tile/>
   <tile/>
   <tile/>
   <tile/>
   <tile/>
   <tile/>
   <tile/>
   <tile/>
   <tile/>
   <tile/>
   <tile/>
   <tile/>
   <tile/>
   <tile/>
   <tile/>
   <tile/>
   <tile/>
   <tile/>
   <tile/>
   <tile/>
   <tile/>
   <tile/>
   <tile/>
   <tile/>
   <tile/>
   <tile/>
   <tile/>
   <tile/>
   <tile/>
   <tile/>
   <tile/>
   <tile/>
   <tile/>
   <tile/>
   <tile/>
   <tile/>
   <tile/>
   <tile/>
   <tile/>
   <tile/>
   <tile/>
   <tile/>
   <tile/>
   <tile/>
   <tile/>
   <tile/>
   <tile/>
   <tile/>
   <tile/>
   <tile/>
   <tile/>
   <tile/>
   <tile/>
   <tile/>
   <tile/>
   <tile/>
   <tile/>
   <tile/>
   <tile/>
   <tile/>
   <tile/>
   <tile/>
   <tile/>
   <tile/>
   <tile/>
   <tile/>
   <tile/>
   <tile/>
   <tile/>
   <tile/>
   <tile/>
   <tile/>
   <tile/>
   <tile/>
   <tile/>
   <tile/>
   <tile/>
   <tile/>
   <tile/>
   <tile/>
   <tile/>
   <tile/>
   <tile/>
   <tile/>
   <tile/>
   <tile/>
   <tile/>
   <tile/>
   <tile/>
   <tile/>
   <tile/>
   <tile/>
   <tile/>
   <tile/>
   <tile/>
   <tile/>
   <tile/>
   <tile/>
   <tile/>
   <tile/>
   <tile/>
   <tile/>
   <tile/>
   <tile/>
   <tile/>
   <tile/>
   <tile/>
   <tile/>
   <tile/>
   <tile/>
   <tile/>
   <tile/>
   <tile/>
   <tile/>
   <tile/>
   <tile/>
   <tile/>
   <tile/>
   <tile/>
   <tile/>
   <tile/>
   <tile/>
   <tile/>
   <tile/>
   <tile/>
   <tile/>
   <tile/>
   <tile/>
   <tile/>
   <tile/>
   <tile/>
   <tile/>
   <tile/>
   <tile/>
   <tile/>
   <tile/>
   <tile/>
   <tile/>
   <tile/>
   <tile/>
   <tile/>
   <tile/>
   <tile/>
   <tile/>
   <tile/>
   <tile/>
   <tile/>
   <tile/>
   <tile/>
   <tile/>
   <tile/>
   <tile/>
   <tile/>
   <tile/>
   <tile/>
   <tile/>
   <tile/>
   <tile/>
   <tile/>
   <tile/>
   <tile/>
   <tile/>
   <tile/>
   <tile/>
   <tile/>
   <tile/>
   <tile/>
   <tile/>
   <tile/>
   <tile/>
   <tile/>
   <tile/>
   <tile/>
   <tile/>
   <tile/>
   <tile/>
   <tile/>
   <tile/>
   <tile/>
   <tile/>
   <tile/>
   <tile/>
   <tile/>
   <tile/>
   <tile/>
   <tile/>
   <tile/>
   <tile/>
   <tile/>
   <tile/>
   <tile/>
   <tile/>
   <tile/>
   <tile/>
   <tile/>
   <tile/>
   <tile/>
   <tile/>
   <tile/>
   <tile/>
   <tile/>
   <tile/>
   <tile/>
   <tile/>
   <tile/>
   <tile/>
   <tile/>
   <tile/>
   <tile/>
   <tile/>
   <tile/>
   <tile/>
   <tile/>
   <tile/>
   <tile/>
   <tile/>
   <tile/>
   <tile/>
   <tile/>
   <tile/>
   <tile/>
   <tile/>
   <tile/>
   <tile/>
   <tile/>
   <tile/>
   <tile/>
   <tile/>
   <tile/>
   <tile/>
   <tile/>
   <tile/>
   <tile/>
   <tile/>
   <tile/>
   <tile/>
   <tile/>
   <tile/>
   <tile/>
   <tile/>
   <tile/>
   <tile/>
   <tile/>
   <tile/>
   <tile/>
   <tile/>
   <tile/>
   <tile/>
   <tile/>
   <tile/>
   <tile/>
   <tile/>
   <tile/>
   <tile/>
   <tile/>
   <tile/>
   <tile/>
   <tile/>
   <tile/>
   <tile/>
   <tile/>
   <tile/>
   <tile/>
   <tile/>
   <tile/>
   <tile/>
   <tile/>
   <tile/>
   <tile/>
   <tile/>
   <tile/>
   <tile/>
   <tile/>
   <tile/>
   <tile/>
   <tile/>
   <tile/>
   <tile/>
   <tile/>
   <tile/>
   <tile/>
   <tile/>
   <tile/>
   <tile/>
   <tile/>
   <tile/>
   <tile/>
   <tile/>
   <tile/>
   <tile/>
   <tile/>
   <tile/>
   <tile/>
   <tile/>
   <tile/>
   <tile/>
   <tile/>
   <tile/>
   <tile/>
   <tile/>
   <tile/>
   <tile/>
   <tile/>
   <tile/>
   <tile/>
   <tile/>
   <tile/>
   <tile/>
   <tile/>
   <tile/>
   <tile/>
   <tile/>
   <tile/>
   <tile/>
   <tile/>
   <tile/>
   <tile/>
   <tile/>
   <tile/>
   <tile/>
   <tile/>
   <tile/>
   <tile/>
   <tile/>
   <tile/>
   <tile/>
   <tile/>
   <tile/>
   <tile/>
   <tile/>
   <tile/>
   <tile/>
   <tile/>
   <tile/>
   <tile/>
   <tile/>
   <tile/>
   <tile/>
   <tile/>
   <tile/>
   <tile/>
   <tile/>
   <tile/>
   <tile/>
   <tile/>
   <tile/>
   <tile/>
   <tile/>
   <tile/>
   <tile/>
   <tile/>
   <tile/>
   <tile/>
   <tile/>
   <tile/>
   <tile/>
   <tile/>
   <tile/>
   <tile/>
   <tile/>
   <tile/>
   <tile/>
   <tile/>
   <tile/>
   <tile/>
   <tile/>
   <tile/>
   <tile/>
   <tile/>
   <tile/>
   <tile/>
   <tile/>
   <tile/>
   <tile/>
   <tile/>
   <tile/>
   <tile/>
   <tile/>
   <tile/>
   <tile/>
   <tile/>
   <tile/>
   <tile/>
   <tile/>
   <tile/>
   <tile/>
   <tile/>
   <tile/>
   <tile/>
   <tile/>
   <tile/>
   <tile/>
   <tile/>
   <tile/>
   <tile/>
   <tile/>
   <tile/>
   <tile/>
   <tile/>
   <tile/>
   <tile/>
   <tile/>
   <tile/>
   <tile/>
   <tile/>
   <tile/>
   <tile/>
   <tile/>
   <tile/>
   <tile/>
   <tile/>
   <tile/>
   <tile/>
   <tile/>
   <tile/>
   <tile/>
   <tile/>
   <tile/>
   <tile/>
   <tile/>
   <tile/>
   <tile/>
   <tile/>
   <tile/>
   <tile/>
   <tile/>
   <tile/>
   <tile/>
   <tile/>
   <tile/>
   <tile/>
   <tile/>
   <tile/>
   <tile/>
   <tile/>
   <tile/>
   <tile/>
   <tile/>
   <tile/>
   <tile/>
   <tile/>
   <tile/>
   <tile/>
   <tile/>
   <tile/>
   <tile/>
   <tile/>
   <tile/>
   <tile/>
   <tile/>
   <tile/>
   <tile/>
   <tile/>
   <tile/>
   <tile/>
   <tile/>
   <tile/>
   <tile/>
   <tile/>
   <tile/>
   <tile/>
   <tile/>
   <tile/>
   <tile/>
   <tile/>
   <tile/>
   <tile/>
   <tile/>
   <tile/>
   <tile/>
   <tile/>
   <tile/>
   <tile/>
   <tile/>
   <tile/>
   <tile/>
   <tile/>
   <tile/>
   <tile/>
   <tile/>
   <tile/>
   <tile/>
   <tile/>
   <tile/>
   <tile/>
   <tile/>
   <tile/>
   <tile/>
   <tile/>
   <tile/>
   <tile/>
   <tile/>
   <tile/>
   <tile/>
   <tile/>
   <tile/>
   <tile/>
   <tile/>
   <tile/>
   <tile/>
   <tile/>
   <tile/>
   <tile/>
   <tile/>
   <tile/>
   <tile/>
   <tile/>
   <tile/>
   <tile/>
   <tile/>
   <tile/>
   <tile/>
   <tile/>
   <tile/>
   <tile/>
   <tile/>
   <tile/>
   <tile/>
   <tile/>
   <tile/>
   <tile/>
   <tile/>
   <tile/>
   <tile/>
   <tile/>
   <tile/>
   <tile/>
   <tile/>
   <tile/>
   <tile/>
   <tile/>
   <tile/>
   <tile/>
   <tile/>
   <tile/>
   <tile/>
   <tile/>
   <tile/>
   <tile/>
   <tile/>
   <tile/>
   <tile/>
   <tile/>
   <tile/>
   <tile/>
   <tile/>
   <tile/>
   <tile/>
   <tile/>
   <tile/>
   <tile/>
   <tile/>
   <tile/>
   <tile/>
   <tile/>
   <tile/>
   <tile/>
   <tile/>
   <tile/>
   <tile/>
   <tile/>
   <tile/>
   <tile/>
   <tile/>
   <tile/>
   <tile/>
   <tile/>
   <tile/>
   <tile/>
   <tile/>
   <tile/>
   <tile/>
   <tile/>
   <tile/>
   <tile/>
   <tile/>
   <tile/>
   <tile/>
   <tile/>
   <tile/>
   <tile/>
   <tile/>
   <tile/>
   <tile/>
   <tile/>
   <tile/>
   <tile/>
   <tile/>
   <tile/>
   <tile/>
   <tile/>
   <tile/>
   <tile/>
   <tile/>
   <tile/>
   <tile/>
   <tile/>
   <tile/>
   <tile/>
   <tile/>
   <tile/>
   <tile/>
   <tile/>
   <tile/>
   <tile/>
   <tile/>
   <tile/>
   <tile/>
   <tile/>
   <tile/>
   <tile/>
   <tile/>
   <tile/>
   <tile/>
   <tile/>
   <tile/>
   <tile/>
   <tile/>
   <tile/>
   <tile/>
   <tile/>
   <tile/>
   <tile/>
   <tile/>
   <tile/>
   <tile/>
   <tile/>
   <tile/>
   <tile/>
   <tile/>
   <tile/>
   <tile/>
   <tile/>
   <tile/>
   <tile/>
   <tile/>
   <tile/>
   <tile/>
   <tile/>
   <tile/>
   <tile/>
   <tile/>
   <tile/>
   <tile/>
   <tile/>
   <tile/>
   <tile/>
   <tile/>
   <tile/>
   <tile/>
   <tile/>
   <tile/>
   <tile/>
   <tile/>
   <tile/>
   <tile/>
   <tile/>
   <tile/>
   <tile/>
   <tile/>
   <tile/>
   <tile/>
   <tile/>
   <tile/>
   <tile/>
   <tile/>
   <tile/>
   <tile/>
   <tile/>
   <tile/>
   <tile/>
   <tile/>
   <tile/>
   <tile/>
   <tile/>
   <tile/>
   <tile/>
   <tile/>
   <tile/>
   <tile/>
   <tile/>
   <tile/>
   <tile/>
   <tile/>
   <tile/>
   <tile/>
   <tile/>
   <tile/>
   <tile/>
   <tile/>
   <tile/>
   <tile/>
   <tile/>
   <tile/>
   <tile/>
   <tile/>
   <tile/>
   <tile/>
   <tile/>
   <tile/>
   <tile/>
   <tile/>
   <tile/>
   <tile/>
   <tile/>
   <tile/>
   <tile/>
   <tile/>
   <tile/>
   <tile/>
   <tile/>
   <tile/>
   <tile/>
   <tile/>
   <tile/>
   <tile/>
   <tile/>
   <tile/>
   <tile/>
   <tile/>
   <tile/>
   <tile/>
   <tile/>
   <tile/>
   <tile/>
   <tile/>
   <tile/>
   <tile/>
   <tile/>
   <tile/>
   <tile/>
   <tile/>
   <tile/>
   <tile/>
   <tile/>
   <tile/>
   <tile/>
   <tile/>
   <tile/>
   <tile/>
   <tile/>
   <tile/>
   <tile/>
   <tile/>
   <tile/>
   <tile/>
   <tile/>
   <tile/>
   <tile/>
   <tile/>
   <tile/>
   <tile/>
   <tile/>
   <tile/>
   <tile/>
   <tile/>
   <tile/>
   <tile/>
   <tile/>
   <tile/>
   <tile/>
   <tile/>
   <tile/>
   <tile/>
   <tile/>
   <tile/>
   <tile/>
   <tile/>
   <tile/>
   <tile/>
   <tile/>
   <tile/>
   <tile/>
   <tile/>
   <tile/>
   <tile/>
   <tile/>
   <tile/>
   <tile/>
   <tile/>
   <tile/>
   <tile/>
   <tile/>
   <tile/>
   <tile/>
   <tile/>
   <tile/>
   <tile/>
   <tile/>
   <tile/>
   <tile/>
   <tile/>
   <tile/>
   <tile/>
   <tile/>
   <tile/>
   <tile/>
   <tile/>
   <tile/>
   <tile/>
   <tile/>
   <tile/>
   <tile/>
   <tile/>
   <tile/>
   <tile/>
   <tile/>
   <tile/>
   <tile/>
   <tile/>
   <tile/>
   <tile/>
   <tile/>
   <tile/>
   <tile/>
   <tile/>
   <tile/>
   <tile/>
   <tile/>
   <tile/>
   <tile/>
   <tile/>
   <tile/>
   <tile/>
   <tile/>
   <tile/>
   <tile/>
   <tile/>
   <tile/>
   <tile/>
   <tile/>
   <tile/>
   <tile/>
   <tile/>
   <tile/>
   <tile/>
   <tile/>
   <tile/>
   <tile/>
   <tile/>
   <tile/>
   <tile/>
   <tile/>
   <tile/>
   <tile/>
   <tile/>
   <tile/>
   <tile/>
   <tile/>
   <tile/>
   <tile/>
   <tile/>
   <tile/>
   <tile/>
   <tile/>
   <tile/>
   <tile/>
   <tile/>
   <tile/>
   <tile/>
   <tile/>
   <tile/>
   <tile/>
   <tile/>
   <tile/>
   <tile/>
   <tile/>
   <tile/>
   <tile/>
   <tile/>
   <tile/>
   <tile/>
   <tile/>
   <tile/>
   <tile/>
   <tile/>
   <tile/>
   <tile/>
   <tile/>
   <tile/>
   <tile/>
   <tile/>
   <tile/>
   <tile/>
   <tile/>
   <tile/>
   <tile/>
   <tile/>
   <tile/>
   <tile/>
   <tile/>
   <tile/>
   <tile/>
   <tile/>
   <tile/>
   <tile/>
   <tile/>
   <tile/>
   <tile/>
   <tile/>
   <tile/>
   <tile/>
   <tile/>
   <tile/>
   <tile/>
   <tile/>
   <tile/>
   <tile/>
   <tile/>
   <tile/>
   <tile/>
   <tile/>
   <tile/>
   <tile/>
   <tile/>
   <tile/>
   <tile/>
   <tile/>
   <tile/>
   <tile/>
   <tile/>
   <tile/>
   <tile/>
   <tile/>
   <tile/>
   <tile/>
   <tile/>
   <tile/>
   <tile/>
   <tile/>
   <tile/>
   <tile/>
   <tile/>
   <tile/>
   <tile/>
   <tile/>
   <tile/>
   <tile/>
   <tile/>
   <tile/>
   <tile/>
   <tile/>
   <tile/>
   <tile/>
   <tile/>
   <tile/>
   <tile/>
   <tile/>
   <tile/>
   <tile/>
   <tile/>
   <tile/>
   <tile/>
   <tile/>
   <tile/>
   <tile/>
   <tile/>
   <tile/>
   <tile/>
   <tile/>
   <tile/>
   <tile/>
   <tile/>
   <tile/>
   <tile/>
   <tile/>
   <tile/>
   <tile/>
   <tile/>
   <tile/>
   <tile/>
   <tile/>
   <tile/>
   <tile/>
   <tile/>
   <tile/>
   <tile/>
   <tile/>
   <tile/>
   <tile/>
   <tile/>
   <tile/>
   <tile/>
   <tile/>
   <tile/>
   <tile/>
   <tile/>
   <tile/>
   <tile/>
   <tile/>
   <tile/>
   <tile/>
   <tile/>
   <tile/>
   <tile/>
   <tile/>
   <tile/>
   <tile/>
   <tile/>
   <tile/>
   <tile/>
   <tile/>
   <tile/>
   <tile/>
   <tile/>
   <tile/>
   <tile/>
   <tile/>
   <tile/>
   <tile/>
   <tile/>
   <tile/>
   <tile/>
   <tile/>
   <tile/>
   <tile/>
   <tile/>
   <tile/>
   <tile/>
   <tile/>
   <tile/>
   <tile/>
   <tile/>
   <tile/>
   <tile/>
   <tile/>
   <tile/>
   <tile/>
   <tile/>
   <tile/>
   <tile/>
   <tile/>
   <tile/>
   <tile/>
   <tile/>
   <tile/>
   <tile/>
   <tile/>
   <tile/>
   <tile/>
   <tile/>
   <tile/>
   <tile/>
   <tile/>
   <tile/>
   <tile/>
   <tile/>
   <tile/>
   <tile/>
   <tile/>
   <tile/>
   <tile/>
   <tile/>
   <tile/>
   <tile/>
   <tile/>
   <tile/>
   <tile/>
   <tile/>
   <tile/>
   <tile/>
   <tile/>
   <tile/>
   <tile/>
   <tile/>
   <tile/>
   <tile/>
   <tile/>
   <tile/>
   <tile/>
   <tile/>
   <tile/>
   <tile/>
   <tile/>
   <tile/>
   <tile/>
   <tile/>
   <tile/>
   <tile/>
   <tile/>
   <tile/>
   <tile/>
   <tile/>
   <tile/>
   <tile/>
   <tile/>
   <tile/>
   <tile/>
   <tile/>
   <tile/>
   <tile/>
   <tile/>
   <tile/>
   <tile/>
   <tile/>
   <tile/>
   <tile/>
   <tile/>
   <tile/>
   <tile/>
   <tile/>
   <tile/>
   <tile/>
   <tile/>
   <tile/>
   <tile/>
   <tile/>
   <tile/>
   <tile/>
   <tile/>
   <tile/>
   <tile/>
   <tile/>
   <tile/>
   <tile/>
   <tile/>
   <tile/>
   <tile/>
   <tile/>
   <tile/>
   <tile/>
   <tile/>
   <tile/>
   <tile/>
   <tile/>
   <tile/>
   <tile/>
   <tile/>
   <tile/>
   <tile/>
   <tile/>
   <tile/>
   <tile/>
   <tile/>
   <tile/>
   <tile/>
   <tile/>
   <tile/>
   <tile/>
   <tile/>
   <tile/>
   <tile/>
   <tile/>
   <tile/>
   <tile/>
   <tile/>
   <tile/>
   <tile/>
   <tile/>
   <tile/>
   <tile/>
   <tile/>
   <tile/>
   <tile/>
   <tile/>
   <tile/>
   <tile/>
   <tile/>
   <tile/>
   <tile/>
   <tile/>
   <tile/>
   <tile/>
   <tile/>
   <tile/>
   <tile/>
   <tile/>
   <tile/>
   <tile/>
   <tile/>
   <tile/>
   <tile/>
   <tile/>
   <tile/>
   <tile/>
   <tile/>
   <tile/>
   <tile/>
   <tile/>
   <tile/>
   <tile/>
   <tile/>
   <tile/>
   <tile/>
   <tile/>
   <tile/>
   <tile/>
   <tile/>
   <tile/>
   <tile/>
   <tile/>
   <tile/>
   <tile/>
   <tile/>
   <tile/>
   <tile/>
   <tile/>
   <tile/>
   <tile/>
   <tile/>
   <tile/>
   <tile/>
   <tile/>
   <tile/>
   <tile/>
   <tile/>
   <tile/>
   <tile/>
   <tile/>
   <tile/>
   <tile/>
   <tile/>
   <tile/>
   <tile/>
   <tile/>
   <tile/>
   <tile/>
   <tile/>
   <tile/>
   <tile/>
   <tile/>
   <tile/>
   <tile/>
   <tile/>
   <tile/>
   <tile/>
   <tile/>
   <tile/>
   <tile/>
   <tile/>
   <tile/>
   <tile/>
   <tile/>
   <tile/>
   <tile/>
   <tile/>
   <tile/>
   <tile/>
   <tile/>
   <tile/>
   <tile/>
   <tile/>
   <tile/>
   <tile/>
   <tile/>
   <tile/>
   <tile/>
   <tile/>
   <tile/>
   <tile/>
   <tile/>
   <tile/>
   <tile/>
   <tile/>
   <tile/>
   <tile/>
   <tile/>
   <tile/>
   <tile/>
   <tile/>
   <tile/>
   <tile/>
   <tile/>
   <tile/>
   <tile/>
   <tile/>
   <tile/>
   <tile/>
   <tile/>
   <tile/>
   <tile/>
   <tile/>
   <tile/>
   <tile/>
   <tile/>
   <tile/>
   <tile/>
   <tile/>
   <tile/>
   <tile/>
   <tile/>
   <tile/>
   <tile/>
   <tile/>
   <tile/>
   <tile/>
   <tile/>
   <tile/>
   <tile/>
   <tile/>
   <tile/>
   <tile/>
   <tile/>
   <tile/>
   <tile/>
   <tile/>
   <tile/>
   <tile/>
   <tile/>
   <tile/>
   <tile/>
   <tile/>
   <tile/>
   <tile/>
   <tile/>
   <tile/>
   <tile/>
   <tile/>
   <tile/>
   <tile/>
   <tile/>
   <tile/>
   <tile/>
   <tile/>
   <tile/>
   <tile/>
   <tile/>
   <tile/>
   <tile/>
   <tile/>
   <tile/>
   <tile/>
   <tile/>
   <tile/>
   <tile/>
   <tile/>
   <tile/>
   <tile/>
   <tile/>
   <tile/>
   <tile/>
   <tile/>
   <tile/>
   <tile/>
   <tile/>
   <tile/>
   <tile/>
   <tile/>
   <tile/>
   <tile/>
   <tile/>
   <tile/>
   <tile/>
   <tile/>
   <tile/>
   <tile/>
   <tile/>
   <tile/>
   <tile/>
   <tile/>
   <tile/>
   <tile/>
   <tile/>
   <tile/>
   <tile/>
   <tile/>
   <tile/>
   <tile/>
   <tile/>
   <tile/>
   <tile/>
   <tile/>
   <tile/>
   <tile/>
   <tile/>
   <tile/>
   <tile/>
   <tile/>
   <tile/>
   <tile/>
   <tile/>
   <tile/>
   <tile/>
   <tile/>
   <tile/>
   <tile/>
   <tile/>
   <tile/>
   <tile/>
   <tile/>
   <tile/>
   <tile/>
   <tile/>
   <tile/>
   <tile/>
   <tile/>
   <tile/>
   <tile/>
   <tile/>
   <tile/>
   <tile/>
   <tile/>
   <tile/>
   <tile/>
   <tile/>
   <tile/>
   <tile/>
   <tile/>
   <tile/>
   <tile/>
   <tile/>
   <tile/>
   <tile/>
   <tile/>
   <tile/>
   <tile/>
   <tile/>
   <tile/>
   <tile/>
   <tile/>
   <tile/>
   <tile/>
   <tile/>
   <tile/>
   <tile/>
   <tile/>
   <tile/>
   <tile/>
   <tile/>
   <tile/>
   <tile/>
   <tile/>
   <tile/>
   <tile/>
   <tile/>
   <tile/>
   <tile/>
   <tile/>
   <tile/>
   <tile/>
   <tile/>
   <tile/>
   <tile/>
   <tile/>
   <tile/>
   <tile/>
   <tile/>
   <tile/>
   <tile/>
   <tile/>
   <tile/>
   <tile/>
   <tile/>
   <tile/>
   <tile/>
   <tile/>
   <tile/>
   <tile/>
   <tile/>
   <tile/>
   <tile/>
   <tile/>
   <tile/>
   <tile/>
   <tile/>
   <tile/>
   <tile/>
   <tile/>
   <tile/>
   <tile/>
   <tile/>
   <tile/>
   <tile/>
   <tile/>
   <tile/>
   <tile/>
   <tile/>
   <tile/>
   <tile/>
   <tile/>
   <tile/>
   <tile/>
   <tile/>
   <tile/>
   <tile/>
   <tile/>
   <tile/>
   <tile/>
   <tile/>
   <tile/>
   <tile/>
   <tile/>
   <tile/>
   <tile/>
   <tile/>
   <tile/>
   <tile/>
   <tile/>
   <tile/>
   <tile/>
   <tile/>
   <tile/>
   <tile/>
   <tile/>
   <tile/>
   <tile/>
   <tile/>
   <tile/>
   <tile/>
   <tile/>
   <tile/>
   <tile/>
   <tile/>
   <tile/>
   <tile/>
   <tile/>
   <tile/>
   <tile/>
   <tile/>
   <tile/>
   <tile/>
   <tile/>
   <tile/>
   <tile/>
   <tile/>
   <tile/>
   <tile/>
   <tile/>
   <tile/>
   <tile/>
   <tile/>
   <tile/>
   <tile/>
   <tile/>
   <tile/>
   <tile/>
   <tile/>
   <tile/>
   <tile/>
   <tile/>
   <tile/>
   <tile/>
   <tile/>
   <tile/>
   <tile/>
   <tile/>
   <tile/>
   <tile/>
   <tile/>
   <tile/>
   <tile/>
   <tile/>
   <tile/>
   <tile/>
   <tile/>
   <tile/>
   <tile gid="1113"/>
   <tile gid="1114"/>
   <tile gid="1115"/>
   <tile gid="1116"/>
   <tile gid="1117"/>
   <tile gid="1118"/>
   <tile gid="1119"/>
   <tile/>
   <tile/>
   <tile/>
   <tile/>
   <tile/>
   <tile/>
   <tile/>
   <tile/>
   <tile/>
   <tile/>
   <tile/>
   <tile/>
   <tile/>
   <tile/>
   <tile/>
   <tile/>
   <tile/>
   <tile/>
   <tile/>
   <tile/>
   <tile/>
   <tile/>
   <tile/>
   <tile/>
   <tile/>
   <tile/>
   <tile/>
   <tile/>
   <tile/>
   <tile/>
   <tile/>
   <tile/>
   <tile/>
   <tile/>
   <tile/>
   <tile/>
   <tile/>
   <tile/>
   <tile/>
   <tile/>
   <tile/>
   <tile/>
   <tile/>
   <tile/>
   <tile/>
   <tile/>
   <tile/>
   <tile/>
   <tile/>
   <tile/>
   <tile/>
   <tile/>
   <tile/>
   <tile/>
   <tile/>
   <tile/>
   <tile/>
   <tile/>
   <tile/>
   <tile/>
   <tile/>
   <tile/>
   <tile/>
   <tile/>
   <tile/>
   <tile/>
   <tile/>
   <tile/>
   <tile/>
   <tile/>
   <tile/>
   <tile/>
   <tile/>
   <tile/>
   <tile/>
   <tile/>
   <tile/>
   <tile/>
   <tile/>
   <tile/>
   <tile/>
   <tile/>
   <tile/>
   <tile/>
   <tile/>
   <tile/>
   <tile/>
   <tile/>
   <tile/>
   <tile/>
   <tile/>
   <tile/>
   <tile/>
   <tile/>
   <tile/>
   <tile/>
   <tile/>
   <tile/>
   <tile/>
   <tile/>
   <tile/>
   <tile/>
   <tile/>
   <tile/>
   <tile/>
   <tile/>
   <tile/>
   <tile/>
   <tile/>
   <tile/>
   <tile/>
   <tile/>
   <tile/>
   <tile gid="1177"/>
   <tile gid="1178"/>
   <tile gid="1179"/>
   <tile gid="1180"/>
   <tile gid="1181"/>
   <tile gid="1182"/>
   <tile gid="1183"/>
   <tile/>
   <tile/>
   <tile/>
   <tile/>
   <tile/>
   <tile/>
   <tile/>
   <tile/>
   <tile/>
   <tile/>
   <tile/>
   <tile/>
   <tile/>
   <tile/>
   <tile/>
   <tile/>
   <tile/>
   <tile/>
   <tile/>
   <tile/>
   <tile/>
   <tile/>
   <tile/>
   <tile/>
   <tile/>
   <tile/>
   <tile/>
   <tile/>
   <tile/>
   <tile/>
   <tile/>
   <tile/>
   <tile/>
   <tile/>
   <tile/>
   <tile/>
   <tile/>
   <tile/>
   <tile/>
   <tile/>
   <tile/>
   <tile/>
   <tile/>
   <tile/>
   <tile/>
   <tile/>
   <tile/>
   <tile/>
   <tile/>
   <tile/>
   <tile/>
   <tile/>
   <tile/>
   <tile/>
   <tile/>
   <tile/>
   <tile/>
   <tile/>
   <tile/>
   <tile/>
   <tile/>
   <tile/>
   <tile/>
   <tile/>
   <tile/>
   <tile/>
   <tile/>
   <tile/>
   <tile/>
   <tile/>
   <tile/>
   <tile/>
   <tile/>
   <tile/>
   <tile/>
   <tile/>
   <tile/>
   <tile/>
   <tile/>
   <tile/>
   <tile/>
   <tile/>
   <tile/>
   <tile/>
   <tile/>
   <tile/>
   <tile/>
   <tile/>
   <tile/>
   <tile/>
   <tile/>
   <tile/>
   <tile/>
   <tile/>
   <tile/>
   <tile/>
   <tile/>
   <tile/>
   <tile/>
   <tile/>
   <tile/>
   <tile/>
   <tile/>
   <tile/>
   <tile/>
   <tile/>
   <tile/>
   <tile/>
   <tile/>
   <tile/>
   <tile/>
   <tile/>
   <tile/>
   <tile gid="1241"/>
   <tile gid="1242"/>
   <tile gid="1243"/>
   <tile gid="1244"/>
   <tile gid="1245"/>
   <tile gid="1246"/>
   <tile gid="1247"/>
   <tile/>
   <tile/>
   <tile/>
   <tile/>
   <tile/>
   <tile/>
   <tile/>
   <tile/>
   <tile/>
   <tile/>
   <tile/>
   <tile/>
   <tile/>
   <tile/>
   <tile/>
   <tile/>
   <tile/>
   <tile/>
   <tile/>
   <tile/>
   <tile/>
   <tile/>
   <tile/>
   <tile/>
   <tile/>
   <tile/>
   <tile/>
   <tile/>
   <tile/>
   <tile/>
   <tile/>
   <tile/>
   <tile/>
   <tile/>
   <tile/>
   <tile/>
   <tile/>
   <tile/>
   <tile/>
   <tile/>
   <tile/>
   <tile/>
   <tile/>
   <tile/>
   <tile/>
   <tile/>
   <tile/>
   <tile/>
   <tile/>
   <tile/>
   <tile/>
   <tile/>
   <tile/>
   <tile/>
   <tile/>
   <tile/>
   <tile/>
   <tile/>
   <tile/>
   <tile/>
   <tile/>
   <tile/>
   <tile/>
   <tile/>
   <tile/>
   <tile/>
   <tile/>
   <tile/>
   <tile/>
   <tile/>
   <tile/>
   <tile/>
   <tile/>
   <tile/>
   <tile/>
   <tile/>
   <tile/>
   <tile/>
   <tile/>
   <tile/>
   <tile/>
   <tile/>
   <tile/>
   <tile/>
   <tile/>
   <tile/>
   <tile/>
   <tile/>
   <tile/>
   <tile/>
   <tile/>
   <tile/>
   <tile/>
   <tile/>
   <tile/>
   <tile/>
   <tile/>
   <tile/>
   <tile/>
   <tile/>
   <tile/>
   <tile/>
   <tile gid="3692"/>
   <tile gid="3693"/>
   <tile/>
   <tile/>
   <tile/>
   <tile/>
   <tile/>
   <tile/>
   <tile/>
   <tile/>
   <tile/>
   <tile gid="1305"/>
   <tile gid="1306"/>
   <tile gid="1307"/>
   <tile gid="1308"/>
   <tile gid="1309"/>
   <tile gid="1310"/>
   <tile gid="1311"/>
   <tile/>
   <tile/>
   <tile/>
   <tile/>
   <tile/>
   <tile/>
   <tile/>
   <tile/>
   <tile/>
   <tile/>
   <tile/>
   <tile/>
   <tile/>
   <tile/>
   <tile/>
   <tile/>
   <tile/>
   <tile/>
   <tile/>
   <tile/>
   <tile/>
   <tile/>
   <tile/>
   <tile/>
   <tile/>
   <tile/>
   <tile/>
   <tile/>
   <tile/>
   <tile/>
   <tile/>
   <tile/>
   <tile/>
   <tile/>
   <tile/>
   <tile/>
   <tile/>
   <tile/>
   <tile/>
   <tile/>
   <tile/>
   <tile/>
   <tile/>
   <tile/>
   <tile/>
   <tile/>
   <tile/>
   <tile/>
   <tile/>
   <tile/>
   <tile/>
   <tile/>
   <tile/>
   <tile/>
   <tile/>
   <tile/>
   <tile/>
   <tile/>
   <tile/>
   <tile/>
   <tile/>
   <tile/>
   <tile/>
   <tile/>
   <tile/>
   <tile/>
   <tile/>
   <tile/>
   <tile/>
   <tile/>
   <tile/>
   <tile/>
   <tile/>
   <tile/>
   <tile/>
   <tile/>
   <tile/>
   <tile/>
   <tile/>
   <tile/>
   <tile/>
   <tile/>
   <tile/>
   <tile/>
   <tile/>
   <tile/>
   <tile/>
   <tile/>
   <tile/>
   <tile/>
   <tile/>
   <tile/>
   <tile/>
   <tile/>
   <tile/>
   <tile/>
   <tile/>
   <tile/>
   <tile/>
   <tile/>
   <tile/>
   <tile gid="3755"/>
   <tile gid="3756"/>
   <tile gid="3757"/>
   <tile/>
   <tile/>
   <tile/>
   <tile/>
   <tile/>
   <tile/>
   <tile/>
   <tile/>
   <tile/>
   <tile gid="1369"/>
   <tile gid="1370"/>
   <tile gid="1371"/>
   <tile gid="1372"/>
   <tile gid="1373"/>
   <tile gid="1374"/>
   <tile gid="1375"/>
   <tile/>
   <tile/>
   <tile/>
   <tile/>
   <tile/>
   <tile/>
   <tile/>
   <tile/>
   <tile/>
   <tile/>
   <tile/>
   <tile/>
   <tile/>
   <tile/>
   <tile/>
   <tile/>
   <tile/>
   <tile/>
   <tile/>
   <tile/>
   <tile/>
   <tile/>
   <tile/>
   <tile/>
   <tile/>
   <tile/>
   <tile/>
   <tile/>
   <tile/>
   <tile/>
   <tile/>
   <tile/>
   <tile/>
   <tile/>
   <tile/>
   <tile/>
   <tile/>
   <tile/>
   <tile/>
   <tile/>
   <tile/>
   <tile/>
   <tile/>
   <tile/>
   <tile/>
   <tile/>
   <tile/>
   <tile/>
   <tile/>
   <tile/>
   <tile/>
   <tile/>
   <tile/>
   <tile/>
   <tile/>
   <tile/>
   <tile/>
   <tile/>
   <tile/>
   <tile/>
   <tile/>
   <tile/>
   <tile/>
   <tile/>
   <tile/>
   <tile/>
   <tile/>
   <tile/>
   <tile/>
   <tile/>
   <tile/>
   <tile/>
   <tile/>
   <tile/>
   <tile/>
   <tile/>
   <tile/>
   <tile/>
   <tile/>
   <tile/>
   <tile/>
   <tile/>
   <tile/>
   <tile/>
   <tile/>
   <tile/>
   <tile/>
   <tile/>
   <tile/>
   <tile/>
   <tile/>
   <tile/>
   <tile/>
   <tile/>
   <tile/>
   <tile/>
   <tile/>
   <tile/>
   <tile/>
   <tile/>
   <tile/>
   <tile gid="3819"/>
   <tile gid="3820"/>
   <tile gid="3821"/>
   <tile/>
   <tile/>
   <tile/>
   <tile/>
   <tile/>
   <tile/>
   <tile/>
   <tile/>
   <tile/>
   <tile/>
   <tile gid="1434"/>
   <tile gid="1435"/>
   <tile gid="1436"/>
   <tile gid="1437"/>
   <tile gid="1438"/>
   <tile/>
   <tile/>
   <tile/>
   <tile/>
   <tile/>
   <tile/>
   <tile/>
   <tile/>
   <tile/>
   <tile/>
   <tile/>
   <tile/>
   <tile/>
   <tile/>
   <tile/>
   <tile/>
   <tile/>
   <tile/>
   <tile/>
   <tile/>
   <tile/>
   <tile/>
   <tile/>
   <tile/>
   <tile/>
   <tile/>
   <tile/>
   <tile/>
   <tile/>
   <tile/>
   <tile/>
   <tile/>
   <tile/>
   <tile/>
   <tile/>
   <tile/>
   <tile/>
   <tile/>
   <tile/>
   <tile/>
   <tile/>
   <tile/>
   <tile/>
   <tile/>
   <tile/>
   <tile/>
   <tile/>
   <tile/>
   <tile/>
   <tile/>
   <tile/>
   <tile/>
   <tile/>
   <tile/>
   <tile/>
   <tile/>
   <tile/>
   <tile/>
   <tile/>
   <tile/>
   <tile/>
   <tile/>
   <tile/>
   <tile/>
   <tile/>
   <tile/>
   <tile/>
   <tile/>
   <tile/>
   <tile/>
   <tile/>
   <tile/>
   <tile/>
   <tile/>
   <tile/>
   <tile/>
   <tile/>
   <tile/>
   <tile/>
   <tile/>
   <tile/>
   <tile/>
   <tile/>
   <tile/>
   <tile/>
   <tile/>
   <tile/>
   <tile/>
   <tile/>
   <tile/>
   <tile/>
   <tile/>
   <tile/>
   <tile/>
   <tile/>
   <tile/>
   <tile/>
   <tile/>
   <tile/>
   <tile/>
   <tile/>
   <tile/>
   <tile gid="3883"/>
   <tile gid="3884"/>
   <tile gid="3885"/>
   <tile/>
   <tile/>
   <tile/>
   <tile/>
   <tile/>
   <tile/>
   <tile/>
   <tile/>
   <tile/>
   <tile/>
   <tile gid="1498"/>
   <tile gid="1499"/>
   <tile gid="1500"/>
   <tile gid="1501"/>
   <tile gid="1502"/>
   <tile/>
   <tile/>
   <tile/>
   <tile/>
   <tile/>
   <tile/>
   <tile/>
   <tile/>
   <tile/>
   <tile/>
   <tile/>
   <tile/>
   <tile/>
   <tile/>
   <tile/>
   <tile/>
   <tile/>
   <tile/>
   <tile/>
   <tile/>
   <tile/>
   <tile/>
   <tile/>
   <tile/>
   <tile/>
   <tile/>
   <tile/>
   <tile/>
   <tile/>
   <tile/>
   <tile/>
   <tile/>
   <tile/>
   <tile/>
   <tile/>
   <tile/>
   <tile/>
   <tile/>
   <tile/>
   <tile/>
   <tile/>
   <tile/>
   <tile/>
   <tile/>
   <tile/>
   <tile/>
   <tile/>
   <tile/>
   <tile/>
   <tile/>
   <tile/>
   <tile/>
   <tile/>
   <tile/>
   <tile/>
   <tile/>
   <tile/>
   <tile/>
   <tile/>
   <tile/>
   <tile/>
   <tile/>
   <tile/>
   <tile/>
   <tile/>
   <tile/>
   <tile/>
   <tile/>
   <tile/>
   <tile/>
   <tile/>
   <tile/>
   <tile/>
   <tile/>
   <tile/>
   <tile/>
   <tile/>
   <tile/>
   <tile/>
   <tile/>
   <tile/>
   <tile/>
   <tile/>
   <tile/>
   <tile/>
   <tile/>
   <tile/>
   <tile/>
   <tile/>
   <tile/>
   <tile/>
   <tile/>
   <tile/>
   <tile/>
   <tile/>
   <tile/>
   <tile/>
   <tile/>
   <tile/>
   <tile/>
   <tile/>
   <tile/>
   <tile/>
   <tile/>
   <tile/>
   <tile/>
   <tile/>
   <tile/>
   <tile/>
   <tile/>
   <tile/>
   <tile/>
   <tile/>
   <tile/>
   <tile gid="1561"/>
   <tile gid="1562"/>
   <tile gid="1563"/>
   <tile gid="1564"/>
   <tile gid="1565"/>
   <tile gid="1566"/>
   <tile gid="1567"/>
   <tile/>
   <tile/>
   <tile/>
   <tile/>
   <tile/>
   <tile/>
   <tile/>
   <tile/>
   <tile/>
   <tile/>
   <tile/>
   <tile/>
   <tile/>
   <tile/>
   <tile/>
   <tile/>
   <tile/>
   <tile/>
   <tile/>
   <tile/>
   <tile/>
   <tile/>
   <tile/>
   <tile/>
   <tile/>
   <tile/>
   <tile/>
   <tile/>
   <tile/>
   <tile/>
   <tile/>
   <tile/>
   <tile/>
   <tile/>
   <tile/>
   <tile/>
   <tile/>
   <tile/>
   <tile/>
   <tile/>
   <tile/>
   <tile/>
   <tile/>
   <tile/>
   <tile/>
   <tile/>
   <tile/>
   <tile/>
   <tile/>
   <tile/>
   <tile/>
   <tile/>
   <tile/>
   <tile/>
   <tile/>
   <tile/>
   <tile/>
   <tile/>
   <tile/>
   <tile/>
   <tile/>
   <tile/>
   <tile/>
   <tile/>
   <tile/>
   <tile/>
   <tile/>
   <tile/>
   <tile/>
   <tile/>
   <tile/>
   <tile/>
   <tile/>
   <tile/>
   <tile/>
   <tile/>
   <tile/>
   <tile/>
   <tile/>
   <tile/>
   <tile/>
   <tile/>
   <tile/>
   <tile/>
   <tile/>
   <tile/>
   <tile/>
   <tile/>
   <tile/>
   <tile/>
   <tile/>
   <tile/>
   <tile/>
   <tile/>
   <tile/>
   <tile/>
   <tile/>
   <tile/>
   <tile/>
   <tile/>
   <tile/>
   <tile/>
   <tile/>
   <tile/>
   <tile/>
   <tile/>
   <tile/>
   <tile/>
   <tile/>
   <tile/>
   <tile/>
   <tile/>
   <tile/>
   <tile gid="1625"/>
   <tile gid="1626"/>
   <tile gid="1627"/>
   <tile gid="1628"/>
   <tile gid="1629"/>
   <tile gid="1630"/>
   <tile gid="1631"/>
   <tile/>
   <tile/>
   <tile/>
   <tile/>
   <tile/>
   <tile/>
   <tile/>
   <tile/>
   <tile/>
   <tile/>
   <tile/>
   <tile/>
   <tile/>
   <tile/>
   <tile/>
   <tile/>
   <tile/>
   <tile/>
   <tile/>
   <tile/>
   <tile/>
   <tile/>
   <tile/>
   <tile/>
   <tile/>
   <tile/>
   <tile/>
   <tile/>
   <tile/>
   <tile/>
   <tile/>
   <tile/>
   <tile/>
   <tile/>
   <tile/>
   <tile/>
   <tile/>
   <tile/>
   <tile/>
   <tile/>
   <tile/>
   <tile/>
   <tile/>
   <tile/>
   <tile/>
   <tile/>
   <tile/>
   <tile/>
   <tile/>
   <tile/>
   <tile/>
   <tile/>
   <tile/>
   <tile/>
   <tile/>
   <tile/>
   <tile/>
   <tile/>
   <tile/>
   <tile/>
   <tile/>
   <tile/>
   <tile/>
   <tile/>
   <tile/>
   <tile/>
   <tile/>
   <tile/>
   <tile/>
   <tile/>
   <tile/>
   <tile/>
   <tile/>
   <tile/>
   <tile/>
   <tile/>
   <tile/>
   <tile/>
   <tile/>
   <tile/>
   <tile/>
   <tile/>
   <tile/>
   <tile/>
   <tile/>
   <tile/>
   <tile/>
   <tile/>
   <tile/>
   <tile/>
   <tile/>
   <tile/>
   <tile/>
   <tile/>
   <tile/>
   <tile/>
   <tile/>
   <tile/>
   <tile/>
   <tile/>
   <tile/>
   <tile/>
   <tile/>
   <tile/>
   <tile/>
   <tile/>
   <tile/>
   <tile/>
   <tile/>
   <tile/>
   <tile/>
   <tile/>
   <tile/>
   <tile gid="1689"/>
   <tile gid="1690"/>
   <tile gid="1691"/>
   <tile gid="1692"/>
   <tile gid="1693"/>
   <tile gid="1694"/>
   <tile gid="1695"/>
   <tile/>
   <tile/>
   <tile/>
   <tile/>
   <tile/>
   <tile/>
   <tile/>
   <tile/>
   <tile/>
   <tile/>
   <tile/>
   <tile/>
   <tile/>
   <tile/>
   <tile/>
   <tile/>
   <tile/>
   <tile/>
   <tile/>
   <tile/>
   <tile/>
   <tile/>
   <tile/>
   <tile/>
   <tile/>
   <tile/>
   <tile/>
   <tile/>
   <tile/>
   <tile/>
   <tile/>
   <tile/>
   <tile/>
   <tile/>
   <tile/>
   <tile/>
   <tile/>
   <tile/>
   <tile/>
   <tile/>
   <tile/>
   <tile/>
   <tile/>
   <tile/>
   <tile/>
   <tile/>
   <tile/>
   <tile/>
   <tile/>
   <tile/>
   <tile/>
   <tile/>
   <tile/>
   <tile/>
   <tile/>
   <tile/>
   <tile/>
   <tile/>
   <tile/>
   <tile/>
   <tile/>
   <tile/>
   <tile/>
   <tile/>
   <tile/>
   <tile/>
   <tile/>
   <tile/>
   <tile/>
   <tile/>
   <tile/>
   <tile/>
   <tile/>
   <tile/>
   <tile/>
   <tile/>
   <tile/>
   <tile/>
   <tile/>
   <tile/>
   <tile/>
   <tile/>
   <tile/>
   <tile/>
   <tile/>
   <tile/>
   <tile/>
   <tile/>
   <tile/>
   <tile/>
   <tile/>
   <tile/>
   <tile/>
   <tile/>
   <tile/>
   <tile/>
   <tile/>
   <tile/>
   <tile/>
   <tile/>
   <tile/>
   <tile/>
   <tile/>
   <tile/>
   <tile/>
   <tile/>
   <tile/>
   <tile/>
   <tile/>
   <tile/>
   <tile/>
   <tile/>
   <tile/>
   <tile/>
   <tile/>
   <tile/>
   <tile/>
   <tile/>
   <tile/>
   <tile/>
   <tile/>
   <tile/>
   <tile/>
   <tile/>
   <tile/>
   <tile/>
   <tile/>
   <tile/>
   <tile/>
   <tile/>
   <tile/>
   <tile/>
   <tile/>
   <tile/>
   <tile/>
   <tile/>
   <tile/>
   <tile/>
   <tile/>
   <tile/>
   <tile/>
   <tile/>
   <tile/>
   <tile/>
   <tile/>
   <tile/>
   <tile/>
   <tile/>
   <tile/>
   <tile/>
   <tile/>
   <tile/>
   <tile/>
   <tile/>
   <tile/>
   <tile/>
   <tile/>
   <tile/>
   <tile/>
   <tile/>
   <tile/>
   <tile/>
   <tile/>
   <tile/>
   <tile/>
   <tile/>
   <tile/>
   <tile/>
   <tile/>
   <tile/>
   <tile/>
   <tile/>
   <tile/>
   <tile/>
   <tile/>
   <tile/>
   <tile/>
   <tile/>
   <tile gid="5106"/>
   <tile gid="5107"/>
   <tile gid="5108"/>
   <tile gid="5109"/>
   <tile gid="5110"/>
   <tile/>
   <tile/>
   <tile/>
   <tile/>
   <tile/>
   <tile/>
   <tile/>
   <tile/>
   <tile/>
   <tile/>
   <tile/>
   <tile/>
   <tile/>
   <tile/>
   <tile/>
   <tile/>
   <tile/>
   <tile/>
   <tile/>
   <tile/>
   <tile/>
   <tile/>
   <tile/>
   <tile/>
   <tile/>
   <tile/>
   <tile/>
   <tile/>
   <tile/>
   <tile/>
   <tile/>
   <tile/>
   <tile/>
   <tile/>
   <tile/>
   <tile/>
   <tile/>
   <tile/>
   <tile/>
   <tile/>
   <tile/>
   <tile/>
   <tile/>
   <tile/>
   <tile/>
   <tile/>
   <tile/>
   <tile/>
   <tile/>
   <tile/>
   <tile/>
   <tile/>
   <tile/>
   <tile/>
   <tile/>
   <tile/>
   <tile/>
   <tile/>
   <tile/>
   <tile/>
   <tile/>
   <tile/>
   <tile/>
   <tile/>
   <tile/>
   <tile/>
   <tile/>
   <tile/>
   <tile/>
   <tile/>
   <tile/>
   <tile/>
   <tile/>
   <tile/>
   <tile/>
   <tile/>
   <tile/>
   <tile/>
   <tile/>
   <tile/>
   <tile/>
   <tile/>
   <tile/>
   <tile/>
   <tile/>
   <tile/>
   <tile/>
   <tile/>
   <tile/>
   <tile/>
   <tile/>
   <tile/>
   <tile/>
   <tile/>
   <tile/>
   <tile/>
   <tile/>
   <tile/>
   <tile/>
   <tile/>
   <tile/>
   <tile/>
   <tile/>
   <tile/>
   <tile/>
   <tile/>
   <tile/>
   <tile/>
   <tile/>
   <tile/>
   <tile/>
   <tile/>
   <tile/>
   <tile/>
   <tile gid="5169"/>
   <tile gid="5170"/>
   <tile gid="5171"/>
   <tile gid="5172"/>
   <tile gid="5173"/>
   <tile gid="5174"/>
   <tile gid="5175"/>
   <tile/>
   <tile/>
   <tile/>
   <tile/>
   <tile/>
   <tile/>
   <tile/>
   <tile/>
   <tile/>
   <tile/>
   <tile/>
   <tile/>
   <tile/>
   <tile/>
   <tile/>
   <tile/>
   <tile/>
   <tile/>
   <tile/>
   <tile/>
   <tile/>
   <tile/>
   <tile/>
   <tile/>
   <tile/>
   <tile/>
   <tile/>
   <tile/>
   <tile/>
   <tile/>
   <tile/>
   <tile/>
   <tile/>
   <tile/>
   <tile/>
   <tile/>
   <tile/>
   <tile/>
   <tile/>
   <tile/>
   <tile/>
   <tile/>
   <tile/>
   <tile/>
   <tile/>
   <tile/>
   <tile/>
   <tile/>
   <tile/>
   <tile/>
   <tile/>
   <tile/>
   <tile/>
   <tile/>
   <tile/>
   <tile/>
   <tile/>
   <tile/>
   <tile/>
   <tile/>
   <tile/>
   <tile/>
   <tile/>
   <tile/>
   <tile/>
   <tile/>
   <tile/>
   <tile/>
   <tile/>
   <tile/>
   <tile/>
   <tile/>
   <tile/>
   <tile/>
   <tile/>
   <tile/>
   <tile/>
   <tile/>
   <tile/>
   <tile/>
   <tile/>
   <tile/>
   <tile/>
   <tile/>
   <tile/>
   <tile/>
   <tile/>
   <tile/>
   <tile/>
   <tile/>
   <tile/>
   <tile/>
   <tile/>
   <tile/>
   <tile/>
   <tile/>
   <tile/>
   <tile/>
   <tile/>
   <tile/>
   <tile/>
   <tile/>
   <tile/>
   <tile/>
   <tile/>
   <tile/>
   <tile/>
   <tile/>
   <tile/>
   <tile/>
   <tile/>
   <tile/>
   <tile/>
   <tile gid="5233"/>
   <tile gid="5234"/>
   <tile gid="5235"/>
   <tile gid="5236"/>
   <tile gid="5237"/>
   <tile gid="5238"/>
   <tile gid="5239"/>
   <tile/>
   <tile/>
   <tile/>
   <tile/>
   <tile/>
   <tile/>
   <tile/>
   <tile/>
   <tile/>
   <tile/>
   <tile/>
   <tile/>
   <tile/>
   <tile/>
   <tile/>
   <tile/>
   <tile/>
   <tile/>
   <tile/>
   <tile/>
   <tile/>
   <tile/>
   <tile/>
   <tile/>
   <tile/>
   <tile/>
   <tile/>
   <tile/>
   <tile/>
   <tile/>
   <tile/>
   <tile/>
   <tile/>
   <tile/>
   <tile/>
   <tile/>
   <tile/>
   <tile/>
   <tile/>
   <tile/>
   <tile/>
   <tile/>
   <tile/>
   <tile/>
   <tile/>
   <tile/>
   <tile/>
   <tile/>
   <tile/>
   <tile/>
   <tile/>
   <tile/>
   <tile/>
   <tile/>
   <tile/>
   <tile/>
   <tile/>
   <tile/>
   <tile/>
   <tile/>
   <tile/>
   <tile/>
   <tile/>
   <tile/>
   <tile/>
   <tile/>
   <tile/>
   <tile/>
   <tile/>
   <tile/>
   <tile/>
   <tile/>
   <tile/>
   <tile/>
   <tile/>
   <tile/>
   <tile/>
   <tile/>
   <tile/>
   <tile/>
   <tile/>
   <tile/>
   <tile/>
   <tile/>
   <tile/>
   <tile/>
   <tile/>
   <tile/>
   <tile/>
   <tile/>
   <tile/>
   <tile/>
   <tile/>
   <tile/>
   <tile/>
   <tile/>
   <tile/>
   <tile/>
   <tile/>
   <tile/>
   <tile/>
   <tile/>
   <tile/>
   <tile/>
   <tile/>
   <tile/>
   <tile/>
   <tile/>
   <tile/>
   <tile/>
   <tile/>
   <tile/>
   <tile/>
   <tile gid="5297"/>
   <tile gid="5298"/>
   <tile gid="5299"/>
   <tile gid="5300"/>
   <tile gid="5301"/>
   <tile gid="5302"/>
   <tile/>
   <tile/>
   <tile/>
   <tile/>
   <tile/>
   <tile/>
   <tile/>
   <tile/>
   <tile/>
   <tile/>
   <tile/>
   <tile/>
   <tile/>
   <tile/>
   <tile/>
   <tile/>
   <tile/>
   <tile/>
   <tile/>
   <tile/>
   <tile/>
   <tile/>
   <tile/>
   <tile/>
   <tile/>
   <tile/>
   <tile/>
   <tile/>
   <tile/>
   <tile/>
   <tile/>
   <tile/>
   <tile/>
   <tile/>
   <tile/>
   <tile/>
   <tile/>
   <tile/>
   <tile/>
   <tile/>
   <tile/>
   <tile/>
   <tile/>
   <tile/>
   <tile/>
   <tile/>
   <tile/>
   <tile/>
   <tile/>
   <tile/>
   <tile/>
   <tile/>
   <tile/>
   <tile/>
   <tile/>
   <tile/>
   <tile/>
   <tile/>
   <tile/>
   <tile/>
   <tile/>
   <tile/>
   <tile/>
   <tile/>
   <tile/>
   <tile/>
   <tile/>
   <tile/>
   <tile/>
   <tile/>
   <tile/>
   <tile/>
   <tile/>
   <tile/>
   <tile/>
   <tile/>
   <tile/>
   <tile/>
   <tile/>
   <tile/>
   <tile/>
   <tile/>
   <tile/>
   <tile/>
   <tile/>
   <tile/>
   <tile/>
   <tile/>
   <tile/>
   <tile/>
   <tile/>
   <tile/>
   <tile/>
   <tile/>
   <tile/>
   <tile/>
   <tile/>
   <tile/>
   <tile/>
   <tile/>
   <tile/>
   <tile/>
   <tile/>
   <tile/>
   <tile/>
   <tile/>
   <tile/>
   <tile/>
   <tile gid="5554"/>
   <tile gid="5555"/>
   <tile gid="5556"/>
   <tile gid="5557"/>
   <tile/>
   <tile/>
   <tile/>
   <tile/>
   <tile/>
   <tile/>
   <tile/>
   <tile/>
   <tile/>
   <tile/>
   <tile/>
   <tile/>
   <tile/>
   <tile/>
   <tile/>
   <tile/>
   <tile/>
   <tile/>
   <tile/>
   <tile/>
   <tile/>
   <tile/>
   <tile/>
   <tile/>
   <tile/>
   <tile/>
   <tile/>
   <tile/>
   <tile/>
   <tile/>
   <tile/>
   <tile/>
   <tile/>
   <tile/>
   <tile/>
   <tile/>
   <tile/>
   <tile/>
   <tile/>
   <tile/>
   <tile/>
   <tile/>
   <tile/>
   <tile/>
   <tile/>
   <tile/>
   <tile/>
   <tile/>
   <tile/>
   <tile/>
   <tile/>
   <tile/>
   <tile/>
   <tile/>
   <tile/>
   <tile/>
   <tile/>
   <tile/>
   <tile/>
   <tile/>
   <tile/>
   <tile/>
   <tile/>
   <tile/>
   <tile/>
   <tile/>
   <tile/>
   <tile/>
   <tile/>
   <tile/>
   <tile/>
   <tile/>
   <tile/>
   <tile/>
   <tile/>
   <tile/>
   <tile/>
   <tile/>
   <tile/>
   <tile/>
   <tile/>
   <tile/>
   <tile/>
   <tile/>
   <tile/>
   <tile/>
   <tile/>
   <tile/>
   <tile/>
   <tile/>
   <tile/>
   <tile/>
   <tile/>
   <tile/>
   <tile/>
   <tile/>
   <tile/>
   <tile/>
   <tile/>
   <tile/>
   <tile/>
   <tile/>
   <tile/>
   <tile/>
   <tile/>
   <tile/>
   <tile/>
   <tile/>
   <tile/>
   <tile/>
   <tile/>
   <tile/>
   <tile/>
   <tile/>
   <tile/>
   <tile/>
   <tile gid="5618"/>
   <tile gid="5619"/>
   <tile gid="5620"/>
   <tile gid="5621"/>
   <tile/>
   <tile/>
   <tile/>
   <tile/>
   <tile/>
   <tile/>
   <tile/>
   <tile/>
   <tile/>
   <tile/>
   <tile/>
   <tile/>
   <tile/>
   <tile/>
   <tile/>
   <tile/>
   <tile/>
   <tile/>
   <tile/>
   <tile/>
   <tile/>
   <tile/>
   <tile/>
   <tile/>
   <tile/>
   <tile/>
   <tile/>
   <tile/>
   <tile/>
   <tile/>
   <tile/>
   <tile/>
   <tile/>
   <tile/>
   <tile/>
   <tile/>
   <tile/>
   <tile/>
   <tile/>
   <tile/>
   <tile/>
   <tile/>
   <tile/>
   <tile/>
   <tile/>
   <tile/>
   <tile/>
   <tile/>
   <tile/>
   <tile/>
   <tile/>
   <tile/>
   <tile/>
   <tile/>
   <tile/>
   <tile/>
   <tile/>
   <tile/>
   <tile/>
   <tile/>
   <tile/>
   <tile/>
   <tile/>
   <tile/>
   <tile/>
   <tile/>
   <tile/>
   <tile/>
   <tile/>
   <tile/>
   <tile/>
   <tile/>
   <tile/>
   <tile/>
   <tile/>
   <tile/>
   <tile/>
   <tile/>
   <tile/>
   <tile/>
   <tile/>
   <tile/>
   <tile/>
   <tile/>
   <tile/>
   <tile/>
   <tile/>
   <tile/>
   <tile/>
   <tile/>
   <tile/>
   <tile/>
   <tile/>
   <tile/>
   <tile/>
   <tile/>
   <tile/>
   <tile/>
   <tile/>
   <tile/>
   <tile/>
   <tile/>
   <tile/>
   <tile/>
   <tile/>
   <tile/>
   <tile/>
   <tile/>
   <tile/>
   <tile/>
   <tile/>
   <tile/>
   <tile/>
   <tile/>
   <tile/>
   <tile/>
   <tile gid="5682"/>
   <tile gid="5683"/>
   <tile gid="5684"/>
   <tile gid="5685"/>
   <tile/>
   <tile/>
   <tile/>
   <tile/>
   <tile/>
   <tile/>
   <tile/>
   <tile/>
   <tile/>
   <tile/>
   <tile/>
   <tile/>
   <tile/>
   <tile/>
   <tile/>
   <tile/>
   <tile/>
   <tile/>
   <tile/>
   <tile/>
   <tile/>
   <tile/>
   <tile/>
   <tile/>
   <tile/>
   <tile/>
   <tile/>
   <tile/>
   <tile/>
   <tile/>
   <tile/>
   <tile/>
   <tile/>
   <tile/>
   <tile/>
   <tile/>
   <tile/>
   <tile/>
   <tile/>
   <tile/>
   <tile/>
   <tile/>
   <tile/>
   <tile/>
   <tile/>
   <tile/>
   <tile/>
   <tile/>
   <tile/>
   <tile/>
   <tile/>
   <tile/>
   <tile/>
   <tile/>
   <tile/>
   <tile/>
   <tile/>
   <tile/>
   <tile/>
   <tile/>
   <tile/>
   <tile/>
   <tile/>
   <tile/>
   <tile/>
   <tile/>
   <tile/>
   <tile/>
   <tile/>
   <tile/>
   <tile/>
   <tile/>
   <tile/>
   <tile/>
   <tile/>
   <tile/>
   <tile/>
   <tile/>
   <tile/>
   <tile/>
   <tile/>
   <tile/>
   <tile/>
   <tile/>
   <tile/>
   <tile/>
   <tile/>
   <tile/>
   <tile/>
   <tile/>
   <tile/>
   <tile/>
   <tile/>
   <tile/>
   <tile/>
   <tile/>
   <tile/>
   <tile/>
   <tile/>
   <tile/>
   <tile/>
   <tile/>
   <tile/>
   <tile/>
   <tile/>
   <tile/>
   <tile/>
   <tile/>
   <tile/>
   <tile/>
   <tile/>
   <tile/>
   <tile/>
   <tile/>
   <tile/>
   <tile/>
   <tile/>
   <tile gid="5747"/>
   <tile gid="5748"/>
   <tile/>
   <tile/>
   <tile/>
   <tile/>
   <tile/>
   <tile/>
   <tile/>
   <tile/>
   <tile/>
   <tile/>
   <tile/>
   <tile/>
   <tile/>
   <tile/>
   <tile/>
   <tile/>
   <tile/>
   <tile/>
   <tile/>
   <tile/>
   <tile/>
   <tile/>
   <tile/>
   <tile/>
   <tile/>
   <tile/>
   <tile/>
   <tile/>
   <tile/>
   <tile/>
   <tile/>
   <tile/>
   <tile/>
   <tile/>
   <tile/>
   <tile/>
   <tile/>
   <tile/>
   <tile/>
   <tile/>
   <tile/>
   <tile/>
   <tile/>
   <tile/>
   <tile/>
   <tile/>
   <tile/>
   <tile/>
   <tile/>
   <tile/>
   <tile/>
   <tile/>
   <tile/>
   <tile/>
   <tile/>
   <tile/>
   <tile/>
   <tile/>
   <tile/>
   <tile/>
   <tile/>
   <tile/>
   <tile/>
   <tile/>
   <tile/>
   <tile/>
   <tile/>
   <tile/>
   <tile/>
   <tile/>
   <tile/>
   <tile/>
   <tile/>
   <tile/>
   <tile/>
   <tile/>
   <tile/>
   <tile/>
   <tile/>
   <tile/>
   <tile/>
   <tile/>
   <tile/>
   <tile/>
   <tile/>
   <tile/>
   <tile/>
   <tile/>
   <tile/>
   <tile/>
   <tile/>
   <tile/>
   <tile/>
   <tile/>
   <tile/>
   <tile/>
   <tile/>
   <tile/>
   <tile/>
   <tile/>
   <tile/>
   <tile/>
   <tile/>
   <tile/>
   <tile/>
   <tile/>
   <tile/>
   <tile/>
   <tile/>
   <tile/>
   <tile/>
   <tile/>
   <tile/>
   <tile/>
   <tile/>
   <tile/>
   <tile/>
   <tile/>
   <tile/>
   <tile/>
   <tile/>
   <tile/>
   <tile/>
   <tile/>
   <tile/>
   <tile/>
   <tile/>
   <tile/>
   <tile/>
   <tile/>
   <tile/>
   <tile/>
   <tile/>
   <tile/>
   <tile/>
   <tile/>
   <tile/>
   <tile/>
   <tile/>
   <tile/>
   <tile/>
   <tile/>
   <tile/>
   <tile/>
   <tile/>
   <tile/>
   <tile/>
   <tile/>
   <tile/>
   <tile/>
   <tile/>
   <tile/>
   <tile/>
   <tile/>
   <tile/>
   <tile/>
   <tile/>
   <tile/>
   <tile/>
   <tile/>
   <tile/>
   <tile/>
   <tile/>
   <tile/>
   <tile/>
   <tile/>
   <tile/>
   <tile/>
   <tile/>
   <tile/>
   <tile/>
   <tile/>
   <tile/>
   <tile/>
   <tile/>
   <tile/>
   <tile/>
   <tile/>
   <tile/>
   <tile/>
   <tile/>
   <tile/>
   <tile/>
   <tile/>
   <tile/>
   <tile/>
   <tile/>
   <tile/>
   <tile/>
   <tile/>
   <tile/>
   <tile/>
   <tile/>
   <tile/>
   <tile/>
   <tile/>
   <tile/>
   <tile/>
   <tile/>
   <tile/>
   <tile/>
   <tile/>
   <tile/>
   <tile/>
   <tile/>
   <tile/>
   <tile/>
   <tile/>
   <tile/>
   <tile/>
   <tile/>
   <tile/>
   <tile/>
   <tile/>
   <tile/>
   <tile/>
   <tile/>
   <tile/>
   <tile/>
   <tile/>
   <tile/>
   <tile/>
   <tile/>
   <tile/>
   <tile/>
   <tile/>
   <tile/>
   <tile/>
   <tile/>
   <tile/>
   <tile/>
   <tile/>
   <tile/>
   <tile/>
   <tile/>
   <tile/>
   <tile/>
   <tile/>
   <tile/>
   <tile/>
   <tile/>
   <tile/>
   <tile/>
   <tile/>
   <tile/>
   <tile/>
   <tile/>
   <tile/>
   <tile/>
   <tile/>
   <tile/>
   <tile/>
   <tile/>
   <tile/>
   <tile/>
   <tile/>
   <tile/>
   <tile/>
   <tile/>
   <tile/>
   <tile/>
   <tile/>
   <tile/>
   <tile/>
   <tile/>
   <tile/>
   <tile/>
   <tile/>
   <tile/>
   <tile/>
   <tile/>
   <tile/>
   <tile/>
   <tile/>
   <tile/>
   <tile/>
   <tile/>
   <tile/>
   <tile/>
   <tile/>
   <tile/>
   <tile/>
   <tile/>
   <tile/>
   <tile/>
   <tile/>
   <tile/>
   <tile/>
   <tile/>
   <tile/>
   <tile/>
   <tile/>
   <tile/>
   <tile/>
   <tile/>
   <tile/>
   <tile/>
   <tile/>
   <tile/>
   <tile/>
   <tile/>
   <tile/>
   <tile/>
   <tile/>
   <tile/>
   <tile/>
   <tile/>
   <tile/>
   <tile/>
   <tile/>
   <tile/>
   <tile/>
   <tile/>
   <tile/>
   <tile/>
   <tile/>
   <tile/>
   <tile/>
   <tile/>
   <tile/>
   <tile/>
   <tile/>
   <tile/>
   <tile/>
   <tile/>
   <tile/>
   <tile/>
   <tile/>
   <tile/>
   <tile/>
   <tile/>
   <tile/>
   <tile/>
   <tile/>
   <tile/>
   <tile/>
   <tile/>
   <tile/>
   <tile/>
   <tile/>
   <tile/>
   <tile/>
   <tile/>
   <tile/>
   <tile/>
   <tile/>
   <tile/>
   <tile/>
   <tile/>
   <tile/>
   <tile/>
   <tile/>
   <tile/>
   <tile/>
   <tile/>
   <tile/>
   <tile/>
   <tile/>
   <tile/>
   <tile/>
   <tile/>
   <tile/>
   <tile/>
   <tile/>
   <tile/>
   <tile/>
   <tile/>
   <tile/>
   <tile/>
   <tile/>
   <tile/>
   <tile/>
   <tile/>
   <tile/>
   <tile/>
   <tile/>
   <tile/>
   <tile/>
   <tile/>
   <tile/>
   <tile/>
   <tile/>
   <tile/>
   <tile/>
   <tile/>
   <tile/>
   <tile/>
   <tile/>
   <tile/>
   <tile/>
   <tile/>
   <tile/>
   <tile/>
   <tile/>
   <tile/>
   <tile/>
   <tile/>
   <tile/>
   <tile/>
   <tile/>
   <tile/>
   <tile/>
   <tile/>
   <tile/>
   <tile/>
   <tile gid="5220"/>
   <tile gid="5221"/>
   <tile gid="5222"/>
   <tile/>
   <tile/>
   <tile/>
   <tile/>
   <tile/>
   <tile/>
   <tile/>
   <tile/>
   <tile/>
   <tile/>
   <tile/>
   <tile/>
   <tile/>
   <tile/>
   <tile/>
   <tile/>
   <tile/>
   <tile/>
   <tile/>
   <tile/>
   <tile/>
   <tile/>
   <tile/>
   <tile/>
   <tile/>
   <tile/>
   <tile/>
   <tile/>
   <tile/>
   <tile/>
   <tile/>
   <tile/>
   <tile/>
   <tile/>
   <tile/>
   <tile/>
   <tile/>
   <tile/>
   <tile/>
   <tile/>
   <tile/>
   <tile/>
   <tile/>
   <tile/>
   <tile/>
   <tile/>
   <tile/>
   <tile/>
   <tile/>
   <tile/>
   <tile/>
   <tile/>
   <tile/>
   <tile/>
   <tile/>
   <tile/>
   <tile/>
   <tile/>
   <tile/>
   <tile/>
   <tile/>
   <tile/>
   <tile/>
   <tile/>
   <tile/>
   <tile/>
   <tile/>
   <tile/>
   <tile/>
   <tile/>
   <tile/>
   <tile/>
   <tile/>
   <tile/>
   <tile/>
   <tile/>
   <tile/>
   <tile/>
   <tile/>
   <tile/>
   <tile/>
   <tile/>
   <tile/>
   <tile/>
   <tile/>
   <tile/>
   <tile/>
   <tile/>
   <tile/>
   <tile/>
   <tile/>
   <tile/>
   <tile/>
   <tile/>
   <tile/>
   <tile/>
   <tile/>
   <tile/>
   <tile/>
   <tile/>
   <tile/>
   <tile/>
   <tile/>
   <tile/>
   <tile/>
   <tile/>
   <tile/>
   <tile/>
   <tile/>
   <tile/>
   <tile/>
   <tile/>
   <tile/>
   <tile/>
   <tile/>
   <tile/>
   <tile gid="5283"/>
   <tile gid="5284"/>
   <tile gid="5285"/>
   <tile gid="5286"/>
   <tile/>
   <tile/>
   <tile/>
   <tile/>
   <tile/>
   <tile/>
   <tile/>
   <tile/>
   <tile/>
   <tile/>
   <tile/>
   <tile/>
   <tile/>
   <tile/>
   <tile/>
   <tile/>
   <tile/>
   <tile/>
   <tile/>
   <tile/>
   <tile/>
   <tile/>
   <tile/>
   <tile/>
   <tile/>
   <tile/>
   <tile/>
   <tile/>
   <tile/>
   <tile/>
   <tile/>
   <tile/>
   <tile/>
   <tile/>
   <tile/>
   <tile/>
   <tile/>
   <tile/>
   <tile/>
   <tile/>
   <tile/>
   <tile/>
   <tile/>
   <tile/>
   <tile/>
   <tile/>
   <tile/>
   <tile/>
   <tile/>
   <tile/>
   <tile/>
   <tile/>
   <tile/>
   <tile/>
   <tile/>
   <tile/>
   <tile/>
   <tile/>
   <tile/>
   <tile/>
   <tile/>
   <tile/>
   <tile/>
   <tile/>
   <tile/>
   <tile/>
   <tile/>
   <tile/>
   <tile/>
   <tile/>
   <tile/>
   <tile/>
   <tile/>
   <tile/>
   <tile/>
   <tile/>
   <tile/>
   <tile/>
   <tile/>
   <tile/>
   <tile/>
   <tile/>
   <tile/>
   <tile/>
   <tile/>
   <tile/>
   <tile/>
   <tile/>
   <tile/>
   <tile/>
   <tile/>
   <tile/>
   <tile/>
   <tile/>
   <tile/>
   <tile/>
   <tile/>
   <tile/>
   <tile/>
   <tile/>
   <tile/>
   <tile/>
   <tile/>
   <tile/>
   <tile/>
   <tile/>
   <tile/>
   <tile/>
   <tile/>
   <tile/>
   <tile/>
   <tile/>
   <tile/>
   <tile/>
   <tile/>
   <tile/>
   <tile gid="5347"/>
   <tile gid="5348"/>
   <tile gid="5349"/>
   <tile gid="5350"/>
   <tile/>
   <tile/>
   <tile/>
   <tile/>
   <tile/>
   <tile/>
   <tile/>
   <tile/>
   <tile/>
   <tile/>
   <tile/>
   <tile/>
   <tile/>
   <tile/>
   <tile/>
   <tile/>
   <tile/>
   <tile/>
   <tile/>
   <tile/>
   <tile/>
   <tile/>
   <tile/>
   <tile/>
   <tile/>
   <tile/>
   <tile/>
   <tile/>
   <tile/>
   <tile/>
   <tile/>
   <tile/>
   <tile/>
   <tile/>
   <tile/>
   <tile/>
   <tile/>
   <tile/>
   <tile/>
   <tile/>
   <tile/>
   <tile/>
   <tile/>
   <tile/>
   <tile/>
   <tile/>
   <tile/>
   <tile/>
   <tile/>
   <tile/>
   <tile/>
   <tile/>
   <tile/>
   <tile/>
   <tile/>
   <tile/>
   <tile/>
   <tile/>
   <tile/>
   <tile/>
   <tile/>
   <tile/>
   <tile/>
   <tile/>
   <tile/>
   <tile/>
   <tile/>
   <tile/>
   <tile/>
   <tile/>
   <tile/>
   <tile/>
   <tile/>
   <tile/>
   <tile/>
   <tile/>
   <tile/>
   <tile/>
   <tile/>
   <tile/>
   <tile/>
   <tile/>
   <tile/>
   <tile/>
   <tile/>
   <tile/>
   <tile/>
   <tile/>
   <tile/>
   <tile/>
   <tile/>
   <tile/>
   <tile/>
   <tile/>
   <tile/>
   <tile/>
   <tile/>
   <tile/>
   <tile/>
   <tile/>
   <tile/>
   <tile/>
   <tile/>
   <tile/>
   <tile/>
   <tile/>
   <tile/>
   <tile/>
   <tile/>
   <tile/>
   <tile/>
   <tile/>
   <tile/>
   <tile/>
   <tile/>
   <tile/>
   <tile/>
   <tile gid="5412"/>
   <tile gid="5413"/>
   <tile gid="5414"/>
   <tile/>
   <tile/>
   <tile/>
   <tile/>
   <tile/>
   <tile/>
   <tile/>
   <tile/>
   <tile/>
   <tile/>
   <tile/>
   <tile/>
   <tile/>
   <tile/>
   <tile/>
   <tile/>
   <tile/>
   <tile/>
   <tile/>
   <tile/>
   <tile/>
   <tile/>
   <tile/>
   <tile/>
   <tile/>
   <tile/>
   <tile/>
   <tile/>
   <tile/>
   <tile/>
   <tile/>
   <tile/>
   <tile/>
   <tile/>
   <tile/>
   <tile/>
   <tile/>
   <tile/>
   <tile/>
   <tile/>
   <tile/>
   <tile/>
   <tile/>
   <tile/>
   <tile/>
   <tile/>
   <tile/>
   <tile/>
   <tile/>
   <tile/>
   <tile/>
   <tile/>
   <tile/>
   <tile/>
   <tile/>
   <tile/>
   <tile/>
   <tile/>
   <tile/>
   <tile/>
   <tile/>
   <tile/>
   <tile/>
   <tile/>
   <tile/>
   <tile/>
   <tile/>
   <tile/>
   <tile/>
   <tile/>
   <tile/>
   <tile/>
   <tile/>
   <tile/>
   <tile/>
   <tile/>
   <tile/>
   <tile/>
   <tile/>
   <tile/>
   <tile/>
   <tile/>
   <tile/>
   <tile/>
   <tile/>
   <tile/>
   <tile/>
   <tile/>
   <tile/>
   <tile/>
   <tile/>
   <tile/>
   <tile/>
   <tile/>
   <tile/>
   <tile/>
   <tile/>
   <tile/>
   <tile/>
   <tile/>
   <tile/>
   <tile/>
   <tile/>
   <tile/>
   <tile/>
   <tile/>
   <tile/>
   <tile/>
   <tile/>
   <tile/>
   <tile/>
   <tile/>
   <tile/>
   <tile/>
   <tile/>
   <tile/>
   <tile/>
   <tile/>
   <tile/>
   <tile/>
   <tile/>
   <tile/>
   <tile/>
   <tile/>
   <tile/>
   <tile/>
   <tile/>
   <tile/>
   <tile/>
   <tile/>
   <tile/>
   <tile/>
   <tile/>
   <tile/>
   <tile/>
   <tile/>
   <tile/>
   <tile/>
   <tile/>
   <tile/>
   <tile/>
   <tile/>
   <tile/>
   <tile/>
   <tile/>
   <tile/>
   <tile/>
   <tile/>
   <tile/>
   <tile/>
   <tile/>
   <tile/>
   <tile/>
   <tile/>
   <tile/>
   <tile/>
   <tile/>
   <tile/>
   <tile/>
   <tile/>
   <tile/>
   <tile/>
   <tile/>
   <tile/>
   <tile/>
   <tile/>
   <tile/>
   <tile/>
   <tile/>
   <tile/>
   <tile/>
   <tile/>
   <tile/>
   <tile/>
   <tile/>
   <tile/>
   <tile/>
   <tile/>
   <tile/>
   <tile/>
   <tile/>
   <tile/>
   <tile/>
   <tile/>
   <tile/>
   <tile/>
   <tile/>
   <tile/>
   <tile/>
   <tile/>
   <tile/>
   <tile/>
   <tile/>
   <tile/>
   <tile/>
   <tile/>
   <tile/>
   <tile/>
   <tile/>
   <tile/>
   <tile/>
   <tile/>
   <tile/>
   <tile/>
   <tile/>
   <tile/>
   <tile/>
   <tile/>
   <tile/>
   <tile/>
   <tile/>
   <tile/>
   <tile/>
   <tile/>
   <tile/>
   <tile/>
   <tile/>
   <tile/>
   <tile/>
   <tile/>
   <tile/>
   <tile/>
   <tile/>
   <tile/>
   <tile/>
   <tile/>
   <tile/>
   <tile/>
   <tile/>
   <tile/>
   <tile/>
   <tile/>
   <tile/>
   <tile/>
   <tile/>
   <tile/>
   <tile/>
   <tile/>
   <tile/>
   <tile/>
   <tile/>
   <tile/>
   <tile/>
   <tile/>
   <tile/>
   <tile/>
   <tile/>
   <tile/>
   <tile/>
   <tile/>
   <tile/>
   <tile/>
   <tile/>
   <tile/>
   <tile/>
   <tile/>
   <tile/>
   <tile/>
   <tile/>
   <tile/>
   <tile/>
   <tile/>
   <tile/>
   <tile/>
   <tile/>
   <tile/>
   <tile/>
   <tile/>
   <tile/>
   <tile/>
   <tile/>
   <tile/>
   <tile/>
   <tile/>
   <tile/>
   <tile/>
   <tile/>
   <tile/>
   <tile/>
   <tile/>
   <tile/>
   <tile/>
   <tile/>
   <tile/>
   <tile/>
   <tile/>
   <tile/>
   <tile/>
   <tile/>
   <tile/>
   <tile/>
   <tile/>
   <tile/>
   <tile/>
   <tile/>
   <tile/>
   <tile/>
   <tile/>
   <tile/>
   <tile/>
   <tile/>
   <tile/>
   <tile/>
   <tile/>
   <tile/>
   <tile/>
   <tile/>
   <tile/>
   <tile/>
   <tile/>
   <tile/>
   <tile/>
   <tile/>
   <tile/>
   <tile/>
   <tile/>
   <tile/>
   <tile/>
   <tile/>
   <tile/>
   <tile/>
   <tile/>
   <tile/>
   <tile/>
   <tile/>
   <tile/>
   <tile/>
   <tile/>
   <tile/>
   <tile/>
   <tile/>
   <tile/>
   <tile/>
   <tile/>
   <tile/>
   <tile/>
   <tile/>
   <tile/>
   <tile/>
   <tile/>
   <tile/>
   <tile/>
   <tile/>
   <tile/>
   <tile/>
   <tile/>
   <tile/>
   <tile/>
   <tile/>
   <tile/>
   <tile/>
   <tile/>
   <tile/>
   <tile/>
   <tile/>
   <tile/>
   <tile/>
   <tile/>
   <tile/>
   <tile/>
   <tile/>
   <tile/>
   <tile/>
   <tile/>
   <tile/>
   <tile/>
   <tile/>
   <tile/>
   <tile/>
   <tile/>
   <tile/>
   <tile/>
   <tile/>
   <tile/>
   <tile/>
   <tile/>
   <tile/>
   <tile/>
   <tile/>
   <tile/>
   <tile/>
   <tile/>
   <tile/>
   <tile/>
   <tile/>
   <tile/>
   <tile/>
   <tile/>
   <tile/>
   <tile/>
   <tile/>
   <tile/>
   <tile/>
   <tile/>
   <tile/>
   <tile/>
   <tile/>
   <tile/>
   <tile/>
   <tile/>
   <tile/>
   <tile/>
   <tile/>
   <tile/>
   <tile/>
   <tile/>
   <tile/>
   <tile/>
   <tile/>
   <tile/>
   <tile/>
   <tile/>
   <tile/>
   <tile/>
   <tile/>
   <tile/>
   <tile/>
   <tile/>
   <tile/>
   <tile/>
   <tile/>
   <tile/>
   <tile/>
   <tile/>
   <tile/>
   <tile/>
   <tile/>
   <tile/>
   <tile/>
   <tile/>
   <tile/>
   <tile/>
   <tile/>
   <tile/>
   <tile/>
   <tile/>
   <tile/>
   <tile/>
   <tile/>
   <tile/>
   <tile/>
   <tile/>
   <tile/>
   <tile/>
   <tile/>
   <tile/>
   <tile/>
   <tile/>
   <tile/>
   <tile/>
   <tile/>
   <tile/>
   <tile/>
   <tile/>
   <tile/>
   <tile/>
   <tile/>
   <tile/>
   <tile/>
   <tile/>
   <tile/>
   <tile/>
   <tile/>
   <tile/>
   <tile/>
   <tile/>
   <tile/>
   <tile/>
   <tile/>
   <tile/>
   <tile/>
   <tile/>
   <tile/>
   <tile/>
   <tile/>
   <tile/>
   <tile/>
   <tile/>
   <tile/>
   <tile/>
   <tile/>
   <tile/>
   <tile/>
   <tile/>
   <tile/>
   <tile/>
   <tile/>
   <tile/>
   <tile/>
   <tile/>
   <tile/>
   <tile/>
   <tile/>
   <tile/>
   <tile/>
   <tile/>
   <tile/>
   <tile/>
   <tile/>
   <tile/>
   <tile/>
   <tile/>
   <tile/>
   <tile/>
   <tile/>
   <tile/>
   <tile/>
   <tile/>
   <tile/>
   <tile/>
   <tile/>
   <tile/>
   <tile/>
   <tile/>
   <tile/>
   <tile/>
   <tile/>
   <tile/>
   <tile/>
   <tile/>
   <tile/>
   <tile/>
   <tile/>
   <tile/>
   <tile/>
   <tile/>
   <tile/>
   <tile/>
   <tile/>
   <tile/>
   <tile/>
   <tile/>
   <tile/>
   <tile/>
   <tile/>
   <tile/>
   <tile/>
   <tile/>
   <tile/>
   <tile/>
   <tile/>
   <tile/>
   <tile/>
   <tile/>
   <tile/>
   <tile/>
   <tile/>
   <tile/>
   <tile/>
   <tile/>
   <tile/>
   <tile/>
   <tile/>
   <tile/>
   <tile/>
   <tile/>
   <tile/>
   <tile/>
   <tile/>
   <tile/>
   <tile/>
   <tile/>
   <tile/>
   <tile/>
   <tile/>
   <tile/>
   <tile/>
   <tile/>
   <tile/>
   <tile/>
   <tile/>
   <tile/>
   <tile/>
   <tile/>
   <tile/>
   <tile/>
   <tile/>
   <tile/>
   <tile/>
   <tile/>
   <tile/>
   <tile/>
   <tile/>
   <tile/>
   <tile/>
   <tile/>
   <tile/>
   <tile/>
   <tile/>
   <tile/>
   <tile/>
   <tile/>
   <tile/>
   <tile/>
   <tile/>
   <tile/>
   <tile/>
   <tile/>
   <tile/>
   <tile/>
   <tile/>
   <tile/>
   <tile/>
   <tile/>
   <tile/>
   <tile/>
   <tile/>
   <tile/>
   <tile/>
   <tile/>
   <tile/>
   <tile/>
   <tile/>
   <tile/>
   <tile/>
   <tile/>
   <tile/>
   <tile/>
   <tile/>
   <tile/>
   <tile/>
   <tile/>
   <tile/>
   <tile/>
   <tile/>
   <tile/>
   <tile/>
   <tile/>
   <tile/>
   <tile/>
   <tile/>
   <tile/>
   <tile/>
   <tile/>
   <tile/>
   <tile/>
   <tile/>
   <tile/>
   <tile/>
   <tile/>
   <tile/>
   <tile/>
   <tile/>
   <tile/>
   <tile/>
   <tile/>
   <tile/>
   <tile/>
   <tile/>
   <tile/>
   <tile/>
   <tile/>
   <tile/>
   <tile/>
   <tile/>
   <tile/>
   <tile/>
   <tile/>
   <tile/>
   <tile/>
   <tile/>
   <tile/>
   <tile/>
   <tile/>
   <tile/>
   <tile/>
   <tile/>
   <tile/>
   <tile/>
   <tile/>
   <tile/>
   <tile/>
   <tile/>
   <tile/>
   <tile/>
   <tile/>
   <tile/>
   <tile/>
   <tile/>
   <tile/>
   <tile/>
   <tile/>
   <tile/>
   <tile/>
   <tile/>
   <tile/>
   <tile/>
   <tile/>
   <tile/>
   <tile/>
   <tile/>
   <tile/>
   <tile/>
   <tile/>
   <tile/>
   <tile/>
   <tile/>
   <tile/>
   <tile/>
   <tile/>
   <tile/>
   <tile/>
   <tile/>
   <tile/>
   <tile/>
   <tile/>
   <tile/>
   <tile/>
   <tile/>
   <tile/>
   <tile/>
   <tile/>
   <tile/>
   <tile/>
   <tile/>
   <tile/>
   <tile/>
   <tile/>
   <tile/>
   <tile/>
   <tile/>
   <tile/>
   <tile/>
   <tile/>
   <tile/>
   <tile/>
   <tile/>
   <tile/>
   <tile/>
   <tile/>
   <tile/>
   <tile/>
   <tile/>
   <tile/>
   <tile/>
   <tile/>
   <tile/>
   <tile/>
   <tile/>
   <tile/>
   <tile/>
   <tile/>
   <tile/>
   <tile/>
   <tile/>
   <tile/>
   <tile/>
   <tile/>
   <tile/>
   <tile/>
   <tile/>
   <tile/>
   <tile/>
   <tile/>
   <tile/>
   <tile/>
   <tile/>
   <tile/>
   <tile/>
   <tile/>
   <tile/>
   <tile/>
   <tile/>
   <tile/>
   <tile/>
   <tile/>
   <tile/>
   <tile/>
   <tile/>
   <tile/>
   <tile/>
   <tile/>
   <tile/>
   <tile/>
   <tile/>
   <tile/>
   <tile/>
   <tile/>
   <tile/>
   <tile/>
   <tile/>
   <tile/>
   <tile/>
   <tile/>
   <tile/>
   <tile/>
   <tile/>
   <tile/>
   <tile/>
   <tile/>
   <tile/>
   <tile/>
   <tile/>
   <tile/>
   <tile/>
   <tile/>
   <tile/>
   <tile/>
   <tile/>
   <tile/>
   <tile/>
   <tile/>
   <tile/>
   <tile/>
   <tile/>
   <tile/>
   <tile/>
   <tile/>
   <tile/>
   <tile/>
   <tile/>
   <tile/>
   <tile/>
   <tile/>
   <tile/>
   <tile/>
   <tile/>
   <tile/>
   <tile/>
   <tile/>
   <tile/>
   <tile/>
   <tile/>
   <tile/>
   <tile/>
   <tile/>
   <tile/>
   <tile/>
   <tile/>
   <tile/>
   <tile/>
   <tile/>
   <tile/>
   <tile/>
   <tile/>
   <tile/>
   <tile/>
   <tile/>
   <tile/>
   <tile/>
   <tile/>
   <tile/>
   <tile/>
   <tile/>
   <tile/>
   <tile/>
   <tile/>
   <tile/>
   <tile/>
   <tile/>
   <tile/>
   <tile/>
   <tile/>
   <tile/>
   <tile/>
   <tile/>
   <tile/>
   <tile/>
   <tile/>
   <tile/>
   <tile/>
   <tile/>
   <tile/>
   <tile/>
   <tile/>
   <tile/>
   <tile/>
   <tile/>
   <tile/>
   <tile/>
   <tile/>
   <tile/>
   <tile/>
   <tile/>
   <tile/>
   <tile/>
   <tile/>
   <tile/>
   <tile/>
   <tile/>
   <tile/>
   <tile/>
   <tile/>
   <tile/>
   <tile/>
   <tile/>
   <tile/>
   <tile/>
   <tile/>
   <tile/>
   <tile/>
   <tile/>
   <tile/>
   <tile/>
   <tile/>
   <tile/>
   <tile/>
   <tile/>
   <tile/>
   <tile/>
   <tile/>
   <tile/>
   <tile/>
   <tile/>
   <tile/>
   <tile/>
   <tile/>
   <tile/>
   <tile/>
   <tile/>
   <tile/>
   <tile/>
   <tile/>
   <tile/>
   <tile/>
   <tile/>
   <tile/>
   <tile/>
   <tile/>
   <tile/>
   <tile/>
   <tile/>
   <tile/>
   <tile/>
   <tile/>
   <tile/>
   <tile/>
   <tile/>
   <tile/>
   <tile/>
   <tile/>
   <tile/>
   <tile/>
   <tile/>
   <tile/>
   <tile/>
   <tile/>
   <tile/>
   <tile/>
   <tile/>
   <tile/>
   <tile/>
   <tile/>
   <tile/>
   <tile/>
   <tile/>
   <tile/>
   <tile gid="1139"/>
   <tile gid="1140"/>
   <tile gid="1141"/>
   <tile gid="1142"/>
   <tile/>
   <tile/>
   <tile gid="1145"/>
   <tile gid="1146"/>
   <tile gid="1147"/>
   <tile gid="1148"/>
   <tile gid="1149"/>
   <tile gid="1150"/>
   <tile/>
   <tile/>
   <tile/>
   <tile/>
   <tile/>
   <tile/>
   <tile/>
   <tile/>
   <tile/>
   <tile/>
   <tile/>
   <tile/>
   <tile/>
   <tile/>
   <tile/>
   <tile/>
   <tile/>
   <tile/>
   <tile/>
   <tile/>
   <tile/>
   <tile/>
   <tile/>
   <tile/>
   <tile/>
   <tile/>
   <tile/>
   <tile/>
   <tile/>
   <tile/>
   <tile/>
   <tile/>
   <tile/>
   <tile/>
   <tile/>
   <tile/>
   <tile/>
   <tile/>
   <tile/>
   <tile/>
   <tile/>
   <tile/>
   <tile/>
   <tile/>
   <tile/>
   <tile/>
   <tile/>
   <tile/>
   <tile/>
   <tile/>
   <tile/>
   <tile/>
   <tile/>
   <tile/>
   <tile/>
   <tile/>
   <tile/>
   <tile/>
   <tile/>
   <tile/>
   <tile/>
   <tile/>
   <tile/>
   <tile/>
   <tile/>
   <tile/>
   <tile/>
   <tile/>
   <tile/>
   <tile/>
   <tile/>
   <tile/>
   <tile/>
   <tile/>
   <tile/>
   <tile/>
   <tile/>
   <tile/>
   <tile/>
   <tile/>
   <tile/>
   <tile/>
   <tile/>
   <tile/>
   <tile/>
   <tile/>
   <tile/>
   <tile/>
   <tile/>
   <tile/>
   <tile/>
   <tile/>
   <tile/>
   <tile/>
   <tile/>
   <tile/>
   <tile/>
   <tile/>
   <tile/>
   <tile/>
   <tile/>
   <tile/>
   <tile/>
   <tile/>
   <tile/>
   <tile/>
   <tile/>
   <tile gid="1202"/>
   <tile gid="1203"/>
   <tile gid="1204"/>
   <tile gid="1205"/>
   <tile gid="1206"/>
   <tile gid="1207"/>
   <tile gid="1208"/>
   <tile gid="1209"/>
   <tile gid="1210"/>
   <tile gid="1211"/>
   <tile gid="1212"/>
   <tile gid="1213"/>
   <tile gid="1214"/>
   <tile/>
   <tile/>
   <tile/>
   <tile/>
   <tile/>
   <tile/>
   <tile/>
   <tile/>
   <tile/>
   <tile/>
   <tile/>
   <tile/>
   <tile/>
   <tile/>
   <tile/>
   <tile/>
   <tile/>
   <tile/>
   <tile/>
   <tile/>
   <tile/>
   <tile/>
   <tile/>
   <tile/>
   <tile/>
   <tile/>
   <tile/>
   <tile/>
   <tile/>
   <tile/>
   <tile/>
   <tile/>
   <tile/>
   <tile/>
   <tile/>
   <tile/>
   <tile/>
   <tile/>
   <tile/>
   <tile/>
   <tile/>
   <tile/>
   <tile/>
   <tile/>
   <tile/>
   <tile/>
   <tile/>
   <tile/>
   <tile/>
   <tile/>
   <tile/>
   <tile/>
   <tile/>
   <tile/>
   <tile/>
   <tile/>
   <tile/>
   <tile/>
   <tile/>
   <tile/>
   <tile/>
   <tile/>
   <tile/>
   <tile/>
   <tile/>
   <tile/>
   <tile/>
   <tile/>
   <tile/>
   <tile/>
   <tile/>
   <tile/>
   <tile/>
   <tile/>
   <tile/>
   <tile/>
   <tile/>
   <tile/>
   <tile/>
   <tile/>
   <tile/>
   <tile/>
   <tile/>
   <tile/>
   <tile/>
   <tile/>
   <tile/>
   <tile/>
   <tile/>
   <tile/>
   <tile/>
   <tile/>
   <tile/>
   <tile/>
   <tile/>
   <tile/>
   <tile/>
   <tile/>
   <tile/>
   <tile/>
   <tile/>
   <tile/>
   <tile/>
   <tile/>
   <tile/>
   <tile/>
   <tile/>
   <tile gid="1266"/>
   <tile gid="1267"/>
   <tile gid="1268"/>
   <tile gid="1269"/>
   <tile gid="1270"/>
   <tile gid="1271"/>
   <tile gid="1272"/>
   <tile gid="1273"/>
   <tile gid="1274"/>
   <tile gid="1275"/>
   <tile gid="1276"/>
   <tile gid="1277"/>
   <tile gid="1278"/>
   <tile/>
   <tile/>
   <tile/>
   <tile/>
   <tile/>
   <tile/>
   <tile/>
   <tile/>
   <tile/>
   <tile/>
   <tile/>
   <tile/>
   <tile/>
   <tile/>
   <tile/>
   <tile/>
   <tile/>
   <tile/>
   <tile/>
   <tile/>
   <tile/>
   <tile/>
   <tile/>
   <tile/>
   <tile/>
   <tile/>
   <tile/>
   <tile/>
   <tile/>
   <tile/>
   <tile/>
   <tile/>
   <tile/>
   <tile/>
   <tile/>
   <tile/>
   <tile/>
   <tile/>
   <tile/>
   <tile/>
   <tile/>
   <tile/>
   <tile/>
   <tile/>
   <tile/>
   <tile/>
   <tile/>
   <tile/>
   <tile/>
   <tile/>
   <tile/>
   <tile/>
   <tile/>
   <tile/>
   <tile/>
   <tile/>
   <tile/>
   <tile/>
   <tile/>
   <tile/>
   <tile/>
   <tile/>
   <tile/>
   <tile/>
   <tile/>
   <tile/>
   <tile/>
   <tile/>
   <tile/>
   <tile/>
   <tile/>
   <tile/>
   <tile/>
   <tile/>
   <tile/>
   <tile/>
   <tile/>
   <tile/>
   <tile/>
   <tile/>
   <tile/>
   <tile/>
   <tile/>
   <tile/>
   <tile/>
   <tile/>
   <tile/>
   <tile/>
   <tile/>
   <tile/>
   <tile/>
   <tile/>
   <tile/>
   <tile/>
   <tile/>
   <tile/>
   <tile/>
   <tile/>
   <tile/>
   <tile/>
   <tile/>
   <tile gid="1362"/>
   <tile gid="1363"/>
   <tile gid="1364"/>
   <tile gid="1365"/>
   <tile gid="1366"/>
   <tile/>
   <tile gid="1330"/>
   <tile gid="1331"/>
   <tile gid="1332"/>
   <tile gid="1333"/>
   <tile gid="1334"/>
   <tile gid="1335"/>
   <tile gid="1336"/>
   <tile gid="1337"/>
   <tile gid="1338"/>
   <tile gid="1339"/>
   <tile gid="1340"/>
   <tile gid="1341"/>
   <tile gid="1342"/>
   <tile/>
   <tile/>
   <tile/>
   <tile/>
   <tile/>
   <tile/>
   <tile/>
   <tile/>
   <tile/>
   <tile/>
   <tile/>
   <tile/>
   <tile/>
   <tile/>
   <tile/>
   <tile/>
   <tile/>
   <tile/>
   <tile/>
   <tile/>
   <tile/>
   <tile/>
   <tile/>
   <tile/>
   <tile/>
   <tile/>
   <tile/>
   <tile/>
   <tile/>
   <tile/>
   <tile/>
   <tile/>
   <tile/>
   <tile/>
   <tile/>
   <tile/>
   <tile/>
   <tile/>
   <tile/>
   <tile/>
   <tile/>
   <tile/>
   <tile/>
   <tile/>
   <tile/>
   <tile/>
   <tile/>
   <tile/>
   <tile/>
   <tile/>
   <tile/>
   <tile/>
   <tile/>
   <tile/>
   <tile/>
   <tile/>
   <tile/>
   <tile/>
   <tile/>
   <tile/>
   <tile/>
   <tile/>
   <tile/>
   <tile/>
   <tile/>
   <tile/>
   <tile/>
   <tile/>
   <tile/>
   <tile/>
   <tile/>
   <tile/>
   <tile/>
   <tile/>
   <tile/>
   <tile/>
   <tile/>
   <tile/>
   <tile/>
   <tile/>
   <tile/>
   <tile/>
   <tile/>
   <tile/>
   <tile/>
   <tile/>
   <tile/>
   <tile/>
   <tile/>
   <tile/>
   <tile/>
   <tile/>
   <tile/>
   <tile/>
   <tile/>
   <tile/>
   <tile/>
   <tile/>
   <tile/>
   <tile/>
   <tile/>
   <tile gid="1426"/>
   <tile gid="1427"/>
   <tile gid="1428"/>
   <tile gid="1429"/>
   <tile gid="1430"/>
   <tile/>
   <tile gid="1394"/>
   <tile gid="1395"/>
   <tile gid="1396"/>
   <tile gid="1397"/>
   <tile gid="1398"/>
   <tile gid="1399"/>
   <tile gid="1400"/>
   <tile gid="1401"/>
   <tile gid="1402"/>
   <tile gid="1403"/>
   <tile gid="1404"/>
   <tile gid="1405"/>
   <tile gid="1406"/>
   <tile/>
   <tile/>
   <tile/>
   <tile/>
   <tile/>
   <tile/>
   <tile/>
   <tile/>
   <tile/>
   <tile/>
   <tile/>
   <tile/>
   <tile/>
   <tile/>
   <tile/>
   <tile/>
   <tile/>
   <tile/>
   <tile/>
   <tile/>
   <tile/>
   <tile/>
   <tile/>
   <tile/>
   <tile/>
   <tile/>
   <tile/>
   <tile/>
   <tile/>
   <tile/>
   <tile/>
   <tile/>
   <tile/>
   <tile/>
   <tile/>
   <tile/>
   <tile/>
   <tile/>
   <tile/>
   <tile/>
   <tile/>
   <tile/>
   <tile/>
   <tile/>
   <tile/>
   <tile/>
   <tile/>
   <tile/>
   <tile/>
   <tile/>
   <tile/>
   <tile/>
   <tile/>
   <tile/>
   <tile/>
   <tile/>
   <tile/>
   <tile/>
   <tile/>
   <tile/>
   <tile/>
   <tile/>
   <tile/>
   <tile/>
   <tile/>
   <tile/>
   <tile/>
   <tile/>
   <tile/>
   <tile/>
   <tile/>
   <tile/>
   <tile/>
   <tile/>
   <tile/>
   <tile/>
   <tile/>
   <tile/>
   <tile/>
   <tile/>
   <tile/>
   <tile/>
   <tile/>
   <tile/>
   <tile/>
   <tile/>
   <tile/>
   <tile/>
   <tile/>
   <tile/>
   <tile/>
   <tile/>
   <tile/>
   <tile/>
   <tile/>
   <tile/>
   <tile/>
   <tile/>
   <tile/>
   <tile/>
   <tile/>
   <tile gid="1490"/>
   <tile gid="1491"/>
   <tile gid="1492"/>
   <tile gid="1493"/>
   <tile gid="1494"/>
   <tile/>
   <tile/>
   <tile gid="1459"/>
   <tile gid="1460"/>
   <tile gid="1461"/>
   <tile gid="1462"/>
   <tile gid="1463"/>
   <tile gid="1464"/>
   <tile gid="1465"/>
   <tile gid="1466"/>
   <tile gid="1467"/>
   <tile gid="1468"/>
   <tile gid="1469"/>
   <tile/>
   <tile/>
   <tile/>
   <tile/>
   <tile/>
   <tile/>
   <tile/>
   <tile/>
   <tile/>
   <tile/>
   <tile/>
   <tile/>
   <tile/>
   <tile/>
   <tile/>
   <tile/>
   <tile/>
   <tile/>
   <tile/>
   <tile/>
   <tile/>
   <tile/>
   <tile/>
   <tile/>
   <tile/>
   <tile/>
   <tile/>
   <tile/>
   <tile/>
   <tile/>
   <tile/>
   <tile/>
   <tile/>
   <tile/>
   <tile/>
   <tile/>
   <tile/>
   <tile/>
   <tile/>
   <tile/>
   <tile/>
   <tile/>
   <tile/>
   <tile/>
   <tile/>
   <tile/>
   <tile/>
   <tile/>
   <tile/>
   <tile/>
   <tile/>
   <tile/>
   <tile/>
   <tile/>
   <tile/>
   <tile/>
   <tile/>
   <tile/>
   <tile/>
   <tile/>
   <tile/>
   <tile/>
   <tile/>
   <tile/>
   <tile/>
   <tile/>
   <tile/>
   <tile/>
   <tile/>
   <tile/>
   <tile/>
   <tile/>
   <tile/>
   <tile/>
   <tile/>
   <tile/>
   <tile/>
   <tile/>
   <tile/>
   <tile/>
   <tile/>
   <tile/>
   <tile/>
   <tile/>
   <tile/>
   <tile/>
   <tile/>
   <tile/>
   <tile/>
   <tile/>
   <tile/>
   <tile/>
   <tile/>
   <tile/>
   <tile/>
   <tile/>
   <tile/>
   <tile/>
   <tile/>
   <tile/>
   <tile/>
   <tile/>
   <tile/>
   <tile gid="1555"/>
   <tile gid="1556"/>
   <tile gid="1557"/>
   <tile gid="1558"/>
   <tile/>
   <tile/>
   <tile/>
   <tile gid="1524"/>
   <tile gid="1525"/>
   <tile gid="1526"/>
   <tile gid="1527"/>
   <tile gid="1528"/>
   <tile gid="1529"/>
   <tile gid="1530"/>
   <tile gid="1531"/>
   <tile gid="1532"/>
   <tile gid="1533"/>
   <tile/>
   <tile/>
   <tile/>
   <tile/>
   <tile/>
   <tile/>
   <tile/>
   <tile/>
   <tile/>
   <tile/>
   <tile/>
   <tile/>
   <tile/>
   <tile/>
   <tile/>
   <tile/>
   <tile/>
   <tile/>
   <tile/>
   <tile/>
   <tile/>
   <tile/>
   <tile/>
   <tile/>
   <tile/>
   <tile/>
   <tile/>
   <tile/>
   <tile/>
   <tile/>
   <tile/>
   <tile/>
   <tile/>
   <tile/>
   <tile/>
   <tile/>
   <tile/>
   <tile/>
   <tile/>
   <tile/>
   <tile/>
   <tile/>
   <tile/>
   <tile/>
   <tile/>
   <tile/>
   <tile/>
   <tile/>
   <tile/>
   <tile/>
   <tile/>
   <tile/>
   <tile/>
   <tile/>
   <tile/>
   <tile/>
   <tile/>
   <tile/>
   <tile/>
   <tile/>
   <tile/>
   <tile/>
   <tile/>
   <tile/>
   <tile/>
   <tile/>
   <tile/>
   <tile/>
   <tile/>
   <tile/>
   <tile/>
   <tile/>
   <tile/>
   <tile/>
   <tile/>
   <tile/>
   <tile/>
   <tile/>
   <tile/>
   <tile/>
   <tile/>
   <tile/>
   <tile/>
   <tile/>
   <tile/>
   <tile/>
   <tile/>
   <tile/>
   <tile/>
   <tile/>
   <tile/>
   <tile/>
   <tile/>
   <tile/>
   <tile/>
   <tile/>
   <tile/>
   <tile/>
   <tile/>
   <tile/>
   <tile/>
   <tile/>
   <tile/>
   <tile gid="1619"/>
   <tile gid="1620"/>
   <tile gid="1621"/>
   <tile gid="1622"/>
   <tile/>
   <tile/>
   <tile/>
   <tile gid="1588"/>
   <tile gid="1589"/>
   <tile gid="1590"/>
   <tile gid="1591"/>
   <tile gid="1592"/>
   <tile gid="1593"/>
   <tile gid="1594"/>
   <tile gid="1595"/>
   <tile gid="1596"/>
   <tile gid="1597"/>
   <tile/>
   <tile/>
   <tile/>
   <tile/>
   <tile/>
   <tile/>
   <tile/>
   <tile/>
   <tile/>
   <tile/>
   <tile/>
   <tile/>
   <tile/>
   <tile/>
   <tile/>
   <tile/>
   <tile/>
   <tile/>
   <tile/>
   <tile/>
   <tile/>
   <tile/>
   <tile/>
   <tile/>
   <tile/>
   <tile/>
   <tile/>
   <tile/>
   <tile/>
   <tile/>
   <tile/>
   <tile/>
   <tile/>
   <tile/>
   <tile/>
   <tile/>
   <tile/>
   <tile/>
   <tile/>
   <tile/>
   <tile/>
   <tile/>
   <tile/>
   <tile/>
   <tile/>
   <tile/>
   <tile/>
   <tile/>
   <tile/>
   <tile/>
   <tile/>
   <tile/>
   <tile/>
   <tile/>
   <tile/>
   <tile/>
   <tile/>
   <tile/>
   <tile/>
   <tile/>
   <tile/>
   <tile/>
   <tile/>
   <tile/>
   <tile/>
   <tile/>
   <tile/>
   <tile/>
   <tile/>
   <tile/>
   <tile/>
   <tile/>
   <tile/>
   <tile/>
   <tile/>
   <tile/>
   <tile/>
   <tile/>
   <tile/>
   <tile/>
   <tile/>
   <tile/>
   <tile/>
   <tile/>
   <tile/>
   <tile/>
   <tile/>
   <tile/>
   <tile/>
   <tile/>
   <tile/>
   <tile/>
   <tile/>
   <tile/>
   <tile/>
   <tile/>
   <tile/>
   <tile/>
   <tile/>
   <tile/>
   <tile/>
   <tile/>
   <tile/>
   <tile/>
   <tile/>
   <tile/>
   <tile/>
   <tile/>
   <tile/>
   <tile/>
   <tile gid="1652"/>
   <tile gid="1653"/>
   <tile gid="1654"/>
   <tile gid="1655"/>
   <tile gid="1656"/>
   <tile gid="1657"/>
   <tile gid="1658"/>
   <tile gid="1659"/>
   <tile gid="1660"/>
   <tile gid="1661"/>
   <tile/>
   <tile/>
   <tile/>
   <tile/>
   <tile/>
   <tile/>
   <tile/>
   <tile/>
   <tile/>
   <tile/>
   <tile/>
   <tile/>
   <tile/>
   <tile/>
   <tile/>
   <tile/>
   <tile/>
   <tile/>
   <tile/>
   <tile/>
   <tile/>
   <tile/>
   <tile/>
   <tile/>
   <tile/>
   <tile/>
   <tile/>
   <tile/>
   <tile/>
   <tile/>
   <tile/>
   <tile/>
   <tile/>
   <tile/>
   <tile/>
   <tile/>
   <tile/>
   <tile/>
   <tile/>
   <tile/>
   <tile/>
   <tile/>
   <tile/>
   <tile/>
   <tile/>
   <tile/>
   <tile/>
   <tile/>
   <tile/>
   <tile/>
   <tile/>
   <tile/>
   <tile/>
   <tile/>
   <tile/>
   <tile/>
   <tile/>
   <tile/>
   <tile/>
   <tile/>
   <tile/>
   <tile/>
   <tile/>
   <tile/>
   <tile/>
   <tile/>
   <tile/>
   <tile/>
   <tile/>
   <tile/>
   <tile/>
   <tile/>
   <tile/>
   <tile/>
   <tile/>
   <tile/>
   <tile/>
   <tile/>
   <tile/>
   <tile/>
   <tile/>
   <tile/>
   <tile/>
   <tile/>
   <tile/>
   <tile/>
   <tile/>
   <tile/>
   <tile/>
   <tile/>
   <tile/>
   <tile/>
   <tile/>
   <tile/>
   <tile/>
   <tile/>
   <tile/>
   <tile/>
   <tile/>
   <tile/>
   <tile/>
   <tile/>
   <tile/>
   <tile/>
   <tile/>
   <tile/>
   <tile/>
   <tile/>
   <tile/>
   <tile/>
   <tile/>
   <tile/>
   <tile/>
   <tile/>
   <tile/>
   <tile/>
   <tile/>
   <tile/>
   <tile/>
   <tile/>
   <tile/>
   <tile/>
   <tile/>
   <tile/>
   <tile/>
   <tile/>
   <tile/>
   <tile/>
   <tile/>
   <tile/>
   <tile/>
   <tile/>
   <tile/>
   <tile/>
   <tile/>
   <tile/>
   <tile/>
   <tile/>
   <tile/>
   <tile/>
   <tile/>
   <tile/>
   <tile/>
   <tile/>
   <tile/>
   <tile/>
   <tile/>
   <tile/>
   <tile/>
   <tile/>
   <tile/>
   <tile/>
   <tile/>
   <tile/>
   <tile/>
   <tile/>
   <tile/>
   <tile/>
   <tile/>
   <tile/>
   <tile/>
   <tile/>
   <tile/>
   <tile/>
   <tile/>
   <tile/>
   <tile/>
   <tile/>
   <tile/>
   <tile/>
   <tile/>
   <tile/>
   <tile/>
   <tile/>
   <tile/>
   <tile/>
   <tile/>
   <tile/>
   <tile/>
   <tile/>
   <tile/>
   <tile/>
   <tile/>
   <tile/>
   <tile/>
   <tile/>
   <tile/>
   <tile/>
   <tile/>
   <tile/>
   <tile/>
   <tile/>
   <tile/>
   <tile/>
   <tile/>
   <tile/>
   <tile/>
   <tile/>
   <tile/>
   <tile/>
   <tile/>
   <tile/>
   <tile/>
   <tile/>
   <tile/>
   <tile/>
   <tile/>
   <tile/>
   <tile/>
   <tile/>
   <tile/>
   <tile/>
   <tile/>
   <tile/>
   <tile/>
   <tile/>
   <tile/>
   <tile/>
   <tile/>
   <tile/>
   <tile/>
   <tile/>
   <tile/>
   <tile/>
   <tile/>
   <tile/>
   <tile/>
   <tile/>
   <tile/>
   <tile/>
   <tile/>
   <tile/>
   <tile/>
   <tile/>
   <tile/>
   <tile/>
   <tile/>
   <tile/>
   <tile/>
   <tile/>
   <tile/>
   <tile/>
   <tile/>
   <tile/>
   <tile/>
   <tile/>
  </data>
 </layer>
</map>
